FLAVOR: UltiGCode
; TIME:  400
; MATERIAL:  160
; MATERIAL2:   0
;NOZZLE_DIAMETER:   0.800000
;NOZZLE_DIAMETER2:   0.800000
;Layer count:   250.0
;LAYER:   0
M107
G0 F9000 X0 Y0
G0  F600.0 Z15
G0  F600.0 Z0.2
 G0 X0112.0 Y0063.0 F2400.0
G1 X0146.9 Y0062.9 E0010.5 F600.0
 G0 X0112.0 Y0063.0 F2400.0
G1 X0146.4 Y0068.9 E0021.0 F600.0
 G0 X0112.0 Y0063.0 F2400.0
G1 X0144.9 Y0074.8 E0031.5 F600.0
 G0 X0112.0 Y0063.0 F2400.0
G1 X0142.3 Y0080.4 E0042.0 F600.0
 G0 X0112.0 Y0063.0 F2400.0
G1 X0138.8 Y0085.4 E0052.5 F600.0
 G0 X0112.0 Y0063.0 F2400.0
G1 X0134.5 Y0089.7 E0063.0 F600.0
 G0 X0112.0 Y0063.0 F2400.0
G1 X0129.6 Y0093.2 E0073.5 F600.0
 G0 X0112.0 Y0063.0 F2400.0
G1 X0124.0 Y0095.8 E0084.0 F600.0
 G0 X0112.0 Y0063.0 F2400.0
G1 X0118.2 Y0097.4 E0094.5 F600.0
 G0 X0112.0 Y0063.0 F2400.0
G1 X0112.1 Y0098.0 E0105.0 F600.0
 G0 X0112.0 Y0063.0 F2400.0
G1 X0106.0 Y0097.5 E0115.5 F600.0
 G0 X0112.0 Y0063.0 F2400.0
G1 X0100.1 Y0095.9 E0125.9 F600.0
 G0 X0112.0 Y0063.0 F2400.0
G1 X0094.6 Y0093.3 E0136.4 F600.0
 G0 X0112.0 Y0063.0 F2400.0
G1 X0089.6 Y0089.9 E0146.9 F600.0
 G0 X0112.0 Y0063.0 F2400.0
G1 X0085.2 Y0085.6 E0157.4 F600.0
 G0 X0112.0 Y0063.0 F2400.0
G1 X0081.7 Y0080.6 E0167.9 F600.0
 G0 X0112.0 Y0063.0 F2400.0
G1 X0079.1 Y0075.1 E0178.4 F600.0
 G0 X0112.0 Y0063.0 F2400.0
G1 X0077.5 Y0069.2 E0188.9 F600.0
 G0 X0112.0 Y0063.0 F2400.0
G1 X0077.0 Y0063.1 E0199.4 F600.0
 G0 X0112.0 Y0063.0 F2400.0
G1 X0077.5 Y0057.0 E0209.9 F600.0
 G0 X0112.0 Y0063.0 F2400.0
G1 X0079.0 Y0051.1 E0220.4 F600.0
 G0 X0112.0 Y0063.0 F2400.0
G1 X0081.6 Y0045.6 E0230.9 F600.0
 G0 X0112.0 Y0063.0 F2400.0
G1 X0085.1 Y0040.6 E0241.4 F600.0
 G0 X0112.0 Y0063.0 F2400.0
G1 X0089.4 Y0036.3 E0251.9 F600.0
 G0 X0112.0 Y0063.0 F2400.0
G1 X0094.4 Y0032.7 E0262.4 F600.0
 G0 X0112.0 Y0063.0 F2400.0
G1 X0099.9 Y0030.1 E0272.9 F600.0
 G0 X0112.0 Y0063.0 F2400.0
G1 X0105.8 Y0028.5 E0283.4 F600.0
 G0 X0112.0 Y0063.0 F2400.0
G1 X0111.8 Y0028.0 E0293.9 F600.0
 G0 X0112.0 Y0063.0 F2400.0
G1 X0117.9 Y0028.5 E0304.4 F600.0
 G0 X0112.0 Y0063.0 F2400.0
G1 X0123.8 Y0030.1 E0314.9 F600.0
 G0 X0112.0 Y0063.0 F2400.0
G1 X0129.3 Y0032.6 E0325.4 F600.0
 G0 X0112.0 Y0063.0 F2400.0
G1 X0134.4 Y0036.1 E0335.9 F600.0
 G0 X0112.0 Y0063.0 F2400.0
G1 X0138.7 Y0040.4 E0346.4 F600.0
 G0 X0112.0 Y0063.0 F2400.0
G1 X0142.2 Y0045.4 E0356.9 F600.0
 G0 X0112.0 Y0063.0 F2400.0
G1 X0144.8 Y0050.9 E0367.4 F600.0
 G0 X0112.0 Y0063.0 F2400.0
G1 X0146.4 Y0056.8 E0377.8 F600.0
G0  F600.0 Z0.4
 G0 X0112.0 Y0063.0 F2400.0
G1 X0146.9 Y0062.7 E0388.3 F600.0
 G0 X0112.0 Y0063.0 F2400.0
G1 X0146.5 Y0068.8 E0398.8 F600.0
 G0 X0112.0 Y0063.0 F2400.0
G1 X0144.9 Y0074.7 E0409.3 F600.0
 G0 X0112.0 Y0063.0 F2400.0
G1 X0142.4 Y0080.3 E0419.8 F600.0
 G0 X0112.0 Y0063.0 F2400.0
G1 X0138.9 Y0085.3 E0430.3 F600.0
 G0 X0112.0 Y0063.0 F2400.0
G1 X0134.6 Y0089.6 E0440.8 F600.0
 G0 X0112.0 Y0063.0 F2400.0
G1 X0129.7 Y0093.2 E0451.3 F600.0
 G0 X0112.0 Y0063.0 F2400.0
G1 X0124.2 Y0095.8 E0461.8 F600.0
 G0 X0112.0 Y0063.0 F2400.0
G1 X0118.3 Y0097.4 E0472.3 F600.0
 G0 X0112.0 Y0063.0 F2400.0
G1 X0112.2 Y0098.0 E0482.8 F600.0
 G0 X0112.0 Y0063.0 F2400.0
G1 X0106.1 Y0097.5 E0493.3 F600.0
 G0 X0112.0 Y0063.0 F2400.0
G1 X0100.2 Y0095.9 E0503.8 F600.0
 G0 X0112.0 Y0063.0 F2400.0
G1 X0094.7 Y0093.4 E0514.3 F600.0
 G0 X0112.0 Y0063.0 F2400.0
G1 X0089.7 Y0089.9 E0524.8 F600.0
 G0 X0112.0 Y0063.0 F2400.0
G1 X0085.3 Y0085.6 E0535.3 F600.0
 G0 X0112.0 Y0063.0 F2400.0
G1 X0081.8 Y0080.7 E0545.8 F600.0
 G0 X0112.0 Y0063.0 F2400.0
G1 X0079.2 Y0075.2 E0556.3 F600.0
 G0 X0112.0 Y0063.0 F2400.0
G1 X0077.5 Y0069.3 E0566.8 F600.0
 G0 X0112.0 Y0063.0 F2400.0
G1 X0077.0 Y0063.2 E0577.3 F600.0
 G0 X0112.0 Y0063.0 F2400.0
G1 X0077.5 Y0057.1 E0587.8 F600.0
 G0 X0112.0 Y0063.0 F2400.0
G1 X0079.0 Y0051.2 E0598.3 F600.0
 G0 X0112.0 Y0063.0 F2400.0
G1 X0081.5 Y0045.7 E0608.8 F600.0
 G0 X0112.0 Y0063.0 F2400.0
G1 X0085.0 Y0040.7 E0619.3 F600.0
 G0 X0112.0 Y0063.0 F2400.0
G1 X0089.3 Y0036.3 E0629.7 F600.0
 G0 X0112.0 Y0063.0 F2400.0
G1 X0094.3 Y0032.8 E0640.2 F600.0
 G0 X0112.0 Y0063.0 F2400.0
G1 X0099.8 Y0030.2 E0650.7 F600.0
 G0 X0112.0 Y0063.0 F2400.0
G1 X0105.6 Y0028.6 E0661.2 F600.0
 G0 X0112.0 Y0063.0 F2400.0
G1 X0111.7 Y0028.0 E0671.7 F600.0
 G0 X0112.0 Y0063.0 F2400.0
G1 X0117.8 Y0028.5 E0682.2 F600.0
 G0 X0112.0 Y0063.0 F2400.0
G1 X0123.7 Y0030.0 E0692.7 F600.0
 G0 X0112.0 Y0063.0 F2400.0
G1 X0129.2 Y0032.6 E0703.2 F600.0
 G0 X0112.0 Y0063.0 F2400.0
G1 X0134.3 Y0036.0 E0713.7 F600.0
 G0 X0112.0 Y0063.0 F2400.0
G1 X0138.6 Y0040.3 E0724.2 F600.0
 G0 X0112.0 Y0063.0 F2400.0
G1 X0142.1 Y0045.3 E0734.7 F600.0
 G0 X0112.0 Y0063.0 F2400.0
G1 X0144.7 Y0050.8 E0745.2 F600.0
 G0 X0112.0 Y0063.0 F2400.0
G1 X0146.4 Y0056.7 E0755.7 F600.0
G0  F600.0 Z0.6
 G0 X0112.0 Y0063.0 F2400.0
G1 X0146.9 Y0062.6 E0766.2 F600.0
 G0 X0112.0 Y0063.0 F2400.0
G1 X0146.5 Y0068.7 E0776.7 F600.0
 G0 X0112.0 Y0063.0 F2400.0
G1 X0145.0 Y0074.6 E0787.2 F600.0
 G0 X0112.0 Y0063.0 F2400.0
G1 X0142.4 Y0080.1 E0797.7 F600.0
 G0 X0112.0 Y0063.0 F2400.0
G1 X0139.0 Y0085.2 E0808.2 F600.0
 G0 X0112.0 Y0063.0 F2400.0
G1 X0134.7 Y0089.5 E0818.7 F600.0
 G0 X0112.0 Y0063.0 F2400.0
G1 X0129.8 Y0093.1 E0829.2 F600.0
 G0 X0112.0 Y0063.0 F2400.0
G1 X0124.3 Y0095.7 E0839.7 F600.0
 G0 X0112.0 Y0063.0 F2400.0
G1 X0118.4 Y0097.4 E0850.2 F600.0
 G0 X0112.0 Y0063.0 F2400.0
G1 X0112.3 Y0098.0 E0860.7 F600.0
 G0 X0112.0 Y0063.0 F2400.0
G1 X0106.2 Y0097.5 E0871.2 F600.0
 G0 X0112.0 Y0063.0 F2400.0
G1 X0100.3 Y0096.0 E0881.6 F600.0
 G0 X0112.0 Y0063.0 F2400.0
G1 X0094.8 Y0093.5 E0892.1 F600.0
 G0 X0112.0 Y0063.0 F2400.0
G1 X0089.7 Y0090.0 E0902.6 F600.0
 G0 X0112.0 Y0063.0 F2400.0
G1 X0085.4 Y0085.7 E0913.1 F600.0
 G0 X0112.0 Y0063.0 F2400.0
G1 X0081.8 Y0080.8 E0923.6 F600.0
 G0 X0112.0 Y0063.0 F2400.0
G1 X0079.2 Y0075.3 E0934.1 F600.0
 G0 X0112.0 Y0063.0 F2400.0
G1 X0077.6 Y0069.4 E0944.6 F600.0
 G0 X0112.0 Y0063.0 F2400.0
G1 X0077.0 Y0063.3 E0955.1 F600.0
 G0 X0112.0 Y0063.0 F2400.0
G1 X0077.4 Y0057.3 E0965.6 F600.0
 G0 X0112.0 Y0063.0 F2400.0
G1 X0079.0 Y0051.4 E0976.1 F600.0
 G0 X0112.0 Y0063.0 F2400.0
G1 X0081.5 Y0045.8 E0986.6 F600.0
 G0 X0112.0 Y0063.0 F2400.0
G1 X0084.9 Y0040.8 E0997.1 F600.0
 G0 X0112.0 Y0063.0 F2400.0
G1 X0089.2 Y0036.4 E1007.6 F600.0
 G0 X0112.0 Y0063.0 F2400.0
G1 X0094.1 Y0032.9 E1018.1 F600.0
 G0 X0112.0 Y0063.0 F2400.0
G1 X0099.6 Y0030.2 E1028.6 F600.0
 G0 X0112.0 Y0063.0 F2400.0
G1 X0105.5 Y0028.6 E1039.1 F600.0
 G0 X0112.0 Y0063.0 F2400.0
G1 X0111.6 Y0028.0 E1049.6 F600.0
 G0 X0112.0 Y0063.0 F2400.0
G1 X0117.7 Y0028.5 E1060.1 F600.0
 G0 X0112.0 Y0063.0 F2400.0
G1 X0123.6 Y0030.0 E1070.6 F600.0
 G0 X0112.0 Y0063.0 F2400.0
G1 X0129.1 Y0032.5 E1081.1 F600.0
 G0 X0112.0 Y0063.0 F2400.0
G1 X0134.2 Y0035.9 E1091.6 F600.0
 G0 X0112.0 Y0063.0 F2400.0
G1 X0138.5 Y0040.2 E1102.1 F600.0
 G0 X0112.0 Y0063.0 F2400.0
G1 X0142.1 Y0045.2 E1112.6 F600.0
 G0 X0112.0 Y0063.0 F2400.0
G1 X0144.7 Y0050.7 E1123.1 F600.0
 G0 X0112.0 Y0063.0 F2400.0
G1 X0146.3 Y0056.5 E1133.5 F600.0
G0  F600.0 Z0.8
 G0 X0112.0 Y0063.0 F2400.0
G1 X0146.9 Y0062.5 E1144.0 F600.0
 G0 X0112.0 Y0063.0 F2400.0
G1 X0146.5 Y0068.6 E1154.5 F600.0
 G0 X0112.0 Y0063.0 F2400.0
G1 X0145.0 Y0074.5 E1165.0 F600.0
 G0 X0112.0 Y0063.0 F2400.0
G1 X0142.5 Y0080.0 E1175.5 F600.0
 G0 X0112.0 Y0063.0 F2400.0
G1 X0139.1 Y0085.1 E1186.0 F600.0
 G0 X0112.0 Y0063.0 F2400.0
G1 X0134.8 Y0089.5 E1196.5 F600.0
 G0 X0112.0 Y0063.0 F2400.0
G1 X0129.9 Y0093.0 E1207.0 F600.0
 G0 X0112.0 Y0063.0 F2400.0
G1 X0124.4 Y0095.7 E1217.5 F600.0
 G0 X0112.0 Y0063.0 F2400.0
G1 X0118.5 Y0097.3 E1228.0 F600.0
 G0 X0112.0 Y0063.0 F2400.0
G1 X0112.4 Y0098.0 E1238.5 F600.0
 G0 X0112.0 Y0063.0 F2400.0
G1 X0106.4 Y0097.5 E1249.0 F600.0
 G0 X0112.0 Y0063.0 F2400.0
G1 X0100.4 Y0096.0 E1259.5 F600.0
 G0 X0112.0 Y0063.0 F2400.0
G1 X0094.9 Y0093.5 E1270.0 F600.0
 G0 X0112.0 Y0063.0 F2400.0
G1 X0089.8 Y0090.1 E1280.5 F600.0
 G0 X0112.0 Y0063.0 F2400.0
G1 X0085.5 Y0085.8 E1291.0 F600.0
 G0 X0112.0 Y0063.0 F2400.0
G1 X0081.9 Y0080.9 E1301.5 F600.0
 G0 X0112.0 Y0063.0 F2400.0
G1 X0079.2 Y0075.4 E1312.0 F600.0
 G0 X0112.0 Y0063.0 F2400.0
G1 X0077.6 Y0069.5 E1322.5 F600.0
 G0 X0112.0 Y0063.0 F2400.0
G1 X0077.0 Y0063.5 E1333.0 F600.0
 G0 X0112.0 Y0063.0 F2400.0
G1 X0077.4 Y0057.4 E1343.5 F600.0
 G0 X0112.0 Y0063.0 F2400.0
G1 X0078.9 Y0051.5 E1354.0 F600.0
 G0 X0112.0 Y0063.0 F2400.0
G1 X0081.4 Y0045.9 E1364.5 F600.0
 G0 X0112.0 Y0063.0 F2400.0
G1 X0084.8 Y0040.9 E1374.9 F600.0
 G0 X0112.0 Y0063.0 F2400.0
G1 X0089.1 Y0036.5 E1385.4 F600.0
 G0 X0112.0 Y0063.0 F2400.0
G1 X0094.0 Y0032.9 E1395.9 F600.0
 G0 X0112.0 Y0063.0 F2400.0
G1 X0099.5 Y0030.3 E1406.4 F600.0
 G0 X0112.0 Y0063.0 F2400.0
G1 X0105.4 Y0028.6 E1416.9 F600.0
 G0 X0112.0 Y0063.0 F2400.0
G1 X0111.5 Y0028.0 E1427.4 F600.0
 G0 X0112.0 Y0063.0 F2400.0
G1 X0117.5 Y0028.4 E1437.9 F600.0
 G0 X0112.0 Y0063.0 F2400.0
G1 X0123.5 Y0029.9 E1448.4 F600.0
 G0 X0112.0 Y0063.0 F2400.0
G1 X0129.0 Y0032.4 E1458.9 F600.0
 G0 X0112.0 Y0063.0 F2400.0
G1 X0134.1 Y0035.9 E1469.4 F600.0
 G0 X0112.0 Y0063.0 F2400.0
G1 X0138.4 Y0040.1 E1479.9 F600.0
 G0 X0112.0 Y0063.0 F2400.0
G1 X0142.0 Y0045.1 E1490.4 F600.0
 G0 X0112.0 Y0063.0 F2400.0
G1 X0144.7 Y0050.6 E1500.9 F600.0
 G0 X0112.0 Y0063.0 F2400.0
G1 X0146.3 Y0056.4 E1511.4 F600.0
G0  F600.0 Z1.0
 G0 X0112.0 Y0063.0 F2400.0
G1 X0146.9 Y0062.4 E1521.9 F600.0
 G0 X0112.0 Y0063.0 F2400.0
G1 X0146.5 Y0068.4 E1532.4 F600.0
 G0 X0112.0 Y0063.0 F2400.0
G1 X0145.0 Y0074.4 E1542.9 F600.0
 G0 X0112.0 Y0063.0 F2400.0
G1 X0142.6 Y0079.9 E1553.4 F600.0
 G0 X0112.0 Y0063.0 F2400.0
G1 X0139.1 Y0085.0 E1563.9 F600.0
 G0 X0112.0 Y0063.0 F2400.0
G1 X0134.9 Y0089.4 E1574.4 F600.0
 G0 X0112.0 Y0063.0 F2400.0
G1 X0130.0 Y0093.0 E1584.9 F600.0
 G0 X0112.0 Y0063.0 F2400.0
G1 X0124.5 Y0095.6 E1595.4 F600.0
 G0 X0112.0 Y0063.0 F2400.0
G1 X0118.6 Y0097.3 E1605.9 F600.0
 G0 X0112.0 Y0063.0 F2400.0
G1 X0112.6 Y0098.0 E1616.4 F600.0
 G0 X0112.0 Y0063.0 F2400.0
G1 X0106.5 Y0097.5 E1626.8 F600.0
 G0 X0112.0 Y0063.0 F2400.0
G1 X0100.6 Y0096.1 E1637.3 F600.0
 G0 X0112.0 Y0063.0 F2400.0
G1 X0095.0 Y0093.6 E1647.8 F600.0
 G0 X0112.0 Y0063.0 F2400.0
G1 X0089.9 Y0090.2 E1658.3 F600.0
 G0 X0112.0 Y0063.0 F2400.0
G1 X0085.6 Y0085.9 E1668.8 F600.0
 G0 X0112.0 Y0063.0 F2400.0
G1 X0082.0 Y0081.0 E1679.3 F600.0
 G0 X0112.0 Y0063.0 F2400.0
G1 X0079.3 Y0075.5 E1689.8 F600.0
 G0 X0112.0 Y0063.0 F2400.0
G1 X0077.6 Y0069.7 E1700.3 F600.0
 G0 X0112.0 Y0063.0 F2400.0
G1 X0077.0 Y0063.6 E1710.8 F600.0
 G0 X0112.0 Y0063.0 F2400.0
G1 X0077.4 Y0057.5 E1721.3 F600.0
 G0 X0112.0 Y0063.0 F2400.0
G1 X0078.9 Y0051.6 E1731.8 F600.0
 G0 X0112.0 Y0063.0 F2400.0
G1 X0081.4 Y0046.0 E1742.3 F600.0
 G0 X0112.0 Y0063.0 F2400.0
G1 X0084.8 Y0041.0 E1752.8 F600.0
 G0 X0112.0 Y0063.0 F2400.0
G1 X0089.0 Y0036.6 E1763.3 F600.0
 G0 X0112.0 Y0063.0 F2400.0
G1 X0093.9 Y0033.0 E1773.8 F600.0
 G0 X0112.0 Y0063.0 F2400.0
G1 X0099.4 Y0030.3 E1784.3 F600.0
 G0 X0112.0 Y0063.0 F2400.0
G1 X0105.3 Y0028.6 E1794.8 F600.0
 G0 X0112.0 Y0063.0 F2400.0
G1 X0111.3 Y0028.0 E1805.3 F600.0
 G0 X0112.0 Y0063.0 F2400.0
G1 X0117.4 Y0028.4 E1815.8 F600.0
 G0 X0112.0 Y0063.0 F2400.0
G1 X0123.3 Y0029.9 E1826.3 F600.0
 G0 X0112.0 Y0063.0 F2400.0
G1 X0128.9 Y0032.4 E1836.8 F600.0
 G0 X0112.0 Y0063.0 F2400.0
G1 X0134.0 Y0035.8 E1847.3 F600.0
 G0 X0112.0 Y0063.0 F2400.0
G1 X0138.4 Y0040.0 E1857.8 F600.0
 G0 X0112.0 Y0063.0 F2400.0
G1 X0141.9 Y0045.0 E1868.3 F600.0
 G0 X0112.0 Y0063.0 F2400.0
G1 X0144.6 Y0050.4 E1878.7 F600.0
 G0 X0112.0 Y0063.0 F2400.0
G1 X0146.3 Y0056.3 E1889.2 F600.0
G0  F600.0 Z1.2
 G0 X0112.0 Y0063.0 F2400.0
G1 X0146.9 Y0062.2 E1899.7 F600.0
 G0 X0112.0 Y0063.0 F2400.0
G1 X0146.5 Y0068.3 E1910.2 F600.0
 G0 X0112.0 Y0063.0 F2400.0
G1 X0145.1 Y0074.2 E1920.7 F600.0
 G0 X0112.0 Y0063.0 F2400.0
G1 X0142.6 Y0079.8 E1931.2 F600.0
 G0 X0112.0 Y0063.0 F2400.0
G1 X0139.2 Y0084.9 E1941.7 F600.0
 G0 X0112.0 Y0063.0 F2400.0
G1 X0135.0 Y0089.3 E1952.2 F600.0
 G0 X0112.0 Y0063.0 F2400.0
G1 X0130.1 Y0092.9 E1962.7 F600.0
 G0 X0112.0 Y0063.0 F2400.0
G1 X0124.6 Y0095.6 E1973.2 F600.0
 G0 X0112.0 Y0063.0 F2400.0
G1 X0118.8 Y0097.3 E1983.7 F600.0
 G0 X0112.0 Y0063.0 F2400.0
G1 X0112.7 Y0098.0 E1994.2 F600.0
 G0 X0112.0 Y0063.0 F2400.0
G1 X0106.6 Y0097.5 E2004.7 F600.0
 G0 X0112.0 Y0063.0 F2400.0
G1 X0100.7 Y0096.1 E2015.2 F600.0
 G0 X0112.0 Y0063.0 F2400.0
G1 X0095.1 Y0093.6 E2025.7 F600.0
 G0 X0112.0 Y0063.0 F2400.0
G1 X0090.0 Y0090.2 E2036.2 F600.0
 G0 X0112.0 Y0063.0 F2400.0
G1 X0085.6 Y0086.0 E2046.7 F600.0
 G0 X0112.0 Y0063.0 F2400.0
G1 X0082.0 Y0081.1 E2057.2 F600.0
 G0 X0112.0 Y0063.0 F2400.0
G1 X0079.3 Y0075.6 E2067.7 F600.0
 G0 X0112.0 Y0063.0 F2400.0
G1 X0077.6 Y0069.8 E2078.2 F600.0
 G0 X0112.0 Y0063.0 F2400.0
G1 X0077.0 Y0063.7 E2088.7 F600.0
 G0 X0112.0 Y0063.0 F2400.0
G1 X0077.4 Y0057.6 E2099.2 F600.0
 G0 X0112.0 Y0063.0 F2400.0
G1 X0078.8 Y0051.7 E2109.7 F600.0
 G0 X0112.0 Y0063.0 F2400.0
G1 X0081.3 Y0046.1 E2120.2 F600.0
 G0 X0112.0 Y0063.0 F2400.0
G1 X0084.7 Y0041.1 E2130.6 F600.0
 G0 X0112.0 Y0063.0 F2400.0
G1 X0088.9 Y0036.7 E2141.1 F600.0
 G0 X0112.0 Y0063.0 F2400.0
G1 X0093.8 Y0033.0 E2151.6 F600.0
 G0 X0112.0 Y0063.0 F2400.0
G1 X0099.3 Y0030.4 E2162.1 F600.0
 G0 X0112.0 Y0063.0 F2400.0
G1 X0105.2 Y0028.7 E2172.6 F600.0
 G0 X0112.0 Y0063.0 F2400.0
G1 X0111.2 Y0028.0 E2183.1 F600.0
 G0 X0112.0 Y0063.0 F2400.0
G1 X0117.3 Y0028.4 E2193.6 F600.0
 G0 X0112.0 Y0063.0 F2400.0
G1 X0123.2 Y0029.9 E2204.1 F600.0
 G0 X0112.0 Y0063.0 F2400.0
G1 X0128.8 Y0032.3 E2214.6 F600.0
 G0 X0112.0 Y0063.0 F2400.0
G1 X0133.9 Y0035.7 E2225.1 F600.0
 G0 X0112.0 Y0063.0 F2400.0
G1 X0138.3 Y0039.9 E2235.6 F600.0
 G0 X0112.0 Y0063.0 F2400.0
G1 X0141.9 Y0044.9 E2246.1 F600.0
 G0 X0112.0 Y0063.0 F2400.0
G1 X0144.6 Y0050.3 E2256.6 F600.0
 G0 X0112.0 Y0063.0 F2400.0
G1 X0146.3 Y0056.2 E2267.1 F600.0
G0  F600.0 Z1.4000001
 G0 X0112.0 Y0063.0 F2400.0
G1 X0146.9 Y0062.1 E2277.6 F600.0
 G0 X0112.0 Y0063.0 F2400.0
G1 X0146.5 Y0068.2 E2288.1 F600.0
 G0 X0112.0 Y0063.0 F2400.0
G1 X0145.1 Y0074.1 E2298.6 F600.0
 G0 X0112.0 Y0063.0 F2400.0
G1 X0142.7 Y0079.7 E2309.1 F600.0
 G0 X0112.0 Y0063.0 F2400.0
G1 X0139.3 Y0084.8 E2319.6 F600.0
 G0 X0112.0 Y0063.0 F2400.0
G1 X0135.1 Y0089.2 E2330.1 F600.0
 G0 X0112.0 Y0063.0 F2400.0
G1 X0130.2 Y0092.8 E2340.6 F600.0
 G0 X0112.0 Y0063.0 F2400.0
G1 X0124.7 Y0095.5 E2351.1 F600.0
 G0 X0112.0 Y0063.0 F2400.0
G1 X0118.9 Y0097.3 E2361.6 F600.0
 G0 X0112.0 Y0063.0 F2400.0
G1 X0112.8 Y0098.0 E2372.1 F600.0
 G0 X0112.0 Y0063.0 F2400.0
G1 X0106.7 Y0097.6 E2382.5 F600.0
 G0 X0112.0 Y0063.0 F2400.0
G1 X0100.8 Y0096.1 E2393.0 F600.0
 G0 X0112.0 Y0063.0 F2400.0
G1 X0095.2 Y0093.7 E2403.5 F600.0
 G0 X0112.0 Y0063.0 F2400.0
G1 X0090.1 Y0090.3 E2414.0 F600.0
 G0 X0112.0 Y0063.0 F2400.0
G1 X0085.7 Y0086.1 E2424.5 F600.0
 G0 X0112.0 Y0063.0 F2400.0
G1 X0082.1 Y0081.2 E2435.0 F600.0
 G0 X0112.0 Y0063.0 F2400.0
G1 X0079.4 Y0075.7 E2445.5 F600.0
 G0 X0112.0 Y0063.0 F2400.0
G1 X0077.7 Y0069.9 E2456.0 F600.0
 G0 X0112.0 Y0063.0 F2400.0
G1 X0077.0 Y0063.8 E2466.5 F600.0
 G0 X0112.0 Y0063.0 F2400.0
G1 X0077.4 Y0057.7 E2477.0 F600.0
 G0 X0112.0 Y0063.0 F2400.0
G1 X0078.8 Y0051.8 E2487.5 F600.0
 G0 X0112.0 Y0063.0 F2400.0
G1 X0081.2 Y0046.2 E2498.0 F600.0
 G0 X0112.0 Y0063.0 F2400.0
G1 X0084.6 Y0041.1 E2508.5 F600.0
 G0 X0112.0 Y0063.0 F2400.0
G1 X0088.8 Y0036.7 E2519.0 F600.0
 G0 X0112.0 Y0063.0 F2400.0
G1 X0093.7 Y0033.1 E2529.5 F600.0
 G0 X0112.0 Y0063.0 F2400.0
G1 X0099.2 Y0030.4 E2540.0 F600.0
 G0 X0112.0 Y0063.0 F2400.0
G1 X0105.0 Y0028.7 E2550.5 F600.0
 G0 X0112.0 Y0063.0 F2400.0
G1 X0111.1 Y0028.0 E2561.0 F600.0
 G0 X0112.0 Y0063.0 F2400.0
G1 X0117.2 Y0028.4 E2571.5 F600.0
 G0 X0112.0 Y0063.0 F2400.0
G1 X0123.1 Y0029.8 E2582.0 F600.0
 G0 X0112.0 Y0063.0 F2400.0
G1 X0128.7 Y0032.3 E2592.5 F600.0
 G0 X0112.0 Y0063.0 F2400.0
G1 X0133.8 Y0035.6 E2603.0 F600.0
 G0 X0112.0 Y0063.0 F2400.0
G1 X0138.2 Y0039.8 E2613.5 F600.0
 G0 X0112.0 Y0063.0 F2400.0
G1 X0141.8 Y0044.7 E2623.9 F600.0
 G0 X0112.0 Y0063.0 F2400.0
G1 X0144.5 Y0050.2 E2634.4 F600.0
 G0 X0112.0 Y0063.0 F2400.0
G1 X0146.3 Y0056.1 E2644.9 F600.0
G0  F600.0 Z1.6000001
 G0 X0112.0 Y0063.0 F2400.0
G1 X0146.9 Y0062.0 E2655.4 F600.0
 G0 X0112.0 Y0063.0 F2400.0
G1 X0146.6 Y0068.1 E2665.9 F600.0
 G0 X0112.0 Y0063.0 F2400.0
G1 X0145.2 Y0074.0 E2676.4 F600.0
 G0 X0112.0 Y0063.0 F2400.0
G1 X0142.7 Y0079.6 E2686.9 F600.0
 G0 X0112.0 Y0063.0 F2400.0
G1 X0139.4 Y0084.7 E2697.4 F600.0
 G0 X0112.0 Y0063.0 F2400.0
G1 X0135.2 Y0089.1 E2707.9 F600.0
 G0 X0112.0 Y0063.0 F2400.0
G1 X0130.3 Y0092.8 E2718.4 F600.0
 G0 X0112.0 Y0063.0 F2400.0
G1 X0124.8 Y0095.5 E2728.9 F600.0
 G0 X0112.0 Y0063.0 F2400.0
G1 X0119.0 Y0097.2 E2739.4 F600.0
 G0 X0112.0 Y0063.0 F2400.0
G1 X0112.9 Y0097.9 E2749.9 F600.0
 G0 X0112.0 Y0063.0 F2400.0
G1 X0106.8 Y0097.6 E2760.4 F600.0
 G0 X0112.0 Y0063.0 F2400.0
G1 X0100.9 Y0096.2 E2770.9 F600.0
 G0 X0112.0 Y0063.0 F2400.0
G1 X0095.3 Y0093.8 E2781.4 F600.0
 G0 X0112.0 Y0063.0 F2400.0
G1 X0090.2 Y0090.4 E2791.9 F600.0
 G0 X0112.0 Y0063.0 F2400.0
G1 X0085.8 Y0086.2 E2802.4 F600.0
 G0 X0112.0 Y0063.0 F2400.0
G1 X0082.2 Y0081.3 E2812.9 F600.0
 G0 X0112.0 Y0063.0 F2400.0
G1 X0079.4 Y0075.9 E2823.4 F600.0
 G0 X0112.0 Y0063.0 F2400.0
G1 X0077.7 Y0070.0 E2833.9 F600.0
 G0 X0112.0 Y0063.0 F2400.0
G1 X0077.0 Y0064.0 E2844.4 F600.0
 G0 X0112.0 Y0063.0 F2400.0
G1 X0077.3 Y0057.9 E2854.9 F600.0
 G0 X0112.0 Y0063.0 F2400.0
G1 X0078.8 Y0051.9 E2865.4 F600.0
 G0 X0112.0 Y0063.0 F2400.0
G1 X0081.2 Y0046.3 E2875.8 F600.0
 G0 X0112.0 Y0063.0 F2400.0
G1 X0084.5 Y0041.2 E2886.3 F600.0
 G0 X0112.0 Y0063.0 F2400.0
G1 X0088.7 Y0036.8 E2896.8 F600.0
 G0 X0112.0 Y0063.0 F2400.0
G1 X0093.6 Y0033.2 E2907.3 F600.0
 G0 X0112.0 Y0063.0 F2400.0
G1 X0099.1 Y0030.4 E2917.8 F600.0
 G0 X0112.0 Y0063.0 F2400.0
G1 X0104.9 Y0028.7 E2928.3 F600.0
 G0 X0112.0 Y0063.0 F2400.0
G1 X0111.0 Y0028.0 E2938.8 F600.0
 G0 X0112.0 Y0063.0 F2400.0
G1 X0117.1 Y0028.4 E2949.3 F600.0
 G0 X0112.0 Y0063.0 F2400.0
G1 X0123.0 Y0029.8 E2959.8 F600.0
 G0 X0112.0 Y0063.0 F2400.0
G1 X0128.6 Y0032.2 E2970.3 F600.0
 G0 X0112.0 Y0063.0 F2400.0
G1 X0133.7 Y0035.6 E2980.8 F600.0
 G0 X0112.0 Y0063.0 F2400.0
G1 X0138.1 Y0039.7 E2991.3 F600.0
 G0 X0112.0 Y0063.0 F2400.0
G1 X0141.8 Y0044.6 E3001.8 F600.0
 G0 X0112.0 Y0063.0 F2400.0
G1 X0144.5 Y0050.1 E3012.3 F600.0
 G0 X0112.0 Y0063.0 F2400.0
G1 X0146.2 Y0055.9 E3022.8 F600.0
G0  F600.0 Z1.8000002
 G0 X0112.0 Y0063.0 F2400.0
G1 X0146.9 Y0061.9 E3033.3 F600.0
 G0 X0112.0 Y0063.0 F2400.0
G1 X0146.6 Y0068.0 E3043.8 F600.0
 G0 X0112.0 Y0063.0 F2400.0
G1 X0145.2 Y0073.9 E3054.3 F600.0
 G0 X0112.0 Y0063.0 F2400.0
G1 X0142.8 Y0079.5 E3064.8 F600.0
 G0 X0112.0 Y0063.0 F2400.0
G1 X0139.4 Y0084.6 E3075.3 F600.0
 G0 X0112.0 Y0063.0 F2400.0
G1 X0135.3 Y0089.1 E3085.8 F600.0
 G0 X0112.0 Y0063.0 F2400.0
G1 X0130.4 Y0092.7 E3096.3 F600.0
 G0 X0112.0 Y0063.0 F2400.0
G1 X0124.9 Y0095.5 E3106.8 F600.0
 G0 X0112.0 Y0063.0 F2400.0
G1 X0119.1 Y0097.2 E3117.3 F600.0
 G0 X0112.0 Y0063.0 F2400.0
G1 X0113.1 Y0097.9 E3127.7 F600.0
 G0 X0112.0 Y0063.0 F2400.0
G1 X0107.0 Y0097.6 E3138.2 F600.0
 G0 X0112.0 Y0063.0 F2400.0
G1 X0101.0 Y0096.2 E3148.7 F600.0
 G0 X0112.0 Y0063.0 F2400.0
G1 X0095.4 Y0093.8 E3159.2 F600.0
 G0 X0112.0 Y0063.0 F2400.0
G1 X0090.3 Y0090.5 E3169.7 F600.0
 G0 X0112.0 Y0063.0 F2400.0
G1 X0085.9 Y0086.3 E3180.2 F600.0
 G0 X0112.0 Y0063.0 F2400.0
G1 X0082.2 Y0081.4 E3190.7 F600.0
 G0 X0112.0 Y0063.0 F2400.0
G1 X0079.5 Y0076.0 E3201.2 F600.0
 G0 X0112.0 Y0063.0 F2400.0
G1 X0077.7 Y0070.1 E3211.7 F600.0
 G0 X0112.0 Y0063.0 F2400.0
G1 X0077.0 Y0064.1 E3222.2 F600.0
 G0 X0112.0 Y0063.0 F2400.0
G1 X0077.3 Y0058.0 E3232.7 F600.0
 G0 X0112.0 Y0063.0 F2400.0
G1 X0078.7 Y0052.0 E3243.2 F600.0
 G0 X0112.0 Y0063.0 F2400.0
G1 X0081.1 Y0046.4 E3253.7 F600.0
 G0 X0112.0 Y0063.0 F2400.0
G1 X0084.5 Y0041.3 E3264.2 F600.0
 G0 X0112.0 Y0063.0 F2400.0
G1 X0088.6 Y0036.9 E3274.7 F600.0
 G0 X0112.0 Y0063.0 F2400.0
G1 X0093.5 Y0033.2 E3285.2 F600.0
 G0 X0112.0 Y0063.0 F2400.0
G1 X0099.0 Y0030.5 E3295.7 F600.0
 G0 X0112.0 Y0063.0 F2400.0
G1 X0104.8 Y0028.7 E3306.2 F600.0
 G0 X0112.0 Y0063.0 F2400.0
G1 X0110.9 Y0028.0 E3316.7 F600.0
 G0 X0112.0 Y0063.0 F2400.0
G1 X0116.9 Y0028.3 E3327.2 F600.0
 G0 X0112.0 Y0063.0 F2400.0
G1 X0122.9 Y0029.7 E3337.7 F600.0
 G0 X0112.0 Y0063.0 F2400.0
G1 X0128.5 Y0032.1 E3348.2 F600.0
 G0 X0112.0 Y0063.0 F2400.0
G1 X0133.6 Y0035.5 E3358.7 F600.0
 G0 X0112.0 Y0063.0 F2400.0
G1 X0138.0 Y0039.7 E3369.2 F600.0
 G0 X0112.0 Y0063.0 F2400.0
G1 X0141.7 Y0044.5 E3379.6 F600.0
 G0 X0112.0 Y0063.0 F2400.0
G1 X0144.4 Y0050.0 E3390.1 F600.0
 G0 X0112.0 Y0063.0 F2400.0
G1 X0146.2 Y0055.8 E3400.6 F600.0
G0  F600.0 Z2.0000002
 G0 X0112.0 Y0063.0 F2400.0
G1 X0146.9 Y0061.8 E3411.1 F600.0
 G0 X0112.0 Y0063.0 F2400.0
G1 X0146.6 Y0067.8 E3421.6 F600.0
 G0 X0112.0 Y0063.0 F2400.0
G1 X0145.2 Y0073.8 E3432.1 F600.0
 G0 X0112.0 Y0063.0 F2400.0
G1 X0142.8 Y0079.4 E3442.6 F600.0
 G0 X0112.0 Y0063.0 F2400.0
G1 X0139.5 Y0084.5 E3453.1 F600.0
 G0 X0112.0 Y0063.0 F2400.0
G1 X0135.4 Y0089.0 E3463.6 F600.0
 G0 X0112.0 Y0063.0 F2400.0
G1 X0130.5 Y0092.6 E3474.1 F600.0
 G0 X0112.0 Y0063.0 F2400.0
G1 X0125.1 Y0095.4 E3484.6 F600.0
 G0 X0112.0 Y0063.0 F2400.0
G1 X0119.2 Y0097.2 E3495.1 F600.0
 G0 X0112.0 Y0063.0 F2400.0
G1 X0113.2 Y0097.9 E3505.6 F600.0
 G0 X0112.0 Y0063.0 F2400.0
G1 X0107.1 Y0097.6 E3516.1 F600.0
 G0 X0112.0 Y0063.0 F2400.0
G1 X0101.1 Y0096.2 E3526.6 F600.0
 G0 X0112.0 Y0063.0 F2400.0
G1 X0095.5 Y0093.9 E3537.1 F600.0
 G0 X0112.0 Y0063.0 F2400.0
G1 X0090.4 Y0090.5 E3547.6 F600.0
 G0 X0112.0 Y0063.0 F2400.0
G1 X0086.0 Y0086.4 E3558.1 F600.0
 G0 X0112.0 Y0063.0 F2400.0
G1 X0082.3 Y0081.5 E3568.6 F600.0
 G0 X0112.0 Y0063.0 F2400.0
G1 X0079.5 Y0076.1 E3579.1 F600.0
 G0 X0112.0 Y0063.0 F2400.0
G1 X0077.7 Y0070.2 E3589.6 F600.0
 G0 X0112.0 Y0063.0 F2400.0
G1 X0077.0 Y0064.2 E3600.1 F600.0
 G0 X0112.0 Y0063.0 F2400.0
G1 X0077.3 Y0058.1 E3610.6 F600.0
 G0 X0112.0 Y0063.0 F2400.0
G1 X0078.7 Y0052.2 E3621.1 F600.0
 G0 X0112.0 Y0063.0 F2400.0
G1 X0081.1 Y0046.5 E3631.5 F600.0
 G0 X0112.0 Y0063.0 F2400.0
G1 X0084.4 Y0041.4 E3642.0 F600.0
 G0 X0112.0 Y0063.0 F2400.0
G1 X0088.5 Y0037.0 E3652.5 F600.0
 G0 X0112.0 Y0063.0 F2400.0
G1 X0093.4 Y0033.3 E3663.0 F600.0
 G0 X0112.0 Y0063.0 F2400.0
G1 X0098.8 Y0030.5 E3673.5 F600.0
 G0 X0112.0 Y0063.0 F2400.0
G1 X0104.7 Y0028.8 E3684.0 F600.0
 G0 X0112.0 Y0063.0 F2400.0
G1 X0110.7 Y0028.0 E3694.5 F600.0
 G0 X0112.0 Y0063.0 F2400.0
G1 X0116.8 Y0028.3 E3705.0 F600.0
 G0 X0112.0 Y0063.0 F2400.0
G1 X0122.8 Y0029.7 E3715.5 F600.0
 G0 X0112.0 Y0063.0 F2400.0
G1 X0128.4 Y0032.1 E3726.0 F600.0
 G0 X0112.0 Y0063.0 F2400.0
G1 X0133.5 Y0035.4 E3736.5 F600.0
 G0 X0112.0 Y0063.0 F2400.0
G1 X0138.0 Y0039.6 E3747.0 F600.0
 G0 X0112.0 Y0063.0 F2400.0
G1 X0141.6 Y0044.4 E3757.5 F600.0
 G0 X0112.0 Y0063.0 F2400.0
G1 X0144.4 Y0049.9 E3768.0 F600.0
 G0 X0112.0 Y0063.0 F2400.0
G1 X0146.2 Y0055.7 E3778.5 F600.0
G0  F600.0 Z2.2000003
 G0 X0112.0 Y0063.0 F2400.0
G1 X0146.9 Y0061.6 E3789.0 F600.0
 G0 X0112.0 Y0063.0 F2400.0
G1 X0146.6 Y0067.7 E3799.5 F600.0
 G0 X0112.0 Y0063.0 F2400.0
G1 X0145.3 Y0073.7 E3810.0 F600.0
 G0 X0112.0 Y0063.0 F2400.0
G1 X0142.9 Y0079.3 E3820.5 F600.0
 G0 X0112.0 Y0063.0 F2400.0
G1 X0139.6 Y0084.4 E3831.0 F600.0
 G0 X0112.0 Y0063.0 F2400.0
G1 X0135.5 Y0088.9 E3841.5 F600.0
 G0 X0112.0 Y0063.0 F2400.0
G1 X0130.6 Y0092.6 E3852.0 F600.0
 G0 X0112.0 Y0063.0 F2400.0
G1 X0125.2 Y0095.4 E3862.5 F600.0
 G0 X0112.0 Y0063.0 F2400.0
G1 X0119.3 Y0097.2 E3872.9 F600.0
 G0 X0112.0 Y0063.0 F2400.0
G1 X0113.3 Y0097.9 E3883.4 F600.0
 G0 X0112.0 Y0063.0 F2400.0
G1 X0107.2 Y0097.6 E3893.9 F600.0
 G0 X0112.0 Y0063.0 F2400.0
G1 X0101.3 Y0096.3 E3904.4 F600.0
 G0 X0112.0 Y0063.0 F2400.0
G1 X0095.6 Y0093.9 E3914.9 F600.0
 G0 X0112.0 Y0063.0 F2400.0
G1 X0090.5 Y0090.6 E3925.4 F600.0
 G0 X0112.0 Y0063.0 F2400.0
G1 X0086.0 Y0086.5 E3935.9 F600.0
 G0 X0112.0 Y0063.0 F2400.0
G1 X0082.4 Y0081.6 E3946.4 F600.0
 G0 X0112.0 Y0063.0 F2400.0
G1 X0079.6 Y0076.2 E3956.9 F600.0
 G0 X0112.0 Y0063.0 F2400.0
G1 X0077.8 Y0070.4 E3967.4 F600.0
 G0 X0112.0 Y0063.0 F2400.0
G1 X0077.0 Y0064.3 E3977.9 F600.0
 G0 X0112.0 Y0063.0 F2400.0
G1 X0077.3 Y0058.2 E3988.4 F600.0
 G0 X0112.0 Y0063.0 F2400.0
G1 X0078.6 Y0052.3 E3998.9 F600.0
 G0 X0112.0 Y0063.0 F2400.0
G1 X0081.0 Y0046.7 E4009.4 F600.0
 G0 X0112.0 Y0063.0 F2400.0
G1 X0084.3 Y0041.5 E4019.9 F600.0
 G0 X0112.0 Y0063.0 F2400.0
G1 X0088.5 Y0037.1 E4030.4 F600.0
 G0 X0112.0 Y0063.0 F2400.0
G1 X0093.3 Y0033.4 E4040.9 F600.0
 G0 X0112.0 Y0063.0 F2400.0
G1 X0098.7 Y0030.6 E4051.4 F600.0
 G0 X0112.0 Y0063.0 F2400.0
G1 X0104.6 Y0028.8 E4061.9 F600.0
 G0 X0112.0 Y0063.0 F2400.0
G1 X0110.6 Y0028.0 E4072.4 F600.0
 G0 X0112.0 Y0063.0 F2400.0
G1 X0116.7 Y0028.3 E4082.9 F600.0
 G0 X0112.0 Y0063.0 F2400.0
G1 X0122.7 Y0029.7 E4093.4 F600.0
 G0 X0112.0 Y0063.0 F2400.0
G1 X0128.3 Y0032.0 E4103.9 F600.0
 G0 X0112.0 Y0063.0 F2400.0
G1 X0133.4 Y0035.3 E4114.4 F600.0
 G0 X0112.0 Y0063.0 F2400.0
G1 X0137.9 Y0039.5 E4124.8 F600.0
 G0 X0112.0 Y0063.0 F2400.0
G1 X0141.6 Y0044.3 E4135.3 F600.0
 G0 X0112.0 Y0063.0 F2400.0
G1 X0144.3 Y0049.8 E4145.8 F600.0
 G0 X0112.0 Y0063.0 F2400.0
G1 X0146.2 Y0055.6 E4156.3 F600.0
G0  F600.0 Z2.4000003
 G0 X0112.0 Y0063.0 F2400.0
G1 X0146.9 Y0061.5 E4166.8 F600.0
 G0 X0112.0 Y0063.0 F2400.0
G1 X0146.6 Y0067.6 E4177.3 F600.0
 G0 X0112.0 Y0063.0 F2400.0
G1 X0145.3 Y0073.6 E4187.8 F600.0
 G0 X0112.0 Y0063.0 F2400.0
G1 X0143.0 Y0079.2 E4198.3 F600.0
 G0 X0112.0 Y0063.0 F2400.0
G1 X0139.7 Y0084.3 E4208.8 F600.0
 G0 X0112.0 Y0063.0 F2400.0
G1 X0135.5 Y0088.8 E4219.3 F600.0
 G0 X0112.0 Y0063.0 F2400.0
G1 X0130.7 Y0092.5 E4229.8 F600.0
 G0 X0112.0 Y0063.0 F2400.0
G1 X0125.3 Y0095.3 E4240.3 F600.0
 G0 X0112.0 Y0063.0 F2400.0
G1 X0119.5 Y0097.1 E4250.8 F600.0
 G0 X0112.0 Y0063.0 F2400.0
G1 X0113.4 Y0097.9 E4261.3 F600.0
 G0 X0112.0 Y0063.0 F2400.0
G1 X0107.3 Y0097.7 E4271.8 F600.0
 G0 X0112.0 Y0063.0 F2400.0
G1 X0101.4 Y0096.3 E4282.3 F600.0
 G0 X0112.0 Y0063.0 F2400.0
G1 X0095.7 Y0094.0 E4292.8 F600.0
 G0 X0112.0 Y0063.0 F2400.0
G1 X0090.6 Y0090.7 E4303.3 F600.0
 G0 X0112.0 Y0063.0 F2400.0
G1 X0086.1 Y0086.6 E4313.8 F600.0
 G0 X0112.0 Y0063.0 F2400.0
G1 X0082.4 Y0081.7 E4324.3 F600.0
 G0 X0112.0 Y0063.0 F2400.0
G1 X0079.6 Y0076.3 E4334.8 F600.0
 G0 X0112.0 Y0063.0 F2400.0
G1 X0077.8 Y0070.5 E4345.3 F600.0
 G0 X0112.0 Y0063.0 F2400.0
G1 X0077.0 Y0064.4 E4355.8 F600.0
 G0 X0112.0 Y0063.0 F2400.0
G1 X0077.3 Y0058.3 E4366.3 F600.0
 G0 X0112.0 Y0063.0 F2400.0
G1 X0078.6 Y0052.4 E4376.7 F600.0
 G0 X0112.0 Y0063.0 F2400.0
G1 X0081.0 Y0046.8 E4387.2 F600.0
 G0 X0112.0 Y0063.0 F2400.0
G1 X0084.2 Y0041.6 E4397.7 F600.0
 G0 X0112.0 Y0063.0 F2400.0
G1 X0088.4 Y0037.1 E4408.2 F600.0
 G0 X0112.0 Y0063.0 F2400.0
G1 X0093.2 Y0033.4 E4418.7 F600.0
 G0 X0112.0 Y0063.0 F2400.0
G1 X0098.6 Y0030.6 E4429.2 F600.0
 G0 X0112.0 Y0063.0 F2400.0
G1 X0104.4 Y0028.8 E4439.7 F600.0
 G0 X0112.0 Y0063.0 F2400.0
G1 X0110.5 Y0028.0 E4450.2 F600.0
 G0 X0112.0 Y0063.0 F2400.0
G1 X0116.6 Y0028.3 E4460.7 F600.0
 G0 X0112.0 Y0063.0 F2400.0
G1 X0122.5 Y0029.6 E4471.2 F600.0
 G0 X0112.0 Y0063.0 F2400.0
G1 X0128.2 Y0032.0 E4481.7 F600.0
 G0 X0112.0 Y0063.0 F2400.0
G1 X0133.3 Y0035.3 E4492.2 F600.0
 G0 X0112.0 Y0063.0 F2400.0
G1 X0137.8 Y0039.4 E4502.7 F600.0
 G0 X0112.0 Y0063.0 F2400.0
G1 X0141.5 Y0044.2 E4513.2 F600.0
 G0 X0112.0 Y0063.0 F2400.0
G1 X0144.3 Y0049.6 E4523.7 F600.0
 G0 X0112.0 Y0063.0 F2400.0
G1 X0146.1 Y0055.5 E4534.2 F600.0
G0  F600.0 Z2.6000004
 G0 X0112.0 Y0063.0 F2400.0
G1 X0146.9 Y0061.4 E4544.7 F600.0
 G0 X0112.0 Y0063.0 F2400.0
G1 X0146.6 Y0067.5 E4555.2 F600.0
 G0 X0112.0 Y0063.0 F2400.0
G1 X0145.3 Y0073.4 E4565.7 F600.0
 G0 X0112.0 Y0063.0 F2400.0
G1 X0143.0 Y0079.1 E4576.2 F600.0
 G0 X0112.0 Y0063.0 F2400.0
G1 X0139.7 Y0084.2 E4586.7 F600.0
 G0 X0112.0 Y0063.0 F2400.0
G1 X0135.6 Y0088.7 E4597.2 F600.0
 G0 X0112.0 Y0063.0 F2400.0
G1 X0130.8 Y0092.4 E4607.7 F600.0
 G0 X0112.0 Y0063.0 F2400.0
G1 X0125.4 Y0095.3 E4618.2 F600.0
 G0 X0112.0 Y0063.0 F2400.0
G1 X0119.6 Y0097.1 E4628.6 F600.0
 G0 X0112.0 Y0063.0 F2400.0
G1 X0113.5 Y0097.9 E4639.1 F600.0
 G0 X0112.0 Y0063.0 F2400.0
G1 X0107.4 Y0097.7 E4649.6 F600.0
 G0 X0112.0 Y0063.0 F2400.0
G1 X0101.5 Y0096.4 E4660.1 F600.0
 G0 X0112.0 Y0063.0 F2400.0
G1 X0095.9 Y0094.0 E4670.6 F600.0
 G0 X0112.0 Y0063.0 F2400.0
G1 X0090.7 Y0090.8 E4681.1 F600.0
 G0 X0112.0 Y0063.0 F2400.0
G1 X0086.2 Y0086.7 E4691.6 F600.0
 G0 X0112.0 Y0063.0 F2400.0
G1 X0082.5 Y0081.8 E4702.1 F600.0
 G0 X0112.0 Y0063.0 F2400.0
G1 X0079.7 Y0076.4 E4712.6 F600.0
 G0 X0112.0 Y0063.0 F2400.0
G1 X0077.8 Y0070.6 E4723.1 F600.0
 G0 X0112.0 Y0063.0 F2400.0
G1 X0077.0 Y0064.6 E4733.6 F600.0
 G0 X0112.0 Y0063.0 F2400.0
G1 X0077.3 Y0058.5 E4744.1 F600.0
 G0 X0112.0 Y0063.0 F2400.0
G1 X0078.6 Y0052.5 E4754.6 F600.0
 G0 X0112.0 Y0063.0 F2400.0
G1 X0080.9 Y0046.9 E4765.1 F600.0
 G0 X0112.0 Y0063.0 F2400.0
G1 X0084.2 Y0041.7 E4775.6 F600.0
 G0 X0112.0 Y0063.0 F2400.0
G1 X0088.3 Y0037.2 E4786.1 F600.0
 G0 X0112.0 Y0063.0 F2400.0
G1 X0093.1 Y0033.5 E4796.6 F600.0
 G0 X0112.0 Y0063.0 F2400.0
G1 X0098.5 Y0030.7 E4807.1 F600.0
 G0 X0112.0 Y0063.0 F2400.0
G1 X0104.3 Y0028.8 E4817.6 F600.0
 G0 X0112.0 Y0063.0 F2400.0
G1 X0110.4 Y0028.0 E4828.1 F600.0
 G0 X0112.0 Y0063.0 F2400.0
G1 X0116.5 Y0028.3 E4838.6 F600.0
 G0 X0112.0 Y0063.0 F2400.0
G1 X0122.4 Y0029.6 E4849.1 F600.0
 G0 X0112.0 Y0063.0 F2400.0
G1 X0128.1 Y0031.9 E4859.6 F600.0
 G0 X0112.0 Y0063.0 F2400.0
G1 X0133.2 Y0035.2 E4870.1 F600.0
 G0 X0112.0 Y0063.0 F2400.0
G1 X0137.7 Y0039.3 E4880.5 F600.0
 G0 X0112.0 Y0063.0 F2400.0
G1 X0141.4 Y0044.1 E4891.0 F600.0
 G0 X0112.0 Y0063.0 F2400.0
G1 X0144.3 Y0049.5 E4901.5 F600.0
 G0 X0112.0 Y0063.0 F2400.0
G1 X0146.1 Y0055.3 E4912.0 F600.0
G0  F600.0 Z2.8000004
 G0 X0112.0 Y0063.0 F2400.0
G1 X0146.9 Y0061.3 E4922.5 F600.0
 G0 X0112.0 Y0063.0 F2400.0
G1 X0146.7 Y0067.4 E4933.0 F600.0
 G0 X0112.0 Y0063.0 F2400.0
G1 X0145.4 Y0073.3 E4943.5 F600.0
 G0 X0112.0 Y0063.0 F2400.0
G1 X0143.1 Y0079.0 E4954.0 F600.0
 G0 X0112.0 Y0063.0 F2400.0
G1 X0139.8 Y0084.1 E4964.5 F600.0
 G0 X0112.0 Y0063.0 F2400.0
G1 X0135.7 Y0088.6 E4975.0 F600.0
 G0 X0112.0 Y0063.0 F2400.0
G1 X0130.9 Y0092.4 E4985.5 F600.0
 G0 X0112.0 Y0063.0 F2400.0
G1 X0125.5 Y0095.2 E4996.0 F600.0
 G0 X0112.0 Y0063.0 F2400.0
G1 X0119.7 Y0097.1 E5006.5 F600.0
 G0 X0112.0 Y0063.0 F2400.0
G1 X0113.7 Y0097.9 E5017.0 F600.0
 G0 X0112.0 Y0063.0 F2400.0
G1 X0107.6 Y0097.7 E5027.5 F600.0
 G0 X0112.0 Y0063.0 F2400.0
G1 X0101.6 Y0096.4 E5038.0 F600.0
 G0 X0112.0 Y0063.0 F2400.0
G1 X0096.0 Y0094.1 E5048.5 F600.0
 G0 X0112.0 Y0063.0 F2400.0
G1 X0090.8 Y0090.8 E5059.0 F600.0
 G0 X0112.0 Y0063.0 F2400.0
G1 X0086.3 Y0086.7 E5069.5 F600.0
 G0 X0112.0 Y0063.0 F2400.0
G1 X0082.5 Y0081.9 E5080.0 F600.0
 G0 X0112.0 Y0063.0 F2400.0
G1 X0079.7 Y0076.5 E5090.5 F600.0
 G0 X0112.0 Y0063.0 F2400.0
G1 X0077.8 Y0070.7 E5101.0 F600.0
 G0 X0112.0 Y0063.0 F2400.0
G1 X0077.0 Y0064.7 E5111.5 F600.0
 G0 X0112.0 Y0063.0 F2400.0
G1 X0077.2 Y0058.6 E5122.0 F600.0
 G0 X0112.0 Y0063.0 F2400.0
G1 X0078.5 Y0052.6 E5132.4 F600.0
 G0 X0112.0 Y0063.0 F2400.0
G1 X0080.8 Y0047.0 E5142.9 F600.0
 G0 X0112.0 Y0063.0 F2400.0
G1 X0084.1 Y0041.8 E5153.4 F600.0
 G0 X0112.0 Y0063.0 F2400.0
G1 X0088.2 Y0037.3 E5163.9 F600.0
 G0 X0112.0 Y0063.0 F2400.0
G1 X0093.0 Y0033.6 E5174.4 F600.0
 G0 X0112.0 Y0063.0 F2400.0
G1 X0098.4 Y0030.7 E5184.9 F600.0
 G0 X0112.0 Y0063.0 F2400.0
G1 X0104.2 Y0028.9 E5195.4 F600.0
 G0 X0112.0 Y0063.0 F2400.0
G1 X0110.2 Y0028.0 E5205.9 F600.0
 G0 X0112.0 Y0063.0 F2400.0
G1 X0116.3 Y0028.3 E5216.4 F600.0
 G0 X0112.0 Y0063.0 F2400.0
G1 X0122.3 Y0029.6 E5226.9 F600.0
 G0 X0112.0 Y0063.0 F2400.0
G1 X0127.9 Y0031.9 E5237.4 F600.0
 G0 X0112.0 Y0063.0 F2400.0
G1 X0133.1 Y0035.1 E5247.9 F600.0
 G0 X0112.0 Y0063.0 F2400.0
G1 X0137.6 Y0039.2 E5258.4 F600.0
 G0 X0112.0 Y0063.0 F2400.0
G1 X0141.4 Y0044.0 E5268.9 F600.0
 G0 X0112.0 Y0063.0 F2400.0
G1 X0144.2 Y0049.4 E5279.4 F600.0
 G0 X0112.0 Y0063.0 F2400.0
G1 X0146.1 Y0055.2 E5289.9 F600.0
G0  F600.0 Z3.0000005
 G0 X0112.0 Y0063.0 F2400.0
G1 X0146.9 Y0061.1 E5300.4 F600.0
 G0 X0112.0 Y0063.0 F2400.0
G1 X0146.7 Y0067.2 E5310.9 F600.0
 G0 X0112.0 Y0063.0 F2400.0
G1 X0145.4 Y0073.2 E5321.4 F600.0
 G0 X0112.0 Y0063.0 F2400.0
G1 X0143.1 Y0078.9 E5331.9 F600.0
 G0 X0112.0 Y0063.0 F2400.0
G1 X0139.9 Y0084.0 E5342.4 F600.0
 G0 X0112.0 Y0063.0 F2400.0
G1 X0135.8 Y0088.6 E5352.9 F600.0
 G0 X0112.0 Y0063.0 F2400.0
G1 X0131.0 Y0092.3 E5363.4 F600.0
 G0 X0112.0 Y0063.0 F2400.0
G1 X0125.6 Y0095.2 E5373.8 F600.0
 G0 X0112.0 Y0063.0 F2400.0
G1 X0119.8 Y0097.1 E5384.3 F600.0
 G0 X0112.0 Y0063.0 F2400.0
G1 X0113.8 Y0097.9 E5394.8 F600.0
 G0 X0112.0 Y0063.0 F2400.0
G1 X0107.7 Y0097.7 E5405.3 F600.0
 G0 X0112.0 Y0063.0 F2400.0
G1 X0101.7 Y0096.4 E5415.8 F600.0
 G0 X0112.0 Y0063.0 F2400.0
G1 X0096.1 Y0094.1 E5426.3 F600.0
 G0 X0112.0 Y0063.0 F2400.0
G1 X0090.9 Y0090.9 E5436.8 F600.0
 G0 X0112.0 Y0063.0 F2400.0
G1 X0086.4 Y0086.8 E5447.3 F600.0
 G0 X0112.0 Y0063.0 F2400.0
G1 X0082.6 Y0082.0 E5457.8 F600.0
 G0 X0112.0 Y0063.0 F2400.0
G1 X0079.8 Y0076.6 E5468.3 F600.0
 G0 X0112.0 Y0063.0 F2400.0
G1 X0077.9 Y0070.8 E5478.8 F600.0
 G0 X0112.0 Y0063.0 F2400.0
G1 X0077.0 Y0064.8 E5489.3 F600.0
 G0 X0112.0 Y0063.0 F2400.0
G1 X0077.2 Y0058.7 E5499.8 F600.0
 G0 X0112.0 Y0063.0 F2400.0
G1 X0078.5 Y0052.7 E5510.3 F600.0
 G0 X0112.0 Y0063.0 F2400.0
G1 X0080.8 Y0047.1 E5520.8 F600.0
 G0 X0112.0 Y0063.0 F2400.0
G1 X0084.0 Y0041.9 E5531.3 F600.0
 G0 X0112.0 Y0063.0 F2400.0
G1 X0088.1 Y0037.4 E5541.8 F600.0
 G0 X0112.0 Y0063.0 F2400.0
G1 X0092.9 Y0033.6 E5552.3 F600.0
 G0 X0112.0 Y0063.0 F2400.0
G1 X0098.3 Y0030.8 E5562.8 F600.0
 G0 X0112.0 Y0063.0 F2400.0
G1 X0104.1 Y0028.9 E5573.3 F600.0
 G0 X0112.0 Y0063.0 F2400.0
G1 X0110.1 Y0028.0 E5583.8 F600.0
 G0 X0112.0 Y0063.0 F2400.0
G1 X0116.2 Y0028.2 E5594.3 F600.0
 G0 X0112.0 Y0063.0 F2400.0
G1 X0122.2 Y0029.5 E5604.8 F600.0
 G0 X0112.0 Y0063.0 F2400.0
G1 X0127.8 Y0031.8 E5615.3 F600.0
 G0 X0112.0 Y0063.0 F2400.0
G1 X0133.0 Y0035.0 E5625.7 F600.0
 G0 X0112.0 Y0063.0 F2400.0
G1 X0137.5 Y0039.1 E5636.2 F600.0
 G0 X0112.0 Y0063.0 F2400.0
G1 X0141.3 Y0043.9 E5646.7 F600.0
 G0 X0112.0 Y0063.0 F2400.0
G1 X0144.2 Y0049.3 E5657.2 F600.0
 G0 X0112.0 Y0063.0 F2400.0
G1 X0146.0 Y0055.1 E5667.7 F600.0
G0  F600.0 Z3.2000005
 G0 X0112.0 Y0063.0 F2400.0
G1 X0146.9 Y0061.0 E5678.2 F600.0
 G0 X0112.0 Y0063.0 F2400.0
G1 X0146.7 Y0067.1 E5688.7 F600.0
 G0 X0112.0 Y0063.0 F2400.0
G1 X0145.4 Y0073.1 E5699.2 F600.0
 G0 X0112.0 Y0063.0 F2400.0
G1 X0143.2 Y0078.7 E5709.7 F600.0
 G0 X0112.0 Y0063.0 F2400.0
G1 X0140.0 Y0083.9 E5720.2 F600.0
 G0 X0112.0 Y0063.0 F2400.0
G1 X0135.9 Y0088.5 E5730.7 F600.0
 G0 X0112.0 Y0063.0 F2400.0
G1 X0131.1 Y0092.2 E5741.2 F600.0
 G0 X0112.0 Y0063.0 F2400.0
G1 X0125.7 Y0095.1 E5751.7 F600.0
 G0 X0112.0 Y0063.0 F2400.0
G1 X0119.9 Y0097.0 E5762.2 F600.0
 G0 X0112.0 Y0063.0 F2400.0
G1 X0113.9 Y0097.9 E5772.7 F600.0
 G0 X0112.0 Y0063.0 F2400.0
G1 X0107.8 Y0097.7 E5783.2 F600.0
 G0 X0112.0 Y0063.0 F2400.0
G1 X0101.8 Y0096.5 E5793.7 F600.0
 G0 X0112.0 Y0063.0 F2400.0
G1 X0096.2 Y0094.2 E5804.2 F600.0
 G0 X0112.0 Y0063.0 F2400.0
G1 X0091.0 Y0091.0 E5814.7 F600.0
 G0 X0112.0 Y0063.0 F2400.0
G1 X0086.5 Y0086.9 E5825.2 F600.0
 G0 X0112.0 Y0063.0 F2400.0
G1 X0082.7 Y0082.1 E5835.7 F600.0
 G0 X0112.0 Y0063.0 F2400.0
G1 X0079.8 Y0076.8 E5846.2 F600.0
 G0 X0112.0 Y0063.0 F2400.0
G1 X0077.9 Y0071.0 E5856.7 F600.0
 G0 X0112.0 Y0063.0 F2400.0
G1 X0077.0 Y0064.9 E5867.2 F600.0
 G0 X0112.0 Y0063.0 F2400.0
G1 X0077.2 Y0058.8 E5877.6 F600.0
 G0 X0112.0 Y0063.0 F2400.0
G1 X0078.5 Y0052.9 E5888.1 F600.0
 G0 X0112.0 Y0063.0 F2400.0
G1 X0080.7 Y0047.2 E5898.6 F600.0
 G0 X0112.0 Y0063.0 F2400.0
G1 X0083.9 Y0042.0 E5909.1 F600.0
 G0 X0112.0 Y0063.0 F2400.0
G1 X0088.0 Y0037.5 E5919.6 F600.0
 G0 X0112.0 Y0063.0 F2400.0
G1 X0092.8 Y0033.7 E5930.1 F600.0
 G0 X0112.0 Y0063.0 F2400.0
G1 X0098.2 Y0030.8 E5940.6 F600.0
 G0 X0112.0 Y0063.0 F2400.0
G1 X0104.0 Y0028.9 E5951.1 F600.0
 G0 X0112.0 Y0063.0 F2400.0
G1 X0110.0 Y0028.0 E5961.6 F600.0
 G0 X0112.0 Y0063.0 F2400.0
G1 X0116.1 Y0028.2 E5972.1 F600.0
 G0 X0112.0 Y0063.0 F2400.0
G1 X0122.1 Y0029.5 E5982.6 F600.0
 G0 X0112.0 Y0063.0 F2400.0
G1 X0127.7 Y0031.7 E5993.1 F600.0
 G0 X0112.0 Y0063.0 F2400.0
G1 X0132.9 Y0035.0 E6003.6 F600.0
 G0 X0112.0 Y0063.0 F2400.0
G1 X0137.5 Y0039.0 E6014.1 F600.0
 G0 X0112.0 Y0063.0 F2400.0
G1 X0141.2 Y0043.8 E6024.6 F600.0
 G0 X0112.0 Y0063.0 F2400.0
G1 X0144.1 Y0049.2 E6035.1 F600.0
 G0 X0112.0 Y0063.0 F2400.0
G1 X0146.0 Y0055.0 E6045.6 F600.0
G0  F600.0 Z3.4000006
 G0 X0112.0 Y0063.0 F2400.0
G1 X0146.9 Y0060.9 E6056.1 F600.0
 G0 X0112.0 Y0063.0 F2400.0
G1 X0146.7 Y0067.0 E6066.6 F600.0
 G0 X0112.0 Y0063.0 F2400.0
G1 X0145.5 Y0073.0 E6077.1 F600.0
 G0 X0112.0 Y0063.0 F2400.0
G1 X0143.2 Y0078.6 E6087.6 F600.0
 G0 X0112.0 Y0063.0 F2400.0
G1 X0140.0 Y0083.8 E6098.1 F600.0
 G0 X0112.0 Y0063.0 F2400.0
G1 X0136.0 Y0088.4 E6108.6 F600.0
 G0 X0112.0 Y0063.0 F2400.0
G1 X0131.2 Y0092.2 E6119.1 F600.0
 G0 X0112.0 Y0063.0 F2400.0
G1 X0125.8 Y0095.1 E6129.5 F600.0
 G0 X0112.0 Y0063.0 F2400.0
G1 X0120.1 Y0097.0 E6140.0 F600.0
 G0 X0112.0 Y0063.0 F2400.0
G1 X0114.0 Y0097.9 E6150.5 F600.0
 G0 X0112.0 Y0063.0 F2400.0
G1 X0107.9 Y0097.7 E6161.0 F600.0
 G0 X0112.0 Y0063.0 F2400.0
G1 X0102.0 Y0096.5 E6171.5 F600.0
 G0 X0112.0 Y0063.0 F2400.0
G1 X0096.3 Y0094.3 E6182.0 F600.0
 G0 X0112.0 Y0063.0 F2400.0
G1 X0091.1 Y0091.1 E6192.5 F600.0
 G0 X0112.0 Y0063.0 F2400.0
G1 X0086.5 Y0087.0 E6203.0 F600.0
 G0 X0112.0 Y0063.0 F2400.0
G1 X0082.7 Y0082.2 E6213.5 F600.0
 G0 X0112.0 Y0063.0 F2400.0
G1 X0079.8 Y0076.9 E6224.0 F600.0
 G0 X0112.0 Y0063.0 F2400.0
G1 X0077.9 Y0071.1 E6234.5 F600.0
 G0 X0112.0 Y0063.0 F2400.0
G1 X0077.0 Y0065.0 E6245.0 F600.0
 G0 X0112.0 Y0063.0 F2400.0
G1 X0077.2 Y0059.0 E6255.5 F600.0
 G0 X0112.0 Y0063.0 F2400.0
G1 X0078.4 Y0053.0 E6266.0 F600.0
 G0 X0112.0 Y0063.0 F2400.0
G1 X0080.7 Y0047.3 E6276.5 F600.0
 G0 X0112.0 Y0063.0 F2400.0
G1 X0083.9 Y0042.1 E6287.0 F600.0
 G0 X0112.0 Y0063.0 F2400.0
G1 X0087.9 Y0037.6 E6297.5 F600.0
 G0 X0112.0 Y0063.0 F2400.0
G1 X0092.7 Y0033.8 E6308.0 F600.0
 G0 X0112.0 Y0063.0 F2400.0
G1 X0098.1 Y0030.9 E6318.5 F600.0
 G0 X0112.0 Y0063.0 F2400.0
G1 X0103.8 Y0028.9 E6329.0 F600.0
 G0 X0112.0 Y0063.0 F2400.0
G1 X0109.9 Y0028.1 E6339.5 F600.0
 G0 X0112.0 Y0063.0 F2400.0
G1 X0116.0 Y0028.2 E6350.0 F600.0
 G0 X0112.0 Y0063.0 F2400.0
G1 X0122.0 Y0029.4 E6360.5 F600.0
 G0 X0112.0 Y0063.0 F2400.0
G1 X0127.6 Y0031.7 E6371.0 F600.0
 G0 X0112.0 Y0063.0 F2400.0
G1 X0132.8 Y0034.9 E6381.4 F600.0
 G0 X0112.0 Y0063.0 F2400.0
G1 X0137.4 Y0038.9 E6391.9 F600.0
 G0 X0112.0 Y0063.0 F2400.0
G1 X0141.2 Y0043.7 E6402.4 F600.0
 G0 X0112.0 Y0063.0 F2400.0
G1 X0144.1 Y0049.1 E6412.9 F600.0
 G0 X0112.0 Y0063.0 F2400.0
G1 X0146.0 Y0054.9 E6423.4 F600.0
G0  F600.0 Z3.6000006
 G0 X0112.0 Y0063.0 F2400.0
G1 X0146.9 Y0060.8 E6433.9 F600.0
 G0 X0112.0 Y0063.0 F2400.0
G1 X0146.7 Y0066.9 E6444.4 F600.0
 G0 X0112.0 Y0063.0 F2400.0
G1 X0145.5 Y0072.9 E6454.9 F600.0
 G0 X0112.0 Y0063.0 F2400.0
G1 X0143.3 Y0078.5 E6465.4 F600.0
 G0 X0112.0 Y0063.0 F2400.0
G1 X0140.1 Y0083.7 E6475.9 F600.0
 G0 X0112.0 Y0063.0 F2400.0
G1 X0136.1 Y0088.3 E6486.4 F600.0
 G0 X0112.0 Y0063.0 F2400.0
G1 X0131.3 Y0092.1 E6496.9 F600.0
 G0 X0112.0 Y0063.0 F2400.0
G1 X0126.0 Y0095.0 E6507.4 F600.0
 G0 X0112.0 Y0063.0 F2400.0
G1 X0120.2 Y0097.0 E6517.9 F600.0
 G0 X0112.0 Y0063.0 F2400.0
G1 X0114.2 Y0097.9 E6528.4 F600.0
 G0 X0112.0 Y0063.0 F2400.0
G1 X0108.1 Y0097.7 E6538.9 F600.0
 G0 X0112.0 Y0063.0 F2400.0
G1 X0102.1 Y0096.5 E6549.4 F600.0
 G0 X0112.0 Y0063.0 F2400.0
G1 X0096.4 Y0094.3 E6559.9 F600.0
 G0 X0112.0 Y0063.0 F2400.0
G1 X0091.2 Y0091.1 E6570.4 F600.0
 G0 X0112.0 Y0063.0 F2400.0
G1 X0086.6 Y0087.1 E6580.9 F600.0
 G0 X0112.0 Y0063.0 F2400.0
G1 X0082.8 Y0082.3 E6591.4 F600.0
 G0 X0112.0 Y0063.0 F2400.0
G1 X0079.9 Y0077.0 E6601.9 F600.0
 G0 X0112.0 Y0063.0 F2400.0
G1 X0078.0 Y0071.2 E6612.4 F600.0
 G0 X0112.0 Y0063.0 F2400.0
G1 X0077.0 Y0065.2 E6622.8 F600.0
 G0 X0112.0 Y0063.0 F2400.0
G1 X0077.2 Y0059.1 E6633.3 F600.0
 G0 X0112.0 Y0063.0 F2400.0
G1 X0078.4 Y0053.1 E6643.8 F600.0
 G0 X0112.0 Y0063.0 F2400.0
G1 X0080.6 Y0047.4 E6654.3 F600.0
 G0 X0112.0 Y0063.0 F2400.0
G1 X0083.8 Y0042.2 E6664.8 F600.0
 G0 X0112.0 Y0063.0 F2400.0
G1 X0087.8 Y0037.6 E6675.3 F600.0
 G0 X0112.0 Y0063.0 F2400.0
G1 X0092.6 Y0033.8 E6685.8 F600.0
 G0 X0112.0 Y0063.0 F2400.0
G1 X0097.9 Y0030.9 E6696.3 F600.0
 G0 X0112.0 Y0063.0 F2400.0
G1 X0103.7 Y0029.0 E6706.8 F600.0
 G0 X0112.0 Y0063.0 F2400.0
G1 X0109.8 Y0028.1 E6717.3 F600.0
 G0 X0112.0 Y0063.0 F2400.0
G1 X0115.9 Y0028.2 E6727.8 F600.0
 G0 X0112.0 Y0063.0 F2400.0
G1 X0121.8 Y0029.4 E6738.3 F600.0
 G0 X0112.0 Y0063.0 F2400.0
G1 X0127.5 Y0031.6 E6748.8 F600.0
 G0 X0112.0 Y0063.0 F2400.0
G1 X0132.7 Y0034.8 E6759.3 F600.0
 G0 X0112.0 Y0063.0 F2400.0
G1 X0137.3 Y0038.8 E6769.8 F600.0
 G0 X0112.0 Y0063.0 F2400.0
G1 X0141.1 Y0043.6 E6780.3 F600.0
 G0 X0112.0 Y0063.0 F2400.0
G1 X0144.0 Y0049.0 E6790.8 F600.0
 G0 X0112.0 Y0063.0 F2400.0
G1 X0146.0 Y0054.7 E6801.3 F600.0
G0  F600.0 Z3.8000007
 G0 X0112.0 Y0063.0 F2400.0
G1 X0146.9 Y0060.7 E6811.8 F600.0
 G0 X0112.0 Y0063.0 F2400.0
G1 X0146.7 Y0066.8 E6822.3 F600.0
 G0 X0112.0 Y0063.0 F2400.0
G1 X0145.6 Y0072.7 E6832.8 F600.0
 G0 X0112.0 Y0063.0 F2400.0
G1 X0143.3 Y0078.4 E6843.3 F600.0
 G0 X0112.0 Y0063.0 F2400.0
G1 X0140.2 Y0083.6 E6853.8 F600.0
 G0 X0112.0 Y0063.0 F2400.0
G1 X0136.2 Y0088.2 E6864.3 F600.0
 G0 X0112.0 Y0063.0 F2400.0
G1 X0131.4 Y0092.0 E6874.7 F600.0
 G0 X0112.0 Y0063.0 F2400.0
G1 X0126.1 Y0095.0 E6885.2 F600.0
 G0 X0112.0 Y0063.0 F2400.0
G1 X0120.3 Y0097.0 E6895.7 F600.0
 G0 X0112.0 Y0063.0 F2400.0
G1 X0114.3 Y0097.9 E6906.2 F600.0
 G0 X0112.0 Y0063.0 F2400.0
G1 X0108.2 Y0097.8 E6916.7 F600.0
 G0 X0112.0 Y0063.0 F2400.0
G1 X0102.2 Y0096.6 E6927.2 F600.0
 G0 X0112.0 Y0063.0 F2400.0
G1 X0096.5 Y0094.4 E6937.7 F600.0
 G0 X0112.0 Y0063.0 F2400.0
G1 X0091.3 Y0091.2 E6948.2 F600.0
 G0 X0112.0 Y0063.0 F2400.0
G1 X0086.7 Y0087.2 E6958.7 F600.0
 G0 X0112.0 Y0063.0 F2400.0
G1 X0082.9 Y0082.4 E6969.2 F600.0
 G0 X0112.0 Y0063.0 F2400.0
G1 X0079.9 Y0077.1 E6979.7 F600.0
 G0 X0112.0 Y0063.0 F2400.0
G1 X0078.0 Y0071.3 E6990.2 F600.0
 G0 X0112.0 Y0063.0 F2400.0
G1 X0077.0 Y0065.3 E7000.7 F600.0
 G0 X0112.0 Y0063.0 F2400.0
G1 X0077.2 Y0059.2 E7011.2 F600.0
 G0 X0112.0 Y0063.0 F2400.0
G1 X0078.4 Y0053.2 E7021.7 F600.0
 G0 X0112.0 Y0063.0 F2400.0
G1 X0080.6 Y0047.5 E7032.2 F600.0
 G0 X0112.0 Y0063.0 F2400.0
G1 X0083.7 Y0042.3 E7042.7 F600.0
 G0 X0112.0 Y0063.0 F2400.0
G1 X0087.7 Y0037.7 E7053.2 F600.0
 G0 X0112.0 Y0063.0 F2400.0
G1 X0092.5 Y0033.9 E7063.7 F600.0
 G0 X0112.0 Y0063.0 F2400.0
G1 X0097.8 Y0031.0 E7074.2 F600.0
 G0 X0112.0 Y0063.0 F2400.0
G1 X0103.6 Y0029.0 E7084.7 F600.0
 G0 X0112.0 Y0063.0 F2400.0
G1 X0109.6 Y0028.1 E7095.2 F600.0
 G0 X0112.0 Y0063.0 F2400.0
G1 X0115.7 Y0028.2 E7105.7 F600.0
 G0 X0112.0 Y0063.0 F2400.0
G1 X0121.7 Y0029.4 E7116.2 F600.0
 G0 X0112.0 Y0063.0 F2400.0
G1 X0127.4 Y0031.6 E7126.6 F600.0
 G0 X0112.0 Y0063.0 F2400.0
G1 X0132.6 Y0034.7 E7137.1 F600.0
 G0 X0112.0 Y0063.0 F2400.0
G1 X0137.2 Y0038.8 E7147.6 F600.0
 G0 X0112.0 Y0063.0 F2400.0
G1 X0141.0 Y0043.5 E7158.1 F600.0
 G0 X0112.0 Y0063.0 F2400.0
G1 X0144.0 Y0048.9 E7168.6 F600.0
 G0 X0112.0 Y0063.0 F2400.0
G1 X0145.9 Y0054.6 E7179.1 F600.0
G0  F600.0 Z4.0000005
 G0 X0112.0 Y0063.0 F2400.0
G1 X0146.9 Y0060.5 E7189.6 F600.0
 G0 X0112.0 Y0063.0 F2400.0
G1 X0146.7 Y0066.6 E7200.1 F600.0
 G0 X0112.0 Y0063.0 F2400.0
G1 X0145.6 Y0072.6 E7210.6 F600.0
 G0 X0112.0 Y0063.0 F2400.0
G1 X0143.4 Y0078.3 E7221.1 F600.0
 G0 X0112.0 Y0063.0 F2400.0
G1 X0140.3 Y0083.5 E7231.6 F600.0
 G0 X0112.0 Y0063.0 F2400.0
G1 X0136.3 Y0088.1 E7242.1 F600.0
 G0 X0112.0 Y0063.0 F2400.0
G1 X0131.5 Y0092.0 E7252.6 F600.0
 G0 X0112.0 Y0063.0 F2400.0
G1 X0126.2 Y0094.9 E7263.1 F600.0
 G0 X0112.0 Y0063.0 F2400.0
G1 X0120.4 Y0096.9 E7273.6 F600.0
 G0 X0112.0 Y0063.0 F2400.0
G1 X0114.4 Y0097.9 E7284.1 F600.0
 G0 X0112.0 Y0063.0 F2400.0
G1 X0108.3 Y0097.8 E7294.6 F600.0
 G0 X0112.0 Y0063.0 F2400.0
G1 X0102.3 Y0096.6 E7305.1 F600.0
 G0 X0112.0 Y0063.0 F2400.0
G1 X0096.6 Y0094.4 E7315.6 F600.0
 G0 X0112.0 Y0063.0 F2400.0
G1 X0091.4 Y0091.3 E7326.1 F600.0
 G0 X0112.0 Y0063.0 F2400.0
G1 X0086.8 Y0087.3 E7336.6 F600.0
 G0 X0112.0 Y0063.0 F2400.0
G1 X0083.0 Y0082.5 E7347.1 F600.0
 G0 X0112.0 Y0063.0 F2400.0
G1 X0080.0 Y0077.2 E7357.6 F600.0
 G0 X0112.0 Y0063.0 F2400.0
G1 X0078.0 Y0071.4 E7368.1 F600.0
 G0 X0112.0 Y0063.0 F2400.0
G1 X0077.1 Y0065.4 E7378.5 F600.0
 G0 X0112.0 Y0063.0 F2400.0
G1 X0077.2 Y0059.3 E7389.0 F600.0
 G0 X0112.0 Y0063.0 F2400.0
G1 X0078.3 Y0053.3 E7399.5 F600.0
 G0 X0112.0 Y0063.0 F2400.0
G1 X0080.5 Y0047.6 E7410.0 F600.0
 G0 X0112.0 Y0063.0 F2400.0
G1 X0083.7 Y0042.4 E7420.5 F600.0
 G0 X0112.0 Y0063.0 F2400.0
G1 X0087.7 Y0037.8 E7431.0 F600.0
 G0 X0112.0 Y0063.0 F2400.0
G1 X0092.4 Y0034.0 E7441.5 F600.0
 G0 X0112.0 Y0063.0 F2400.0
G1 X0097.7 Y0031.0 E7452.0 F600.0
 G0 X0112.0 Y0063.0 F2400.0
G1 X0103.5 Y0029.0 E7462.5 F600.0
 G0 X0112.0 Y0063.0 F2400.0
G1 X0109.5 Y0028.1 E7473.0 F600.0
 G0 X0112.0 Y0063.0 F2400.0
G1 X0115.6 Y0028.2 E7483.5 F600.0
 G0 X0112.0 Y0063.0 F2400.0
G1 X0121.6 Y0029.3 E7494.0 F600.0
 G0 X0112.0 Y0063.0 F2400.0
G1 X0127.3 Y0031.5 E7504.5 F600.0
 G0 X0112.0 Y0063.0 F2400.0
G1 X0132.5 Y0034.7 E7515.0 F600.0
 G0 X0112.0 Y0063.0 F2400.0
G1 X0137.1 Y0038.7 E7525.5 F600.0
 G0 X0112.0 Y0063.0 F2400.0
G1 X0141.0 Y0043.4 E7536.0 F600.0
 G0 X0112.0 Y0063.0 F2400.0
G1 X0143.9 Y0048.7 E7546.5 F600.0
 G0 X0112.0 Y0063.0 F2400.0
G1 X0145.9 Y0054.5 E7557.0 F600.0
G0  F600.0 Z4.2000003
 G0 X0112.0 Y0063.0 F2400.0
G1 X0146.8 Y0060.4 E7567.5 F600.0
 G0 X0112.0 Y0063.0 F2400.0
G1 X0146.8 Y0066.5 E7578.0 F600.0
 G0 X0112.0 Y0063.0 F2400.0
G1 X0145.6 Y0072.5 E7588.5 F600.0
 G0 X0112.0 Y0063.0 F2400.0
G1 X0143.5 Y0078.2 E7599.0 F600.0
 G0 X0112.0 Y0063.0 F2400.0
G1 X0140.3 Y0083.4 E7609.5 F600.0
 G0 X0112.0 Y0063.0 F2400.0
G1 X0136.3 Y0088.1 E7620.0 F600.0
 G0 X0112.0 Y0063.0 F2400.0
G1 X0131.6 Y0091.9 E7630.4 F600.0
 G0 X0112.0 Y0063.0 F2400.0
G1 X0126.3 Y0094.9 E7640.9 F600.0
 G0 X0112.0 Y0063.0 F2400.0
G1 X0120.5 Y0096.9 E7651.4 F600.0
 G0 X0112.0 Y0063.0 F2400.0
G1 X0114.5 Y0097.9 E7661.9 F600.0
 G0 X0112.0 Y0063.0 F2400.0
G1 X0108.4 Y0097.8 E7672.4 F600.0
 G0 X0112.0 Y0063.0 F2400.0
G1 X0102.4 Y0096.6 E7682.9 F600.0
 G0 X0112.0 Y0063.0 F2400.0
G1 X0096.7 Y0094.5 E7693.4 F600.0
 G0 X0112.0 Y0063.0 F2400.0
G1 X0091.5 Y0091.4 E7703.9 F600.0
 G0 X0112.0 Y0063.0 F2400.0
G1 X0086.9 Y0087.4 E7714.4 F600.0
 G0 X0112.0 Y0063.0 F2400.0
G1 X0083.0 Y0082.6 E7724.9 F600.0
 G0 X0112.0 Y0063.0 F2400.0
G1 X0080.0 Y0077.3 E7735.4 F600.0
 G0 X0112.0 Y0063.0 F2400.0
G1 X0078.0 Y0071.6 E7745.9 F600.0
 G0 X0112.0 Y0063.0 F2400.0
G1 X0077.1 Y0065.5 E7756.4 F600.0
 G0 X0112.0 Y0063.0 F2400.0
G1 X0077.1 Y0059.4 E7766.9 F600.0
 G0 X0112.0 Y0063.0 F2400.0
G1 X0078.3 Y0053.4 E7777.4 F600.0
 G0 X0112.0 Y0063.0 F2400.0
G1 X0080.5 Y0047.7 E7787.9 F600.0
 G0 X0112.0 Y0063.0 F2400.0
G1 X0083.6 Y0042.5 E7798.4 F600.0
 G0 X0112.0 Y0063.0 F2400.0
G1 X0087.6 Y0037.9 E7808.9 F600.0
 G0 X0112.0 Y0063.0 F2400.0
G1 X0092.3 Y0034.0 E7819.4 F600.0
 G0 X0112.0 Y0063.0 F2400.0
G1 X0097.6 Y0031.1 E7829.9 F600.0
 G0 X0112.0 Y0063.0 F2400.0
G1 X0103.4 Y0029.1 E7840.4 F600.0
 G0 X0112.0 Y0063.0 F2400.0
G1 X0109.4 Y0028.1 E7850.9 F600.0
 G0 X0112.0 Y0063.0 F2400.0
G1 X0115.5 Y0028.2 E7861.4 F600.0
 G0 X0112.0 Y0063.0 F2400.0
G1 X0121.5 Y0029.3 E7871.8 F600.0
 G0 X0112.0 Y0063.0 F2400.0
G1 X0127.2 Y0031.5 E7882.3 F600.0
 G0 X0112.0 Y0063.0 F2400.0
G1 X0132.4 Y0034.6 E7892.8 F600.0
 G0 X0112.0 Y0063.0 F2400.0
G1 X0137.0 Y0038.6 E7903.3 F600.0
 G0 X0112.0 Y0063.0 F2400.0
G1 X0140.9 Y0043.3 E7913.8 F600.0
 G0 X0112.0 Y0063.0 F2400.0
G1 X0143.9 Y0048.6 E7924.3 F600.0
 G0 X0112.0 Y0063.0 F2400.0
G1 X0145.9 Y0054.4 E7934.8 F600.0
G0  F600.0 Z4.4
 G0 X0112.0 Y0063.0 F2400.0
G1 X0146.8 Y0060.3 E7945.3 F600.0
 G0 X0112.0 Y0063.0 F2400.0
G1 X0146.8 Y0066.4 E7955.8 F600.0
 G0 X0112.0 Y0063.0 F2400.0
G1 X0145.7 Y0072.4 E7966.3 F600.0
 G0 X0112.0 Y0063.0 F2400.0
G1 X0143.5 Y0078.1 E7976.8 F600.0
 G0 X0112.0 Y0063.0 F2400.0
G1 X0140.4 Y0083.3 E7987.3 F600.0
 G0 X0112.0 Y0063.0 F2400.0
G1 X0136.4 Y0088.0 E7997.8 F600.0
 G0 X0112.0 Y0063.0 F2400.0
G1 X0131.7 Y0091.8 E8008.3 F600.0
 G0 X0112.0 Y0063.0 F2400.0
G1 X0126.4 Y0094.8 E8018.8 F600.0
 G0 X0112.0 Y0063.0 F2400.0
G1 X0120.7 Y0096.9 E8029.3 F600.0
 G0 X0112.0 Y0063.0 F2400.0
G1 X0114.6 Y0097.9 E8039.8 F600.0
 G0 X0112.0 Y0063.0 F2400.0
G1 X0108.5 Y0097.8 E8050.3 F600.0
 G0 X0112.0 Y0063.0 F2400.0
G1 X0102.5 Y0096.7 E8060.8 F600.0
 G0 X0112.0 Y0063.0 F2400.0
G1 X0096.8 Y0094.5 E8071.3 F600.0
 G0 X0112.0 Y0063.0 F2400.0
G1 X0091.6 Y0091.4 E8081.8 F600.0
 G0 X0112.0 Y0063.0 F2400.0
G1 X0087.0 Y0087.5 E8092.3 F600.0
 G0 X0112.0 Y0063.0 F2400.0
G1 X0083.1 Y0082.7 E8102.8 F600.0
 G0 X0112.0 Y0063.0 F2400.0
G1 X0080.1 Y0077.4 E8113.3 F600.0
 G0 X0112.0 Y0063.0 F2400.0
G1 X0078.1 Y0071.7 E8123.7 F600.0
 G0 X0112.0 Y0063.0 F2400.0
G1 X0077.1 Y0065.7 E8134.2 F600.0
 G0 X0112.0 Y0063.0 F2400.0
G1 X0077.1 Y0059.6 E8144.7 F600.0
 G0 X0112.0 Y0063.0 F2400.0
G1 X0078.3 Y0053.6 E8155.2 F600.0
 G0 X0112.0 Y0063.0 F2400.0
G1 X0080.4 Y0047.9 E8165.7 F600.0
 G0 X0112.0 Y0063.0 F2400.0
G1 X0083.5 Y0042.6 E8176.2 F600.0
 G0 X0112.0 Y0063.0 F2400.0
G1 X0087.5 Y0038.0 E8186.7 F600.0
 G0 X0112.0 Y0063.0 F2400.0
G1 X0092.2 Y0034.1 E8197.2 F600.0
 G0 X0112.0 Y0063.0 F2400.0
G1 X0097.5 Y0031.1 E8207.7 F600.0
 G0 X0112.0 Y0063.0 F2400.0
G1 X0103.3 Y0029.1 E8218.2 F600.0
 G0 X0112.0 Y0063.0 F2400.0
G1 X0109.3 Y0028.1 E8228.7 F600.0
 G0 X0112.0 Y0063.0 F2400.0
G1 X0115.4 Y0028.2 E8239.2 F600.0
 G0 X0112.0 Y0063.0 F2400.0
G1 X0121.4 Y0029.3 E8249.7 F600.0
 G0 X0112.0 Y0063.0 F2400.0
G1 X0127.1 Y0031.4 E8260.2 F600.0
 G0 X0112.0 Y0063.0 F2400.0
G1 X0132.3 Y0034.5 E8270.7 F600.0
 G0 X0112.0 Y0063.0 F2400.0
G1 X0137.0 Y0038.5 E8281.2 F600.0
 G0 X0112.0 Y0063.0 F2400.0
G1 X0140.8 Y0043.2 E8291.7 F600.0
 G0 X0112.0 Y0063.0 F2400.0
G1 X0143.8 Y0048.5 E8302.2 F600.0
 G0 X0112.0 Y0063.0 F2400.0
G1 X0145.8 Y0054.3 E8312.7 F600.0
G0  F600.0 Z4.6
 G0 X0112.0 Y0063.0 F2400.0
G1 X0146.8 Y0060.2 E8323.2 F600.0
 G0 X0112.0 Y0063.0 F2400.0
G1 X0146.8 Y0066.3 E8333.7 F600.0
 G0 X0112.0 Y0063.0 F2400.0
G1 X0145.7 Y0072.3 E8344.2 F600.0
 G0 X0112.0 Y0063.0 F2400.0
G1 X0143.6 Y0078.0 E8354.7 F600.0
 G0 X0112.0 Y0063.0 F2400.0
G1 X0140.5 Y0083.2 E8365.2 F600.0
 G0 X0112.0 Y0063.0 F2400.0
G1 X0136.5 Y0087.9 E8375.6 F600.0
 G0 X0112.0 Y0063.0 F2400.0
G1 X0131.8 Y0091.8 E8386.1 F600.0
 G0 X0112.0 Y0063.0 F2400.0
G1 X0126.5 Y0094.8 E8396.6 F600.0
 G0 X0112.0 Y0063.0 F2400.0
G1 X0120.8 Y0096.8 E8407.1 F600.0
 G0 X0112.0 Y0063.0 F2400.0
G1 X0114.8 Y0097.8 E8417.6 F600.0
 G0 X0112.0 Y0063.0 F2400.0
G1 X0108.7 Y0097.8 E8428.1 F600.0
 G0 X0112.0 Y0063.0 F2400.0
G1 X0102.7 Y0096.7 E8438.6 F600.0
 G0 X0112.0 Y0063.0 F2400.0
G1 X0096.9 Y0094.6 E8449.1 F600.0
 G0 X0112.0 Y0063.0 F2400.0
G1 X0091.7 Y0091.5 E8459.6 F600.0
 G0 X0112.0 Y0063.0 F2400.0
G1 X0087.0 Y0087.5 E8470.1 F600.0
 G0 X0112.0 Y0063.0 F2400.0
G1 X0083.2 Y0082.8 E8480.6 F600.0
 G0 X0112.0 Y0063.0 F2400.0
G1 X0080.1 Y0077.5 E8491.1 F600.0
 G0 X0112.0 Y0063.0 F2400.0
G1 X0078.1 Y0071.8 E8501.6 F600.0
 G0 X0112.0 Y0063.0 F2400.0
G1 X0077.1 Y0065.8 E8512.1 F600.0
 G0 X0112.0 Y0063.0 F2400.0
G1 X0077.1 Y0059.7 E8522.6 F600.0
 G0 X0112.0 Y0063.0 F2400.0
G1 X0078.2 Y0053.7 E8533.1 F600.0
 G0 X0112.0 Y0063.0 F2400.0
G1 X0080.4 Y0048.0 E8543.6 F600.0
 G0 X0112.0 Y0063.0 F2400.0
G1 X0083.4 Y0042.7 E8554.1 F600.0
 G0 X0112.0 Y0063.0 F2400.0
G1 X0087.4 Y0038.1 E8564.6 F600.0
 G0 X0112.0 Y0063.0 F2400.0
G1 X0092.1 Y0034.2 E8575.1 F600.0
 G0 X0112.0 Y0063.0 F2400.0
G1 X0097.4 Y0031.2 E8585.6 F600.0
 G0 X0112.0 Y0063.0 F2400.0
G1 X0103.1 Y0029.1 E8596.1 F600.0
 G0 X0112.0 Y0063.0 F2400.0
G1 X0109.1 Y0028.1 E8606.6 F600.0
 G0 X0112.0 Y0063.0 F2400.0
G1 X0115.2 Y0028.1 E8617.1 F600.0
 G0 X0112.0 Y0063.0 F2400.0
G1 X0121.2 Y0029.2 E8627.5 F600.0
 G0 X0112.0 Y0063.0 F2400.0
G1 X0127.0 Y0031.4 E8638.0 F600.0
 G0 X0112.0 Y0063.0 F2400.0
G1 X0132.2 Y0034.5 E8648.5 F600.0
 G0 X0112.0 Y0063.0 F2400.0
G1 X0136.9 Y0038.4 E8659.0 F600.0
 G0 X0112.0 Y0063.0 F2400.0
G1 X0140.8 Y0043.1 E8669.5 F600.0
 G0 X0112.0 Y0063.0 F2400.0
G1 X0143.8 Y0048.4 E8680.0 F600.0
 G0 X0112.0 Y0063.0 F2400.0
G1 X0145.8 Y0054.2 E8690.5 F600.0
G0  F600.0 Z4.7999997
 G0 X0112.0 Y0063.0 F2400.0
G1 X0146.8 Y0060.0 E8701.0 F600.0
 G0 X0112.0 Y0063.0 F2400.0
G1 X0146.8 Y0066.1 E8711.5 F600.0
 G0 X0112.0 Y0063.0 F2400.0
G1 X0145.7 Y0072.1 E8722.0 F600.0
 G0 X0112.0 Y0063.0 F2400.0
G1 X0143.6 Y0077.9 E8732.5 F600.0
 G0 X0112.0 Y0063.0 F2400.0
G1 X0140.5 Y0083.1 E8743.0 F600.0
 G0 X0112.0 Y0063.0 F2400.0
G1 X0136.6 Y0087.8 E8753.5 F600.0
 G0 X0112.0 Y0063.0 F2400.0
G1 X0131.9 Y0091.7 E8764.0 F600.0
 G0 X0112.0 Y0063.0 F2400.0
G1 X0126.6 Y0094.7 E8774.5 F600.0
 G0 X0112.0 Y0063.0 F2400.0
G1 X0120.9 Y0096.8 E8785.0 F600.0
 G0 X0112.0 Y0063.0 F2400.0
G1 X0114.9 Y0097.8 E8795.5 F600.0
 G0 X0112.0 Y0063.0 F2400.0
G1 X0108.8 Y0097.8 E8806.0 F600.0
 G0 X0112.0 Y0063.0 F2400.0
G1 X0102.8 Y0096.7 E8816.5 F600.0
 G0 X0112.0 Y0063.0 F2400.0
G1 X0097.1 Y0094.6 E8827.0 F600.0
 G0 X0112.0 Y0063.0 F2400.0
G1 X0091.8 Y0091.6 E8837.5 F600.0
 G0 X0112.0 Y0063.0 F2400.0
G1 X0087.1 Y0087.6 E8848.0 F600.0
 G0 X0112.0 Y0063.0 F2400.0
G1 X0083.2 Y0082.9 E8858.5 F600.0
 G0 X0112.0 Y0063.0 F2400.0
G1 X0080.2 Y0077.6 E8869.0 F600.0
 G0 X0112.0 Y0063.0 F2400.0
G1 X0078.1 Y0071.9 E8879.4 F600.0
 G0 X0112.0 Y0063.0 F2400.0
G1 X0077.1 Y0065.9 E8889.9 F600.0
 G0 X0112.0 Y0063.0 F2400.0
G1 X0077.1 Y0059.8 E8900.4 F600.0
 G0 X0112.0 Y0063.0 F2400.0
G1 X0078.2 Y0053.8 E8910.9 F600.0
 G0 X0112.0 Y0063.0 F2400.0
G1 X0080.3 Y0048.1 E8921.4 F600.0
 G0 X0112.0 Y0063.0 F2400.0
G1 X0083.4 Y0042.8 E8931.9 F600.0
 G0 X0112.0 Y0063.0 F2400.0
G1 X0087.3 Y0038.1 E8942.4 F600.0
 G0 X0112.0 Y0063.0 F2400.0
G1 X0092.0 Y0034.2 E8952.9 F600.0
 G0 X0112.0 Y0063.0 F2400.0
G1 X0097.3 Y0031.2 E8963.4 F600.0
 G0 X0112.0 Y0063.0 F2400.0
G1 X0103.0 Y0029.1 E8973.9 F600.0
 G0 X0112.0 Y0063.0 F2400.0
G1 X0109.0 Y0028.1 E8984.4 F600.0
 G0 X0112.0 Y0063.0 F2400.0
G1 X0115.1 Y0028.1 E8994.9 F600.0
 G0 X0112.0 Y0063.0 F2400.0
G1 X0121.1 Y0029.2 E9005.4 F600.0
 G0 X0112.0 Y0063.0 F2400.0
G1 X0126.9 Y0031.3 E9015.9 F600.0
 G0 X0112.0 Y0063.0 F2400.0
G1 X0132.1 Y0034.4 E9026.4 F600.0
 G0 X0112.0 Y0063.0 F2400.0
G1 X0136.8 Y0038.3 E9036.9 F600.0
 G0 X0112.0 Y0063.0 F2400.0
G1 X0140.7 Y0043.0 E9047.4 F600.0
 G0 X0112.0 Y0063.0 F2400.0
G1 X0143.7 Y0048.3 E9057.9 F600.0
 G0 X0112.0 Y0063.0 F2400.0
G1 X0145.8 Y0054.0 E9068.4 F600.0
G0  F600.0 Z4.9999995
 G0 X0112.0 Y0063.0 F2400.0
G1 X0146.8 Y0059.9 E9078.9 F600.0
 G0 X0112.0 Y0063.0 F2400.0
G1 X0146.8 Y0066.0 E9089.4 F600.0
 G0 X0112.0 Y0063.0 F2400.0
G1 X0145.7 Y0072.0 E9099.9 F600.0
 G0 X0112.0 Y0063.0 F2400.0
G1 X0143.7 Y0077.8 E9110.4 F600.0
 G0 X0112.0 Y0063.0 F2400.0
G1 X0140.6 Y0083.0 E9120.8 F600.0
 G0 X0112.0 Y0063.0 F2400.0
G1 X0136.7 Y0087.7 E9131.3 F600.0
 G0 X0112.0 Y0063.0 F2400.0
G1 X0132.0 Y0091.6 E9141.8 F600.0
 G0 X0112.0 Y0063.0 F2400.0
G1 X0126.7 Y0094.7 E9152.3 F600.0
 G0 X0112.0 Y0063.0 F2400.0
G1 X0121.0 Y0096.8 E9162.8 F600.0
 G0 X0112.0 Y0063.0 F2400.0
G1 X0115.0 Y0097.8 E9173.3 F600.0
 G0 X0112.0 Y0063.0 F2400.0
G1 X0108.9 Y0097.8 E9183.8 F600.0
 G0 X0112.0 Y0063.0 F2400.0
G1 X0102.9 Y0096.8 E9194.3 F600.0
 G0 X0112.0 Y0063.0 F2400.0
G1 X0097.2 Y0094.7 E9204.8 F600.0
 G0 X0112.0 Y0063.0 F2400.0
G1 X0091.9 Y0091.6 E9215.3 F600.0
 G0 X0112.0 Y0063.0 F2400.0
G1 X0087.2 Y0087.7 E9225.8 F600.0
 G0 X0112.0 Y0063.0 F2400.0
G1 X0083.3 Y0083.0 E9236.3 F600.0
 G0 X0112.0 Y0063.0 F2400.0
G1 X0080.2 Y0077.8 E9246.8 F600.0
 G0 X0112.0 Y0063.0 F2400.0
G1 X0078.2 Y0072.0 E9257.3 F600.0
 G0 X0112.0 Y0063.0 F2400.0
G1 X0077.1 Y0066.0 E9267.8 F600.0
 G0 X0112.0 Y0063.0 F2400.0
G1 X0077.1 Y0059.9 E9278.3 F600.0
 G0 X0112.0 Y0063.0 F2400.0
G1 X0078.2 Y0053.9 E9288.8 F600.0
 G0 X0112.0 Y0063.0 F2400.0
G1 X0080.2 Y0048.2 E9299.3 F600.0
 G0 X0112.0 Y0063.0 F2400.0
G1 X0083.3 Y0042.9 E9309.8 F600.0
 G0 X0112.0 Y0063.0 F2400.0
G1 X0087.2 Y0038.2 E9320.3 F600.0
 G0 X0112.0 Y0063.0 F2400.0
G1 X0091.9 Y0034.3 E9330.8 F600.0
 G0 X0112.0 Y0063.0 F2400.0
G1 X0097.2 Y0031.3 E9341.3 F600.0
 G0 X0112.0 Y0063.0 F2400.0
G1 X0102.9 Y0029.2 E9351.8 F600.0
 G0 X0112.0 Y0063.0 F2400.0
G1 X0108.9 Y0028.1 E9362.3 F600.0
 G0 X0112.0 Y0063.0 F2400.0
G1 X0115.0 Y0028.1 E9372.7 F600.0
 G0 X0112.0 Y0063.0 F2400.0
G1 X0121.0 Y0029.2 E9383.2 F600.0
 G0 X0112.0 Y0063.0 F2400.0
G1 X0126.7 Y0031.3 E9393.7 F600.0
 G0 X0112.0 Y0063.0 F2400.0
G1 X0132.0 Y0034.3 E9404.2 F600.0
 G0 X0112.0 Y0063.0 F2400.0
G1 X0136.7 Y0038.2 E9414.7 F600.0
 G0 X0112.0 Y0063.0 F2400.0
G1 X0140.6 Y0042.9 E9425.2 F600.0
 G0 X0112.0 Y0063.0 F2400.0
G1 X0143.7 Y0048.2 E9435.7 F600.0
 G0 X0112.0 Y0063.0 F2400.0
G1 X0145.7 Y0053.9 E9446.2 F600.0
G0  F600.0 Z5.1999993
 G0 X0112.0 Y0063.0 F2400.0
G1 X0146.8 Y0059.8 E9456.7 F600.0
 G0 X0112.0 Y0063.0 F2400.0
G1 X0146.8 Y0065.9 E9467.2 F600.0
 G0 X0112.0 Y0063.0 F2400.0
G1 X0145.8 Y0071.9 E9477.7 F600.0
 G0 X0112.0 Y0063.0 F2400.0
G1 X0143.7 Y0077.6 E9488.2 F600.0
 G0 X0112.0 Y0063.0 F2400.0
G1 X0140.7 Y0082.9 E9498.7 F600.0
 G0 X0112.0 Y0063.0 F2400.0
G1 X0136.8 Y0087.6 E9509.2 F600.0
 G0 X0112.0 Y0063.0 F2400.0
G1 X0132.1 Y0091.6 E9519.7 F600.0
 G0 X0112.0 Y0063.0 F2400.0
G1 X0126.9 Y0094.6 E9530.2 F600.0
 G0 X0112.0 Y0063.0 F2400.0
G1 X0121.1 Y0096.7 E9540.7 F600.0
 G0 X0112.0 Y0063.0 F2400.0
G1 X0115.1 Y0097.8 E9551.2 F600.0
 G0 X0112.0 Y0063.0 F2400.0
G1 X0109.0 Y0097.8 E9561.7 F600.0
 G0 X0112.0 Y0063.0 F2400.0
G1 X0103.0 Y0096.8 E9572.2 F600.0
 G0 X0112.0 Y0063.0 F2400.0
G1 X0097.3 Y0094.7 E9582.7 F600.0
 G0 X0112.0 Y0063.0 F2400.0
G1 X0092.0 Y0091.7 E9593.2 F600.0
 G0 X0112.0 Y0063.0 F2400.0
G1 X0087.3 Y0087.8 E9603.7 F600.0
 G0 X0112.0 Y0063.0 F2400.0
G1 X0083.4 Y0083.1 E9614.2 F600.0
 G0 X0112.0 Y0063.0 F2400.0
G1 X0080.3 Y0077.9 E9624.6 F600.0
 G0 X0112.0 Y0063.0 F2400.0
G1 X0078.2 Y0072.1 E9635.1 F600.0
 G0 X0112.0 Y0063.0 F2400.0
G1 X0077.1 Y0066.1 E9645.6 F600.0
 G0 X0112.0 Y0063.0 F2400.0
G1 X0077.1 Y0060.0 E9656.1 F600.0
 G0 X0112.0 Y0063.0 F2400.0
G1 X0078.1 Y0054.0 E9666.6 F600.0
 G0 X0112.0 Y0063.0 F2400.0
G1 X0080.2 Y0048.3 E9677.1 F600.0
 G0 X0112.0 Y0063.0 F2400.0
G1 X0083.2 Y0043.0 E9687.6 F600.0
 G0 X0112.0 Y0063.0 F2400.0
G1 X0087.1 Y0038.3 E9698.1 F600.0
 G0 X0112.0 Y0063.0 F2400.0
G1 X0091.8 Y0034.4 E9708.6 F600.0
 G0 X0112.0 Y0063.0 F2400.0
G1 X0097.1 Y0031.3 E9719.1 F600.0
 G0 X0112.0 Y0063.0 F2400.0
G1 X0102.8 Y0029.2 E9729.6 F600.0
 G0 X0112.0 Y0063.0 F2400.0
G1 X0108.8 Y0028.1 E9740.1 F600.0
 G0 X0112.0 Y0063.0 F2400.0
G1 X0114.9 Y0028.1 E9750.6 F600.0
 G0 X0112.0 Y0063.0 F2400.0
G1 X0120.9 Y0029.1 E9761.1 F600.0
 G0 X0112.0 Y0063.0 F2400.0
G1 X0126.6 Y0031.2 E9771.6 F600.0
 G0 X0112.0 Y0063.0 F2400.0
G1 X0131.9 Y0034.2 E9782.1 F600.0
 G0 X0112.0 Y0063.0 F2400.0
G1 X0136.6 Y0038.1 E9792.6 F600.0
 G0 X0112.0 Y0063.0 F2400.0
G1 X0140.5 Y0042.8 E9803.1 F600.0
 G0 X0112.0 Y0063.0 F2400.0
G1 X0143.6 Y0048.1 E9813.6 F600.0
 G0 X0112.0 Y0063.0 F2400.0
G1 X0145.7 Y0053.8 E9824.1 F600.0
G0  F600.0 Z5.399999
 G0 X0112.0 Y0063.0 F2400.0
G1 X0146.8 Y0059.7 E9834.6 F600.0
 G0 X0112.0 Y0063.0 F2400.0
G1 X0146.8 Y0065.8 E9845.1 F600.0
 G0 X0112.0 Y0063.0 F2400.0
G1 X0145.8 Y0071.8 E9855.6 F600.0
 G0 X0112.0 Y0063.0 F2400.0
G1 X0143.8 Y0077.5 E9866.1 F600.0
 G0 X0112.0 Y0063.0 F2400.0
G1 X0140.8 Y0082.8 E9876.5 F600.0
 G0 X0112.0 Y0063.0 F2400.0
G1 X0136.9 Y0087.5 E9887.0 F600.0
 G0 X0112.0 Y0063.0 F2400.0
G1 X0132.2 Y0091.5 E9897.5 F600.0
 G0 X0112.0 Y0063.0 F2400.0
G1 X0127.0 Y0094.6 E9908.0 F600.0
 G0 X0112.0 Y0063.0 F2400.0
G1 X0121.2 Y0096.7 E9918.5 F600.0
 G0 X0112.0 Y0063.0 F2400.0
G1 X0115.2 Y0097.8 E9929.0 F600.0
 G0 X0112.0 Y0063.0 F2400.0
G1 X0109.1 Y0097.8 E9939.5 F600.0
 G0 X0112.0 Y0063.0 F2400.0
G1 X0103.1 Y0096.8 E9950.0 F600.0
 G0 X0112.0 Y0063.0 F2400.0
G1 X0097.4 Y0094.8 E9960.5 F600.0
 G0 X0112.0 Y0063.0 F2400.0
G1 X0092.1 Y0091.8 E9971.0 F600.0
 G0 X0112.0 Y0063.0 F2400.0
G1 X0087.4 Y0087.9 E9981.5 F600.0
 G0 X0112.0 Y0063.0 F2400.0
G1 X0083.4 Y0083.2 E9992.0 F600.0
 G0 X0112.0 Y0063.0 F2400.0
G1 X0080.4 Y0078.0 E10002.5 F600.0
 G0 X0112.0 Y0063.0 F2400.0
G1 X0078.2 Y0072.3 E10013.0 F600.0
 G0 X0112.0 Y0063.0 F2400.0
G1 X0077.1 Y0066.3 E10023.5 F600.0
 G0 X0112.0 Y0063.0 F2400.0
G1 X0077.1 Y0060.2 E10034.0 F600.0
 G0 X0112.0 Y0063.0 F2400.0
G1 X0078.1 Y0054.2 E10044.5 F600.0
 G0 X0112.0 Y0063.0 F2400.0
G1 X0080.1 Y0048.4 E10055.0 F600.0
 G0 X0112.0 Y0063.0 F2400.0
G1 X0083.2 Y0043.1 E10065.5 F600.0
 G0 X0112.0 Y0063.0 F2400.0
G1 X0087.0 Y0038.4 E10076.0 F600.0
 G0 X0112.0 Y0063.0 F2400.0
G1 X0091.7 Y0034.5 E10086.5 F600.0
 G0 X0112.0 Y0063.0 F2400.0
G1 X0096.9 Y0031.4 E10097.0 F600.0
 G0 X0112.0 Y0063.0 F2400.0
G1 X0102.7 Y0029.2 E10107.5 F600.0
 G0 X0112.0 Y0063.0 F2400.0
G1 X0108.7 Y0028.1 E10118.0 F600.0
 G0 X0112.0 Y0063.0 F2400.0
G1 X0114.8 Y0028.1 E10128.4 F600.0
 G0 X0112.0 Y0063.0 F2400.0
G1 X0120.8 Y0029.1 E10138.9 F600.0
 G0 X0112.0 Y0063.0 F2400.0
G1 X0126.5 Y0031.2 E10149.4 F600.0
 G0 X0112.0 Y0063.0 F2400.0
G1 X0131.8 Y0034.2 E10159.9 F600.0
 G0 X0112.0 Y0063.0 F2400.0
G1 X0136.5 Y0038.1 E10170.4 F600.0
 G0 X0112.0 Y0063.0 F2400.0
G1 X0140.5 Y0042.7 E10180.9 F600.0
 G0 X0112.0 Y0063.0 F2400.0
G1 X0143.6 Y0048.0 E10191.4 F600.0
 G0 X0112.0 Y0063.0 F2400.0
G1 X0145.7 Y0053.7 E10201.9 F600.0
G0  F600.0 Z5.599999
 G0 X0112.0 Y0063.0 F2400.0
G1 X0146.8 Y0059.6 E10212.4 F600.0
 G0 X0112.0 Y0063.0 F2400.0
G1 X0146.8 Y0065.7 E10222.9 F600.0
 G0 X0112.0 Y0063.0 F2400.0
G1 X0145.8 Y0071.7 E10233.4 F600.0
 G0 X0112.0 Y0063.0 F2400.0
G1 X0143.8 Y0077.4 E10243.9 F600.0
 G0 X0112.0 Y0063.0 F2400.0
G1 X0140.8 Y0082.7 E10254.4 F600.0
 G0 X0112.0 Y0063.0 F2400.0
G1 X0137.0 Y0087.5 E10264.9 F600.0
 G0 X0112.0 Y0063.0 F2400.0
G1 X0132.3 Y0091.4 E10275.4 F600.0
 G0 X0112.0 Y0063.0 F2400.0
G1 X0127.1 Y0094.5 E10285.9 F600.0
 G0 X0112.0 Y0063.0 F2400.0
G1 X0121.4 Y0096.7 E10296.4 F600.0
 G0 X0112.0 Y0063.0 F2400.0
G1 X0115.4 Y0097.8 E10306.9 F600.0
 G0 X0112.0 Y0063.0 F2400.0
G1 X0109.3 Y0097.9 E10317.4 F600.0
 G0 X0112.0 Y0063.0 F2400.0
G1 X0103.3 Y0096.9 E10327.9 F600.0
 G0 X0112.0 Y0063.0 F2400.0
G1 X0097.5 Y0094.8 E10338.4 F600.0
 G0 X0112.0 Y0063.0 F2400.0
G1 X0092.2 Y0091.8 E10348.9 F600.0
 G0 X0112.0 Y0063.0 F2400.0
G1 X0087.5 Y0088.0 E10359.4 F600.0
 G0 X0112.0 Y0063.0 F2400.0
G1 X0083.5 Y0083.3 E10369.8 F600.0
 G0 X0112.0 Y0063.0 F2400.0
G1 X0080.4 Y0078.1 E10380.3 F600.0
 G0 X0112.0 Y0063.0 F2400.0
G1 X0078.3 Y0072.4 E10390.8 F600.0
 G0 X0112.0 Y0063.0 F2400.0
G1 X0077.1 Y0066.4 E10401.3 F600.0
 G0 X0112.0 Y0063.0 F2400.0
G1 X0077.1 Y0060.3 E10411.8 F600.0
 G0 X0112.0 Y0063.0 F2400.0
G1 X0078.1 Y0054.3 E10422.3 F600.0
 G0 X0112.0 Y0063.0 F2400.0
G1 X0080.1 Y0048.5 E10432.8 F600.0
 G0 X0112.0 Y0063.0 F2400.0
G1 X0083.1 Y0043.2 E10443.3 F600.0
 G0 X0112.0 Y0063.0 F2400.0
G1 X0087.0 Y0038.5 E10453.8 F600.0
 G0 X0112.0 Y0063.0 F2400.0
G1 X0091.6 Y0034.5 E10464.3 F600.0
 G0 X0112.0 Y0063.0 F2400.0
G1 X0096.8 Y0031.4 E10474.8 F600.0
 G0 X0112.0 Y0063.0 F2400.0
G1 X0102.5 Y0029.3 E10485.3 F600.0
 G0 X0112.0 Y0063.0 F2400.0
G1 X0108.5 Y0028.2 E10495.8 F600.0
 G0 X0112.0 Y0063.0 F2400.0
G1 X0114.6 Y0028.1 E10506.3 F600.0
 G0 X0112.0 Y0063.0 F2400.0
G1 X0120.7 Y0029.1 E10516.8 F600.0
 G0 X0112.0 Y0063.0 F2400.0
G1 X0126.4 Y0031.1 E10527.3 F600.0
 G0 X0112.0 Y0063.0 F2400.0
G1 X0131.7 Y0034.1 E10537.8 F600.0
 G0 X0112.0 Y0063.0 F2400.0
G1 X0136.4 Y0038.0 E10548.3 F600.0
 G0 X0112.0 Y0063.0 F2400.0
G1 X0140.4 Y0042.6 E10558.8 F600.0
 G0 X0112.0 Y0063.0 F2400.0
G1 X0143.5 Y0047.9 E10569.3 F600.0
 G0 X0112.0 Y0063.0 F2400.0
G1 X0145.7 Y0053.6 E10579.8 F600.0
G0  F600.0 Z5.7999988
 G0 X0112.0 Y0063.0 F2400.0
G1 X0146.8 Y0059.4 E10590.3 F600.0
 G0 X0112.0 Y0063.0 F2400.0
G1 X0146.8 Y0065.5 E10600.8 F600.0
 G0 X0112.0 Y0063.0 F2400.0
G1 X0145.9 Y0071.6 E10611.3 F600.0
 G0 X0112.0 Y0063.0 F2400.0
G1 X0143.9 Y0077.3 E10621.7 F600.0
 G0 X0112.0 Y0063.0 F2400.0
G1 X0140.9 Y0082.6 E10632.2 F600.0
 G0 X0112.0 Y0063.0 F2400.0
G1 X0137.0 Y0087.4 E10642.7 F600.0
 G0 X0112.0 Y0063.0 F2400.0
G1 X0132.4 Y0091.4 E10653.2 F600.0
 G0 X0112.0 Y0063.0 F2400.0
G1 X0127.2 Y0094.5 E10663.7 F600.0
 G0 X0112.0 Y0063.0 F2400.0
G1 X0121.5 Y0096.6 E10674.2 F600.0
 G0 X0112.0 Y0063.0 F2400.0
G1 X0115.5 Y0097.8 E10684.7 F600.0
 G0 X0112.0 Y0063.0 F2400.0
G1 X0109.4 Y0097.9 E10695.2 F600.0
 G0 X0112.0 Y0063.0 F2400.0
G1 X0103.4 Y0096.9 E10705.7 F600.0
 G0 X0112.0 Y0063.0 F2400.0
G1 X0097.6 Y0094.9 E10716.2 F600.0
 G0 X0112.0 Y0063.0 F2400.0
G1 X0092.3 Y0091.9 E10726.7 F600.0
 G0 X0112.0 Y0063.0 F2400.0
G1 X0087.6 Y0088.1 E10737.2 F600.0
 G0 X0112.0 Y0063.0 F2400.0
G1 X0083.6 Y0083.4 E10747.7 F600.0
 G0 X0112.0 Y0063.0 F2400.0
G1 X0080.5 Y0078.2 E10758.2 F600.0
 G0 X0112.0 Y0063.0 F2400.0
G1 X0078.3 Y0072.5 E10768.7 F600.0
 G0 X0112.0 Y0063.0 F2400.0
G1 X0077.1 Y0066.5 E10779.2 F600.0
 G0 X0112.0 Y0063.0 F2400.0
G1 X0077.1 Y0060.4 E10789.7 F600.0
 G0 X0112.0 Y0063.0 F2400.0
G1 X0078.0 Y0054.4 E10800.2 F600.0
 G0 X0112.0 Y0063.0 F2400.0
G1 X0080.0 Y0048.6 E10810.7 F600.0
 G0 X0112.0 Y0063.0 F2400.0
G1 X0083.0 Y0043.3 E10821.2 F600.0
 G0 X0112.0 Y0063.0 F2400.0
G1 X0086.9 Y0038.6 E10831.7 F600.0
 G0 X0112.0 Y0063.0 F2400.0
G1 X0091.5 Y0034.6 E10842.2 F600.0
 G0 X0112.0 Y0063.0 F2400.0
G1 X0096.7 Y0031.5 E10852.7 F600.0
 G0 X0112.0 Y0063.0 F2400.0
G1 X0102.4 Y0029.3 E10863.2 F600.0
 G0 X0112.0 Y0063.0 F2400.0
G1 X0108.4 Y0028.2 E10873.6 F600.0
 G0 X0112.0 Y0063.0 F2400.0
G1 X0114.5 Y0028.1 E10884.1 F600.0
 G0 X0112.0 Y0063.0 F2400.0
G1 X0120.5 Y0029.1 E10894.6 F600.0
 G0 X0112.0 Y0063.0 F2400.0
G1 X0126.3 Y0031.1 E10905.1 F600.0
 G0 X0112.0 Y0063.0 F2400.0
G1 X0131.6 Y0034.0 E10915.6 F600.0
 G0 X0112.0 Y0063.0 F2400.0
G1 X0136.3 Y0037.9 E10926.1 F600.0
 G0 X0112.0 Y0063.0 F2400.0
G1 X0140.3 Y0042.5 E10936.6 F600.0
 G0 X0112.0 Y0063.0 F2400.0
G1 X0143.5 Y0047.7 E10947.1 F600.0
 G0 X0112.0 Y0063.0 F2400.0
G1 X0145.6 Y0053.4 E10957.6 F600.0
G0  F600.0 Z5.9999986
 G0 X0112.0 Y0063.0 F2400.0
G1 X0146.7 Y0059.3 E10968.1 F600.0
 G0 X0112.0 Y0063.0 F2400.0
G1 X0146.9 Y0065.4 E10978.6 F600.0
 G0 X0112.0 Y0063.0 F2400.0
G1 X0145.9 Y0071.4 E10989.1 F600.0
 G0 X0112.0 Y0063.0 F2400.0
G1 X0143.9 Y0077.2 E10999.6 F600.0
 G0 X0112.0 Y0063.0 F2400.0
G1 X0141.0 Y0082.5 E11010.1 F600.0
 G0 X0112.0 Y0063.0 F2400.0
G1 X0137.1 Y0087.3 E11020.6 F600.0
 G0 X0112.0 Y0063.0 F2400.0
G1 X0132.5 Y0091.3 E11031.1 F600.0
 G0 X0112.0 Y0063.0 F2400.0
G1 X0127.3 Y0094.4 E11041.6 F600.0
 G0 X0112.0 Y0063.0 F2400.0
G1 X0121.6 Y0096.6 E11052.1 F600.0
 G0 X0112.0 Y0063.0 F2400.0
G1 X0115.6 Y0097.8 E11062.6 F600.0
 G0 X0112.0 Y0063.0 F2400.0
G1 X0109.5 Y0097.9 E11073.1 F600.0
 G0 X0112.0 Y0063.0 F2400.0
G1 X0103.5 Y0096.9 E11083.6 F600.0
 G0 X0112.0 Y0063.0 F2400.0
G1 X0097.7 Y0094.9 E11094.1 F600.0
 G0 X0112.0 Y0063.0 F2400.0
G1 X0092.4 Y0092.0 E11104.6 F600.0
 G0 X0112.0 Y0063.0 F2400.0
G1 X0087.7 Y0088.1 E11115.1 F600.0
 G0 X0112.0 Y0063.0 F2400.0
G1 X0083.7 Y0083.5 E11125.5 F600.0
 G0 X0112.0 Y0063.0 F2400.0
G1 X0080.5 Y0078.3 E11136.0 F600.0
 G0 X0112.0 Y0063.0 F2400.0
G1 X0078.3 Y0072.6 E11146.5 F600.0
 G0 X0112.0 Y0063.0 F2400.0
G1 X0077.2 Y0066.6 E11157.0 F600.0
 G0 X0112.0 Y0063.0 F2400.0
G1 X0077.1 Y0060.5 E11167.5 F600.0
 G0 X0112.0 Y0063.0 F2400.0
G1 X0078.0 Y0054.5 E11178.0 F600.0
 G0 X0112.0 Y0063.0 F2400.0
G1 X0080.0 Y0048.7 E11188.5 F600.0
 G0 X0112.0 Y0063.0 F2400.0
G1 X0083.0 Y0043.4 E11199.0 F600.0
 G0 X0112.0 Y0063.0 F2400.0
G1 X0086.8 Y0038.7 E11209.5 F600.0
 G0 X0112.0 Y0063.0 F2400.0
G1 X0091.4 Y0034.7 E11220.0 F600.0
 G0 X0112.0 Y0063.0 F2400.0
G1 X0096.6 Y0031.5 E11230.5 F600.0
 G0 X0112.0 Y0063.0 F2400.0
G1 X0102.3 Y0029.3 E11241.0 F600.0
 G0 X0112.0 Y0063.0 F2400.0
G1 X0108.3 Y0028.2 E11251.5 F600.0
 G0 X0112.0 Y0063.0 F2400.0
G1 X0114.4 Y0028.1 E11262.0 F600.0
 G0 X0112.0 Y0063.0 F2400.0
G1 X0120.4 Y0029.0 E11272.5 F600.0
 G0 X0112.0 Y0063.0 F2400.0
G1 X0126.2 Y0031.0 E11283.0 F600.0
 G0 X0112.0 Y0063.0 F2400.0
G1 X0131.5 Y0034.0 E11293.5 F600.0
 G0 X0112.0 Y0063.0 F2400.0
G1 X0136.3 Y0037.8 E11304.0 F600.0
 G0 X0112.0 Y0063.0 F2400.0
G1 X0140.3 Y0042.4 E11314.5 F600.0
 G0 X0112.0 Y0063.0 F2400.0
G1 X0143.4 Y0047.6 E11325.0 F600.0
 G0 X0112.0 Y0063.0 F2400.0
G1 X0145.6 Y0053.3 E11335.5 F600.0
G0  F600.0 Z6.1999984
 G0 X0112.0 Y0063.0 F2400.0
G1 X0146.7 Y0059.2 E11346.0 F600.0
 G0 X0112.0 Y0063.0 F2400.0
G1 X0146.9 Y0065.3 E11356.5 F600.0
 G0 X0112.0 Y0063.0 F2400.0
G1 X0145.9 Y0071.3 E11367.0 F600.0
 G0 X0112.0 Y0063.0 F2400.0
G1 X0144.0 Y0077.1 E11377.4 F600.0
 G0 X0112.0 Y0063.0 F2400.0
G1 X0141.0 Y0082.4 E11387.9 F600.0
 G0 X0112.0 Y0063.0 F2400.0
G1 X0137.2 Y0087.2 E11398.4 F600.0
 G0 X0112.0 Y0063.0 F2400.0
G1 X0132.6 Y0091.2 E11408.9 F600.0
 G0 X0112.0 Y0063.0 F2400.0
G1 X0127.4 Y0094.4 E11419.4 F600.0
 G0 X0112.0 Y0063.0 F2400.0
G1 X0121.7 Y0096.6 E11429.9 F600.0
 G0 X0112.0 Y0063.0 F2400.0
G1 X0115.7 Y0097.8 E11440.4 F600.0
 G0 X0112.0 Y0063.0 F2400.0
G1 X0109.6 Y0097.9 E11450.9 F600.0
 G0 X0112.0 Y0063.0 F2400.0
G1 X0103.6 Y0097.0 E11461.4 F600.0
 G0 X0112.0 Y0063.0 F2400.0
G1 X0097.8 Y0095.0 E11471.9 F600.0
 G0 X0112.0 Y0063.0 F2400.0
G1 X0092.5 Y0092.0 E11482.4 F600.0
 G0 X0112.0 Y0063.0 F2400.0
G1 X0087.7 Y0088.2 E11492.9 F600.0
 G0 X0112.0 Y0063.0 F2400.0
G1 X0083.7 Y0083.6 E11503.4 F600.0
 G0 X0112.0 Y0063.0 F2400.0
G1 X0080.6 Y0078.4 E11513.9 F600.0
 G0 X0112.0 Y0063.0 F2400.0
G1 X0078.4 Y0072.7 E11524.4 F600.0
 G0 X0112.0 Y0063.0 F2400.0
G1 X0077.2 Y0066.8 E11534.9 F600.0
 G0 X0112.0 Y0063.0 F2400.0
G1 X0077.0 Y0060.7 E11545.4 F600.0
 G0 X0112.0 Y0063.0 F2400.0
G1 X0078.0 Y0054.6 E11555.9 F600.0
 G0 X0112.0 Y0063.0 F2400.0
G1 X0079.9 Y0048.9 E11566.4 F600.0
 G0 X0112.0 Y0063.0 F2400.0
G1 X0082.9 Y0043.5 E11576.9 F600.0
 G0 X0112.0 Y0063.0 F2400.0
G1 X0086.7 Y0038.8 E11587.4 F600.0
 G0 X0112.0 Y0063.0 F2400.0
G1 X0091.3 Y0034.7 E11597.9 F600.0
 G0 X0112.0 Y0063.0 F2400.0
G1 X0096.5 Y0031.6 E11608.4 F600.0
 G0 X0112.0 Y0063.0 F2400.0
G1 X0102.2 Y0029.4 E11618.8 F600.0
 G0 X0112.0 Y0063.0 F2400.0
G1 X0108.2 Y0028.2 E11629.3 F600.0
 G0 X0112.0 Y0063.0 F2400.0
G1 X0114.3 Y0028.1 E11639.8 F600.0
 G0 X0112.0 Y0063.0 F2400.0
G1 X0120.3 Y0029.0 E11650.3 F600.0
 G0 X0112.0 Y0063.0 F2400.0
G1 X0126.1 Y0031.0 E11660.8 F600.0
 G0 X0112.0 Y0063.0 F2400.0
G1 X0131.4 Y0033.9 E11671.3 F600.0
 G0 X0112.0 Y0063.0 F2400.0
G1 X0136.2 Y0037.7 E11681.8 F600.0
 G0 X0112.0 Y0063.0 F2400.0
G1 X0140.2 Y0042.3 E11692.3 F600.0
 G0 X0112.0 Y0063.0 F2400.0
G1 X0143.3 Y0047.5 E11702.8 F600.0
 G0 X0112.0 Y0063.0 F2400.0
G1 X0145.6 Y0053.2 E11713.3 F600.0
G0  F600.0 Z6.399998
 G0 X0112.0 Y0063.0 F2400.0
G1 X0146.7 Y0059.1 E11723.8 F600.0
 G0 X0112.0 Y0063.0 F2400.0
G1 X0146.9 Y0065.2 E11734.3 F600.0
 G0 X0112.0 Y0063.0 F2400.0
G1 X0146.0 Y0071.2 E11744.8 F600.0
 G0 X0112.0 Y0063.0 F2400.0
G1 X0144.0 Y0077.0 E11755.3 F600.0
 G0 X0112.0 Y0063.0 F2400.0
G1 X0141.1 Y0082.3 E11765.8 F600.0
 G0 X0112.0 Y0063.0 F2400.0
G1 X0137.3 Y0087.1 E11776.3 F600.0
 G0 X0112.0 Y0063.0 F2400.0
G1 X0132.7 Y0091.1 E11786.8 F600.0
 G0 X0112.0 Y0063.0 F2400.0
G1 X0127.5 Y0094.3 E11797.3 F600.0
 G0 X0112.0 Y0063.0 F2400.0
G1 X0121.8 Y0096.5 E11807.8 F600.0
 G0 X0112.0 Y0063.0 F2400.0
G1 X0115.9 Y0097.7 E11818.3 F600.0
 G0 X0112.0 Y0063.0 F2400.0
G1 X0109.8 Y0097.9 E11828.8 F600.0
 G0 X0112.0 Y0063.0 F2400.0
G1 X0103.7 Y0097.0 E11839.3 F600.0
 G0 X0112.0 Y0063.0 F2400.0
G1 X0097.9 Y0095.0 E11849.8 F600.0
 G0 X0112.0 Y0063.0 F2400.0
G1 X0092.6 Y0092.1 E11860.3 F600.0
 G0 X0112.0 Y0063.0 F2400.0
G1 X0087.8 Y0088.3 E11870.7 F600.0
 G0 X0112.0 Y0063.0 F2400.0
G1 X0083.8 Y0083.7 E11881.2 F600.0
 G0 X0112.0 Y0063.0 F2400.0
G1 X0080.6 Y0078.5 E11891.7 F600.0
 G0 X0112.0 Y0063.0 F2400.0
G1 X0078.4 Y0072.9 E11902.2 F600.0
 G0 X0112.0 Y0063.0 F2400.0
G1 X0077.2 Y0066.9 E11912.7 F600.0
 G0 X0112.0 Y0063.0 F2400.0
G1 X0077.0 Y0060.8 E11923.2 F600.0
 G0 X0112.0 Y0063.0 F2400.0
G1 X0078.0 Y0054.7 E11933.7 F600.0
 G0 X0112.0 Y0063.0 F2400.0
G1 X0079.9 Y0049.0 E11944.2 F600.0
 G0 X0112.0 Y0063.0 F2400.0
G1 X0082.8 Y0043.6 E11954.7 F600.0
 G0 X0112.0 Y0063.0 F2400.0
G1 X0086.6 Y0038.8 E11965.2 F600.0
 G0 X0112.0 Y0063.0 F2400.0
G1 X0091.2 Y0034.8 E11975.7 F600.0
 G0 X0112.0 Y0063.0 F2400.0
G1 X0096.4 Y0031.6 E11986.2 F600.0
 G0 X0112.0 Y0063.0 F2400.0
G1 X0102.1 Y0029.4 E11996.7 F600.0
 G0 X0112.0 Y0063.0 F2400.0
G1 X0108.1 Y0028.2 E12007.2 F600.0
 G0 X0112.0 Y0063.0 F2400.0
G1 X0114.2 Y0028.1 E12017.7 F600.0
 G0 X0112.0 Y0063.0 F2400.0
G1 X0120.2 Y0029.0 E12028.2 F600.0
 G0 X0112.0 Y0063.0 F2400.0
G1 X0126.0 Y0030.9 E12038.7 F600.0
 G0 X0112.0 Y0063.0 F2400.0
G1 X0131.3 Y0033.8 E12049.2 F600.0
 G0 X0112.0 Y0063.0 F2400.0
G1 X0136.1 Y0037.6 E12059.7 F600.0
 G0 X0112.0 Y0063.0 F2400.0
G1 X0140.1 Y0042.2 E12070.2 F600.0
 G0 X0112.0 Y0063.0 F2400.0
G1 X0143.3 Y0047.4 E12080.7 F600.0
 G0 X0112.0 Y0063.0 F2400.0
G1 X0145.5 Y0053.1 E12091.2 F600.0
G0  F600.0 Z6.599998
 G0 X0112.0 Y0063.0 F2400.0
G1 X0146.7 Y0059.0 E12101.7 F600.0
 G0 X0112.0 Y0063.0 F2400.0
G1 X0146.9 Y0065.0 E12112.2 F600.0
 G0 X0112.0 Y0063.0 F2400.0
G1 X0146.0 Y0071.1 E12122.6 F600.0
 G0 X0112.0 Y0063.0 F2400.0
G1 X0144.1 Y0076.9 E12133.1 F600.0
 G0 X0112.0 Y0063.0 F2400.0
G1 X0141.2 Y0082.2 E12143.6 F600.0
 G0 X0112.0 Y0063.0 F2400.0
G1 X0137.4 Y0087.0 E12154.1 F600.0
 G0 X0112.0 Y0063.0 F2400.0
G1 X0132.8 Y0091.1 E12164.6 F600.0
 G0 X0112.0 Y0063.0 F2400.0
G1 X0127.6 Y0094.3 E12175.1 F600.0
 G0 X0112.0 Y0063.0 F2400.0
G1 X0122.0 Y0096.5 E12185.6 F600.0
 G0 X0112.0 Y0063.0 F2400.0
G1 X0116.0 Y0097.7 E12196.1 F600.0
 G0 X0112.0 Y0063.0 F2400.0
G1 X0109.9 Y0097.9 E12206.6 F600.0
 G0 X0112.0 Y0063.0 F2400.0
G1 X0103.8 Y0097.0 E12217.1 F600.0
 G0 X0112.0 Y0063.0 F2400.0
G1 X0098.1 Y0095.1 E12227.6 F600.0
 G0 X0112.0 Y0063.0 F2400.0
G1 X0092.7 Y0092.2 E12238.1 F600.0
 G0 X0112.0 Y0063.0 F2400.0
G1 X0087.9 Y0088.4 E12248.6 F600.0
 G0 X0112.0 Y0063.0 F2400.0
G1 X0083.9 Y0083.8 E12259.1 F600.0
 G0 X0112.0 Y0063.0 F2400.0
G1 X0080.7 Y0078.6 E12269.6 F600.0
 G0 X0112.0 Y0063.0 F2400.0
G1 X0078.4 Y0073.0 E12280.1 F600.0
 G0 X0112.0 Y0063.0 F2400.0
G1 X0077.2 Y0067.0 E12290.6 F600.0
 G0 X0112.0 Y0063.0 F2400.0
G1 X0077.0 Y0060.9 E12301.1 F600.0
 G0 X0112.0 Y0063.0 F2400.0
G1 X0077.9 Y0054.9 E12311.6 F600.0
 G0 X0112.0 Y0063.0 F2400.0
G1 X0079.8 Y0049.1 E12322.1 F600.0
 G0 X0112.0 Y0063.0 F2400.0
G1 X0082.7 Y0043.7 E12332.6 F600.0
 G0 X0112.0 Y0063.0 F2400.0
G1 X0086.5 Y0038.9 E12343.1 F600.0
 G0 X0112.0 Y0063.0 F2400.0
G1 X0091.1 Y0034.9 E12353.6 F600.0
 G0 X0112.0 Y0063.0 F2400.0
G1 X0096.3 Y0031.7 E12364.1 F600.0
 G0 X0112.0 Y0063.0 F2400.0
G1 X0102.0 Y0029.4 E12374.5 F600.0
 G0 X0112.0 Y0063.0 F2400.0
G1 X0107.9 Y0028.2 E12385.0 F600.0
 G0 X0112.0 Y0063.0 F2400.0
G1 X0114.0 Y0028.1 E12395.5 F600.0
 G0 X0112.0 Y0063.0 F2400.0
G1 X0120.1 Y0028.9 E12406.0 F600.0
 G0 X0112.0 Y0063.0 F2400.0
G1 X0125.8 Y0030.9 E12416.5 F600.0
 G0 X0112.0 Y0063.0 F2400.0
G1 X0131.2 Y0033.8 E12427.0 F600.0
 G0 X0112.0 Y0063.0 F2400.0
G1 X0136.0 Y0037.6 E12437.5 F600.0
 G0 X0112.0 Y0063.0 F2400.0
G1 X0140.0 Y0042.1 E12448.0 F600.0
 G0 X0112.0 Y0063.0 F2400.0
G1 X0143.2 Y0047.3 E12458.5 F600.0
 G0 X0112.0 Y0063.0 F2400.0
G1 X0145.5 Y0053.0 E12469.0 F600.0
G0  F600.0 Z6.799998
 G0 X0112.0 Y0063.0 F2400.0
G1 X0146.7 Y0058.8 E12479.5 F600.0
 G0 X0112.0 Y0063.0 F2400.0
G1 X0146.9 Y0064.9 E12490.0 F600.0
 G0 X0112.0 Y0063.0 F2400.0
G1 X0146.0 Y0071.0 E12500.5 F600.0
 G0 X0112.0 Y0063.0 F2400.0
G1 X0144.1 Y0076.8 E12511.0 F600.0
 G0 X0112.0 Y0063.0 F2400.0
G1 X0141.2 Y0082.1 E12521.5 F600.0
 G0 X0112.0 Y0063.0 F2400.0
G1 X0137.5 Y0086.9 E12532.0 F600.0
 G0 X0112.0 Y0063.0 F2400.0
G1 X0132.9 Y0091.0 E12542.5 F600.0
 G0 X0112.0 Y0063.0 F2400.0
G1 X0127.7 Y0094.2 E12553.0 F600.0
 G0 X0112.0 Y0063.0 F2400.0
G1 X0122.1 Y0096.5 E12563.5 F600.0
 G0 X0112.0 Y0063.0 F2400.0
G1 X0116.1 Y0097.7 E12574.0 F600.0
 G0 X0112.0 Y0063.0 F2400.0
G1 X0110.0 Y0097.9 E12584.5 F600.0
 G0 X0112.0 Y0063.0 F2400.0
G1 X0104.0 Y0097.0 E12595.0 F600.0
 G0 X0112.0 Y0063.0 F2400.0
G1 X0098.2 Y0095.1 E12605.5 F600.0
 G0 X0112.0 Y0063.0 F2400.0
G1 X0092.8 Y0092.2 E12616.0 F600.0
 G0 X0112.0 Y0063.0 F2400.0
G1 X0088.0 Y0088.5 E12626.4 F600.0
 G0 X0112.0 Y0063.0 F2400.0
G1 X0083.9 Y0083.9 E12636.9 F600.0
 G0 X0112.0 Y0063.0 F2400.0
G1 X0080.7 Y0078.7 E12647.4 F600.0
 G0 X0112.0 Y0063.0 F2400.0
G1 X0078.5 Y0073.1 E12657.9 F600.0
 G0 X0112.0 Y0063.0 F2400.0
G1 X0077.2 Y0067.1 E12668.4 F600.0
 G0 X0112.0 Y0063.0 F2400.0
G1 X0077.0 Y0061.0 E12678.9 F600.0
 G0 X0112.0 Y0063.0 F2400.0
G1 X0077.9 Y0055.0 E12689.4 F600.0
 G0 X0112.0 Y0063.0 F2400.0
G1 X0079.8 Y0049.2 E12699.9 F600.0
 G0 X0112.0 Y0063.0 F2400.0
G1 X0082.7 Y0043.8 E12710.4 F600.0
 G0 X0112.0 Y0063.0 F2400.0
G1 X0086.5 Y0039.0 E12720.9 F600.0
 G0 X0112.0 Y0063.0 F2400.0
G1 X0091.0 Y0035.0 E12731.4 F600.0
 G0 X0112.0 Y0063.0 F2400.0
G1 X0096.2 Y0031.7 E12741.9 F600.0
 G0 X0112.0 Y0063.0 F2400.0
G1 X0101.8 Y0029.5 E12752.4 F600.0
 G0 X0112.0 Y0063.0 F2400.0
G1 X0107.8 Y0028.2 E12762.9 F600.0
 G0 X0112.0 Y0063.0 F2400.0
G1 X0113.9 Y0028.0 E12773.4 F600.0
 G0 X0112.0 Y0063.0 F2400.0
G1 X0119.9 Y0028.9 E12783.9 F600.0
 G0 X0112.0 Y0063.0 F2400.0
G1 X0125.7 Y0030.8 E12794.4 F600.0
 G0 X0112.0 Y0063.0 F2400.0
G1 X0131.1 Y0033.7 E12804.9 F600.0
 G0 X0112.0 Y0063.0 F2400.0
G1 X0135.9 Y0037.5 E12815.4 F600.0
 G0 X0112.0 Y0063.0 F2400.0
G1 X0140.0 Y0042.0 E12825.9 F600.0
 G0 X0112.0 Y0063.0 F2400.0
G1 X0143.2 Y0047.2 E12836.4 F600.0
 G0 X0112.0 Y0063.0 F2400.0
G1 X0145.4 Y0052.9 E12846.9 F600.0
G0  F600.0 Z6.9999976
 G0 X0112.0 Y0063.0 F2400.0
G1 X0146.7 Y0058.7 E12857.4 F600.0
 G0 X0112.0 Y0063.0 F2400.0
G1 X0146.9 Y0064.8 E12867.8 F600.0
 G0 X0112.0 Y0063.0 F2400.0
G1 X0146.0 Y0070.8 E12878.3 F600.0
 G0 X0112.0 Y0063.0 F2400.0
G1 X0144.2 Y0076.6 E12888.8 F600.0
 G0 X0112.0 Y0063.0 F2400.0
G1 X0141.3 Y0082.0 E12899.3 F600.0
 G0 X0112.0 Y0063.0 F2400.0
G1 X0137.5 Y0086.8 E12909.8 F600.0
 G0 X0112.0 Y0063.0 F2400.0
G1 X0133.0 Y0090.9 E12920.3 F600.0
 G0 X0112.0 Y0063.0 F2400.0
G1 X0127.8 Y0094.1 E12930.8 F600.0
 G0 X0112.0 Y0063.0 F2400.0
G1 X0122.2 Y0096.4 E12941.3 F600.0
 G0 X0112.0 Y0063.0 F2400.0
G1 X0116.2 Y0097.7 E12951.8 F600.0
 G0 X0112.0 Y0063.0 F2400.0
G1 X0110.1 Y0097.9 E12962.3 F600.0
 G0 X0112.0 Y0063.0 F2400.0
G1 X0104.1 Y0097.1 E12972.8 F600.0
 G0 X0112.0 Y0063.0 F2400.0
G1 X0098.3 Y0095.2 E12983.3 F600.0
 G0 X0112.0 Y0063.0 F2400.0
G1 X0092.9 Y0092.3 E12993.8 F600.0
 G0 X0112.0 Y0063.0 F2400.0
G1 X0088.1 Y0088.6 E13004.3 F600.0
 G0 X0112.0 Y0063.0 F2400.0
G1 X0084.0 Y0084.0 E13014.8 F600.0
 G0 X0112.0 Y0063.0 F2400.0
G1 X0080.8 Y0078.9 E13025.3 F600.0
 G0 X0112.0 Y0063.0 F2400.0
G1 X0078.5 Y0073.2 E13035.8 F600.0
 G0 X0112.0 Y0063.0 F2400.0
G1 X0077.2 Y0067.2 E13046.3 F600.0
 G0 X0112.0 Y0063.0 F2400.0
G1 X0077.0 Y0061.1 E13056.8 F600.0
 G0 X0112.0 Y0063.0 F2400.0
G1 X0077.9 Y0055.1 E13067.3 F600.0
 G0 X0112.0 Y0063.0 F2400.0
G1 X0079.8 Y0049.3 E13077.8 F600.0
 G0 X0112.0 Y0063.0 F2400.0
G1 X0082.6 Y0043.9 E13088.3 F600.0
 G0 X0112.0 Y0063.0 F2400.0
G1 X0086.4 Y0039.1 E13098.8 F600.0
 G0 X0112.0 Y0063.0 F2400.0
G1 X0090.9 Y0035.0 E13109.3 F600.0
 G0 X0112.0 Y0063.0 F2400.0
G1 X0096.1 Y0031.8 E13119.7 F600.0
 G0 X0112.0 Y0063.0 F2400.0
G1 X0101.7 Y0029.5 E13130.2 F600.0
 G0 X0112.0 Y0063.0 F2400.0
G1 X0107.7 Y0028.2 E13140.7 F600.0
 G0 X0112.0 Y0063.0 F2400.0
G1 X0113.8 Y0028.0 E13151.2 F600.0
 G0 X0112.0 Y0063.0 F2400.0
G1 X0119.8 Y0028.9 E13161.7 F600.0
 G0 X0112.0 Y0063.0 F2400.0
G1 X0125.6 Y0030.8 E13172.2 F600.0
 G0 X0112.0 Y0063.0 F2400.0
G1 X0131.0 Y0033.6 E13182.7 F600.0
 G0 X0112.0 Y0063.0 F2400.0
G1 X0135.8 Y0037.4 E13193.2 F600.0
 G0 X0112.0 Y0063.0 F2400.0
G1 X0139.9 Y0041.9 E13203.7 F600.0
 G0 X0112.0 Y0063.0 F2400.0
G1 X0143.1 Y0047.1 E13214.2 F600.0
 G0 X0112.0 Y0063.0 F2400.0
G1 X0145.4 Y0052.7 E13224.7 F600.0
G0  F600.0 Z7.1999974
 G0 X0112.0 Y0063.0 F2400.0
G1 X0146.7 Y0058.6 E13235.2 F600.0
 G0 X0112.0 Y0063.0 F2400.0
G1 X0146.9 Y0064.7 E13245.7 F600.0
 G0 X0112.0 Y0063.0 F2400.0
G1 X0146.1 Y0070.7 E13256.2 F600.0
 G0 X0112.0 Y0063.0 F2400.0
G1 X0144.2 Y0076.5 E13266.7 F600.0
 G0 X0112.0 Y0063.0 F2400.0
G1 X0141.4 Y0081.9 E13277.2 F600.0
 G0 X0112.0 Y0063.0 F2400.0
G1 X0137.6 Y0086.7 E13287.7 F600.0
 G0 X0112.0 Y0063.0 F2400.0
G1 X0133.1 Y0090.8 E13298.2 F600.0
 G0 X0112.0 Y0063.0 F2400.0
G1 X0127.9 Y0094.1 E13308.7 F600.0
 G0 X0112.0 Y0063.0 F2400.0
G1 X0122.3 Y0096.4 E13319.2 F600.0
 G0 X0112.0 Y0063.0 F2400.0
G1 X0116.3 Y0097.7 E13329.7 F600.0
 G0 X0112.0 Y0063.0 F2400.0
G1 X0110.2 Y0097.9 E13340.2 F600.0
 G0 X0112.0 Y0063.0 F2400.0
G1 X0104.2 Y0097.1 E13350.7 F600.0
 G0 X0112.0 Y0063.0 F2400.0
G1 X0098.4 Y0095.2 E13361.2 F600.0
 G0 X0112.0 Y0063.0 F2400.0
G1 X0093.0 Y0092.4 E13371.6 F600.0
 G0 X0112.0 Y0063.0 F2400.0
G1 X0088.2 Y0088.6 E13382.1 F600.0
 G0 X0112.0 Y0063.0 F2400.0
G1 X0084.1 Y0084.1 E13392.6 F600.0
 G0 X0112.0 Y0063.0 F2400.0
G1 X0080.8 Y0079.0 E13403.1 F600.0
 G0 X0112.0 Y0063.0 F2400.0
G1 X0078.5 Y0073.3 E13413.6 F600.0
 G0 X0112.0 Y0063.0 F2400.0
G1 X0077.2 Y0067.4 E13424.1 F600.0
 G0 X0112.0 Y0063.0 F2400.0
G1 X0077.0 Y0061.3 E13434.6 F600.0
 G0 X0112.0 Y0063.0 F2400.0
G1 X0077.8 Y0055.2 E13445.1 F600.0
 G0 X0112.0 Y0063.0 F2400.0
G1 X0079.7 Y0049.4 E13455.6 F600.0
 G0 X0112.0 Y0063.0 F2400.0
G1 X0082.5 Y0044.0 E13466.1 F600.0
 G0 X0112.0 Y0063.0 F2400.0
G1 X0086.3 Y0039.2 E13476.6 F600.0
 G0 X0112.0 Y0063.0 F2400.0
G1 X0090.8 Y0035.1 E13487.1 F600.0
 G0 X0112.0 Y0063.0 F2400.0
G1 X0096.0 Y0031.9 E13497.6 F600.0
 G0 X0112.0 Y0063.0 F2400.0
G1 X0101.6 Y0029.6 E13508.1 F600.0
 G0 X0112.0 Y0063.0 F2400.0
G1 X0107.6 Y0028.3 E13518.6 F600.0
 G0 X0112.0 Y0063.0 F2400.0
G1 X0113.7 Y0028.0 E13529.1 F600.0
 G0 X0112.0 Y0063.0 F2400.0
G1 X0119.7 Y0028.9 E13539.6 F600.0
 G0 X0112.0 Y0063.0 F2400.0
G1 X0125.5 Y0030.7 E13550.1 F600.0
 G0 X0112.0 Y0063.0 F2400.0
G1 X0130.9 Y0033.6 E13560.6 F600.0
 G0 X0112.0 Y0063.0 F2400.0
G1 X0135.7 Y0037.3 E13571.1 F600.0
 G0 X0112.0 Y0063.0 F2400.0
G1 X0139.8 Y0041.8 E13581.6 F600.0
 G0 X0112.0 Y0063.0 F2400.0
G1 X0143.1 Y0047.0 E13592.1 F600.0
 G0 X0112.0 Y0063.0 F2400.0
G1 X0145.4 Y0052.6 E13602.6 F600.0
G0  F600.0 Z7.399997
 G0 X0112.0 Y0063.0 F2400.0
G1 X0146.6 Y0058.5 E13613.1 F600.0
 G0 X0112.0 Y0063.0 F2400.0
G1 X0146.9 Y0064.6 E13623.5 F600.0
 G0 X0112.0 Y0063.0 F2400.0
G1 X0146.1 Y0070.6 E13634.0 F600.0
 G0 X0112.0 Y0063.0 F2400.0
G1 X0144.3 Y0076.4 E13644.5 F600.0
 G0 X0112.0 Y0063.0 F2400.0
G1 X0141.4 Y0081.8 E13655.0 F600.0
 G0 X0112.0 Y0063.0 F2400.0
G1 X0137.7 Y0086.7 E13665.5 F600.0
 G0 X0112.0 Y0063.0 F2400.0
G1 X0133.2 Y0090.8 E13676.0 F600.0
 G0 X0112.0 Y0063.0 F2400.0
G1 X0128.1 Y0094.0 E13686.5 F600.0
 G0 X0112.0 Y0063.0 F2400.0
G1 X0122.4 Y0096.4 E13697.0 F600.0
 G0 X0112.0 Y0063.0 F2400.0
G1 X0116.5 Y0097.7 E13707.5 F600.0
 G0 X0112.0 Y0063.0 F2400.0
G1 X0110.4 Y0097.9 E13718.0 F600.0
 G0 X0112.0 Y0063.0 F2400.0
G1 X0104.3 Y0097.1 E13728.5 F600.0
 G0 X0112.0 Y0063.0 F2400.0
G1 X0098.5 Y0095.3 E13739.0 F600.0
 G0 X0112.0 Y0063.0 F2400.0
G1 X0093.1 Y0092.4 E13749.5 F600.0
 G0 X0112.0 Y0063.0 F2400.0
G1 X0088.3 Y0088.7 E13760.0 F600.0
 G0 X0112.0 Y0063.0 F2400.0
G1 X0084.2 Y0084.2 E13770.5 F600.0
 G0 X0112.0 Y0063.0 F2400.0
G1 X0080.9 Y0079.1 E13781.0 F600.0
 G0 X0112.0 Y0063.0 F2400.0
G1 X0078.6 Y0073.4 E13791.5 F600.0
 G0 X0112.0 Y0063.0 F2400.0
G1 X0077.3 Y0067.5 E13802.0 F600.0
 G0 X0112.0 Y0063.0 F2400.0
G1 X0077.0 Y0061.4 E13812.5 F600.0
 G0 X0112.0 Y0063.0 F2400.0
G1 X0077.8 Y0055.3 E13823.0 F600.0
 G0 X0112.0 Y0063.0 F2400.0
G1 X0079.7 Y0049.5 E13833.5 F600.0
 G0 X0112.0 Y0063.0 F2400.0
G1 X0082.5 Y0044.1 E13844.0 F600.0
 G0 X0112.0 Y0063.0 F2400.0
G1 X0086.2 Y0039.3 E13854.5 F600.0
 G0 X0112.0 Y0063.0 F2400.0
G1 X0090.7 Y0035.2 E13865.0 F600.0
 G0 X0112.0 Y0063.0 F2400.0
G1 X0095.9 Y0031.9 E13875.4 F600.0
 G0 X0112.0 Y0063.0 F2400.0
G1 X0101.5 Y0029.6 E13885.9 F600.0
 G0 X0112.0 Y0063.0 F2400.0
G1 X0107.4 Y0028.3 E13896.4 F600.0
 G0 X0112.0 Y0063.0 F2400.0
G1 X0113.5 Y0028.0 E13906.9 F600.0
 G0 X0112.0 Y0063.0 F2400.0
G1 X0119.6 Y0028.8 E13917.4 F600.0
 G0 X0112.0 Y0063.0 F2400.0
G1 X0125.4 Y0030.7 E13927.9 F600.0
 G0 X0112.0 Y0063.0 F2400.0
G1 X0130.8 Y0033.5 E13938.4 F600.0
 G0 X0112.0 Y0063.0 F2400.0
G1 X0135.6 Y0037.2 E13948.9 F600.0
 G0 X0112.0 Y0063.0 F2400.0
G1 X0139.7 Y0041.7 E13959.4 F600.0
 G0 X0112.0 Y0063.0 F2400.0
G1 X0143.0 Y0046.9 E13969.9 F600.0
 G0 X0112.0 Y0063.0 F2400.0
G1 X0145.3 Y0052.5 E13980.4 F600.0
G0  F600.0 Z7.599997
 G0 X0112.0 Y0063.0 F2400.0
G1 X0146.6 Y0058.3 E13990.9 F600.0
 G0 X0112.0 Y0063.0 F2400.0
G1 X0146.9 Y0064.4 E14001.4 F600.0
 G0 X0112.0 Y0063.0 F2400.0
G1 X0146.1 Y0070.5 E14011.9 F600.0
 G0 X0112.0 Y0063.0 F2400.0
G1 X0144.3 Y0076.3 E14022.4 F600.0
 G0 X0112.0 Y0063.0 F2400.0
G1 X0141.5 Y0081.7 E14032.9 F600.0
 G0 X0112.0 Y0063.0 F2400.0
G1 X0137.8 Y0086.6 E14043.4 F600.0
 G0 X0112.0 Y0063.0 F2400.0
G1 X0133.3 Y0090.7 E14053.9 F600.0
 G0 X0112.0 Y0063.0 F2400.0
G1 X0128.2 Y0094.0 E14064.4 F600.0
 G0 X0112.0 Y0063.0 F2400.0
G1 X0122.5 Y0096.3 E14074.9 F600.0
 G0 X0112.0 Y0063.0 F2400.0
G1 X0116.6 Y0097.7 E14085.4 F600.0
 G0 X0112.0 Y0063.0 F2400.0
G1 X0110.5 Y0097.9 E14095.9 F600.0
 G0 X0112.0 Y0063.0 F2400.0
G1 X0104.4 Y0097.1 E14106.4 F600.0
 G0 X0112.0 Y0063.0 F2400.0
G1 X0098.6 Y0095.3 E14116.8 F600.0
 G0 X0112.0 Y0063.0 F2400.0
G1 X0093.2 Y0092.5 E14127.3 F600.0
 G0 X0112.0 Y0063.0 F2400.0
G1 X0088.4 Y0088.8 E14137.8 F600.0
 G0 X0112.0 Y0063.0 F2400.0
G1 X0084.2 Y0084.3 E14148.3 F600.0
 G0 X0112.0 Y0063.0 F2400.0
G1 X0081.0 Y0079.2 E14158.8 F600.0
 G0 X0112.0 Y0063.0 F2400.0
G1 X0078.6 Y0073.6 E14169.3 F600.0
 G0 X0112.0 Y0063.0 F2400.0
G1 X0077.3 Y0067.6 E14179.8 F600.0
 G0 X0112.0 Y0063.0 F2400.0
G1 X0077.0 Y0061.5 E14190.3 F600.0
 G0 X0112.0 Y0063.0 F2400.0
G1 X0077.8 Y0055.5 E14200.8 F600.0
 G0 X0112.0 Y0063.0 F2400.0
G1 X0079.6 Y0049.6 E14211.3 F600.0
 G0 X0112.0 Y0063.0 F2400.0
G1 X0082.4 Y0044.2 E14221.8 F600.0
 G0 X0112.0 Y0063.0 F2400.0
G1 X0086.1 Y0039.4 E14232.3 F600.0
 G0 X0112.0 Y0063.0 F2400.0
G1 X0090.6 Y0035.3 E14242.8 F600.0
 G0 X0112.0 Y0063.0 F2400.0
G1 X0095.7 Y0032.0 E14253.3 F600.0
 G0 X0112.0 Y0063.0 F2400.0
G1 X0101.4 Y0029.6 E14263.8 F600.0
 G0 X0112.0 Y0063.0 F2400.0
G1 X0107.3 Y0028.3 E14274.3 F600.0
 G0 X0112.0 Y0063.0 F2400.0
G1 X0113.4 Y0028.0 E14284.8 F600.0
 G0 X0112.0 Y0063.0 F2400.0
G1 X0119.5 Y0028.8 E14295.3 F600.0
 G0 X0112.0 Y0063.0 F2400.0
G1 X0125.3 Y0030.6 E14305.8 F600.0
 G0 X0112.0 Y0063.0 F2400.0
G1 X0130.7 Y0033.4 E14316.3 F600.0
 G0 X0112.0 Y0063.0 F2400.0
G1 X0135.5 Y0037.1 E14326.8 F600.0
 G0 X0112.0 Y0063.0 F2400.0
G1 X0139.7 Y0041.6 E14337.3 F600.0
 G0 X0112.0 Y0063.0 F2400.0
G1 X0143.0 Y0046.8 E14347.8 F600.0
 G0 X0112.0 Y0063.0 F2400.0
G1 X0145.3 Y0052.4 E14358.3 F600.0
G0  F600.0 Z7.799997
 G0 X0112.0 Y0063.0 F2400.0
G1 X0146.6 Y0058.2 E14368.7 F600.0
 G0 X0112.0 Y0063.0 F2400.0
G1 X0146.9 Y0064.3 E14379.2 F600.0
 G0 X0112.0 Y0063.0 F2400.0
G1 X0146.2 Y0070.4 E14389.7 F600.0
 G0 X0112.0 Y0063.0 F2400.0
G1 X0144.3 Y0076.2 E14400.2 F600.0
 G0 X0112.0 Y0063.0 F2400.0
G1 X0141.6 Y0081.6 E14410.7 F600.0
 G0 X0112.0 Y0063.0 F2400.0
G1 X0137.9 Y0086.5 E14421.2 F600.0
 G0 X0112.0 Y0063.0 F2400.0
G1 X0133.4 Y0090.6 E14431.7 F600.0
 G0 X0112.0 Y0063.0 F2400.0
G1 X0128.3 Y0093.9 E14442.2 F600.0
 G0 X0112.0 Y0063.0 F2400.0
G1 X0122.7 Y0096.3 E14452.7 F600.0
 G0 X0112.0 Y0063.0 F2400.0
G1 X0116.7 Y0097.6 E14463.2 F600.0
 G0 X0112.0 Y0063.0 F2400.0
G1 X0110.6 Y0097.9 E14473.7 F600.0
 G0 X0112.0 Y0063.0 F2400.0
G1 X0104.6 Y0097.2 E14484.2 F600.0
 G0 X0112.0 Y0063.0 F2400.0
G1 X0098.7 Y0095.4 E14494.7 F600.0
 G0 X0112.0 Y0063.0 F2400.0
G1 X0093.3 Y0092.6 E14505.2 F600.0
 G0 X0112.0 Y0063.0 F2400.0
G1 X0088.5 Y0088.9 E14515.7 F600.0
 G0 X0112.0 Y0063.0 F2400.0
G1 X0084.3 Y0084.4 E14526.2 F600.0
 G0 X0112.0 Y0063.0 F2400.0
G1 X0081.0 Y0079.3 E14536.7 F600.0
 G0 X0112.0 Y0063.0 F2400.0
G1 X0078.6 Y0073.7 E14547.2 F600.0
 G0 X0112.0 Y0063.0 F2400.0
G1 X0077.3 Y0067.7 E14557.7 F600.0
 G0 X0112.0 Y0063.0 F2400.0
G1 X0077.0 Y0061.6 E14568.2 F600.0
 G0 X0112.0 Y0063.0 F2400.0
G1 X0077.8 Y0055.6 E14578.7 F600.0
 G0 X0112.0 Y0063.0 F2400.0
G1 X0079.6 Y0049.8 E14589.2 F600.0
 G0 X0112.0 Y0063.0 F2400.0
G1 X0082.4 Y0044.3 E14599.7 F600.0
 G0 X0112.0 Y0063.0 F2400.0
G1 X0086.0 Y0039.5 E14610.2 F600.0
 G0 X0112.0 Y0063.0 F2400.0
G1 X0090.5 Y0035.3 E14620.6 F600.0
 G0 X0112.0 Y0063.0 F2400.0
G1 X0095.6 Y0032.0 E14631.1 F600.0
 G0 X0112.0 Y0063.0 F2400.0
G1 X0101.3 Y0029.7 E14641.6 F600.0
 G0 X0112.0 Y0063.0 F2400.0
G1 X0107.2 Y0028.3 E14652.1 F600.0
 G0 X0112.0 Y0063.0 F2400.0
G1 X0113.3 Y0028.0 E14662.6 F600.0
 G0 X0112.0 Y0063.0 F2400.0
G1 X0119.3 Y0028.8 E14673.1 F600.0
 G0 X0112.0 Y0063.0 F2400.0
G1 X0125.2 Y0030.6 E14683.6 F600.0
 G0 X0112.0 Y0063.0 F2400.0
G1 X0130.6 Y0033.4 E14694.1 F600.0
 G0 X0112.0 Y0063.0 F2400.0
G1 X0135.5 Y0037.1 E14704.6 F600.0
 G0 X0112.0 Y0063.0 F2400.0
G1 X0139.6 Y0041.5 E14715.1 F600.0
 G0 X0112.0 Y0063.0 F2400.0
G1 X0142.9 Y0046.7 E14725.6 F600.0
 G0 X0112.0 Y0063.0 F2400.0
G1 X0145.3 Y0052.3 E14736.1 F600.0
G0  F600.0 Z7.9999967
 G0 X0112.0 Y0063.0 F2400.0
G1 X0146.6 Y0058.1 E14746.6 F600.0
 G0 X0112.0 Y0063.0 F2400.0
G1 X0146.9 Y0064.2 E14757.1 F600.0
 G0 X0112.0 Y0063.0 F2400.0
G1 X0146.2 Y0070.2 E14767.6 F600.0
 G0 X0112.0 Y0063.0 F2400.0
G1 X0144.4 Y0076.1 E14778.1 F600.0
 G0 X0112.0 Y0063.0 F2400.0
G1 X0141.6 Y0081.5 E14788.6 F600.0
 G0 X0112.0 Y0063.0 F2400.0
G1 X0138.0 Y0086.4 E14799.1 F600.0
 G0 X0112.0 Y0063.0 F2400.0
G1 X0133.5 Y0090.5 E14809.6 F600.0
 G0 X0112.0 Y0063.0 F2400.0
G1 X0128.4 Y0093.9 E14820.1 F600.0
 G0 X0112.0 Y0063.0 F2400.0
G1 X0122.8 Y0096.2 E14830.6 F600.0
 G0 X0112.0 Y0063.0 F2400.0
G1 X0116.8 Y0097.6 E14841.1 F600.0
 G0 X0112.0 Y0063.0 F2400.0
G1 X0110.7 Y0097.9 E14851.6 F600.0
 G0 X0112.0 Y0063.0 F2400.0
G1 X0104.7 Y0097.2 E14862.1 F600.0
 G0 X0112.0 Y0063.0 F2400.0
G1 X0098.8 Y0095.4 E14872.5 F600.0
 G0 X0112.0 Y0063.0 F2400.0
G1 X0093.4 Y0092.6 E14883.0 F600.0
 G0 X0112.0 Y0063.0 F2400.0
G1 X0088.5 Y0089.0 E14893.5 F600.0
 G0 X0112.0 Y0063.0 F2400.0
G1 X0084.4 Y0084.5 E14904.0 F600.0
 G0 X0112.0 Y0063.0 F2400.0
G1 X0081.1 Y0079.4 E14914.5 F600.0
 G0 X0112.0 Y0063.0 F2400.0
G1 X0078.7 Y0073.8 E14925.0 F600.0
 G0 X0112.0 Y0063.0 F2400.0
G1 X0077.3 Y0067.8 E14935.5 F600.0
 G0 X0112.0 Y0063.0 F2400.0
G1 X0077.0 Y0061.8 E14946.0 F600.0
 G0 X0112.0 Y0063.0 F2400.0
G1 X0077.7 Y0055.7 E14956.5 F600.0
 G0 X0112.0 Y0063.0 F2400.0
G1 X0079.5 Y0049.9 E14967.0 F600.0
 G0 X0112.0 Y0063.0 F2400.0
G1 X0082.3 Y0044.4 E14977.5 F600.0
 G0 X0112.0 Y0063.0 F2400.0
G1 X0086.0 Y0039.6 E14988.0 F600.0
 G0 X0112.0 Y0063.0 F2400.0
G1 X0090.4 Y0035.4 E14998.5 F600.0
 G0 X0112.0 Y0063.0 F2400.0
G1 X0095.5 Y0032.1 E15009.0 F600.0
 G0 X0112.0 Y0063.0 F2400.0
G1 X0101.1 Y0029.7 E15019.5 F600.0
 G0 X0112.0 Y0063.0 F2400.0
G1 X0107.1 Y0028.3 E15030.0 F600.0
 G0 X0112.0 Y0063.0 F2400.0
G1 X0113.2 Y0028.0 E15040.5 F600.0
 G0 X0112.0 Y0063.0 F2400.0
G1 X0119.2 Y0028.8 E15051.0 F600.0
 G0 X0112.0 Y0063.0 F2400.0
G1 X0125.1 Y0030.5 E15061.5 F600.0
 G0 X0112.0 Y0063.0 F2400.0
G1 X0130.5 Y0033.3 E15072.0 F600.0
 G0 X0112.0 Y0063.0 F2400.0
G1 X0135.4 Y0037.0 E15082.5 F600.0
 G0 X0112.0 Y0063.0 F2400.0
G1 X0139.5 Y0041.4 E15093.0 F600.0
 G0 X0112.0 Y0063.0 F2400.0
G1 X0142.8 Y0046.5 E15103.5 F600.0
 G0 X0112.0 Y0063.0 F2400.0
G1 X0145.2 Y0052.2 E15114.0 F600.0
G0  F600.0 Z8.199997
 G0 X0112.0 Y0063.0 F2400.0
G1 X0146.6 Y0058.0 E15124.4 F600.0
 G0 X0112.0 Y0063.0 F2400.0
G1 X0146.9 Y0064.1 E15134.9 F600.0
 G0 X0112.0 Y0063.0 F2400.0
G1 X0146.2 Y0070.1 E15145.4 F600.0
 G0 X0112.0 Y0063.0 F2400.0
G1 X0144.4 Y0076.0 E15155.9 F600.0
 G0 X0112.0 Y0063.0 F2400.0
G1 X0141.7 Y0081.4 E15166.4 F600.0
 G0 X0112.0 Y0063.0 F2400.0
G1 X0138.0 Y0086.3 E15176.9 F600.0
 G0 X0112.0 Y0063.0 F2400.0
G1 X0133.6 Y0090.5 E15187.4 F600.0
 G0 X0112.0 Y0063.0 F2400.0
G1 X0128.5 Y0093.8 E15197.9 F600.0
 G0 X0112.0 Y0063.0 F2400.0
G1 X0122.9 Y0096.2 E15208.4 F600.0
 G0 X0112.0 Y0063.0 F2400.0
G1 X0116.9 Y0097.6 E15218.9 F600.0
 G0 X0112.0 Y0063.0 F2400.0
G1 X0110.9 Y0097.9 E15229.4 F600.0
 G0 X0112.0 Y0063.0 F2400.0
G1 X0104.8 Y0097.2 E15239.9 F600.0
 G0 X0112.0 Y0063.0 F2400.0
G1 X0099.0 Y0095.5 E15250.4 F600.0
 G0 X0112.0 Y0063.0 F2400.0
G1 X0093.5 Y0092.7 E15260.9 F600.0
 G0 X0112.0 Y0063.0 F2400.0
G1 X0088.6 Y0089.1 E15271.4 F600.0
 G0 X0112.0 Y0063.0 F2400.0
G1 X0084.5 Y0084.6 E15281.9 F600.0
 G0 X0112.0 Y0063.0 F2400.0
G1 X0081.1 Y0079.5 E15292.4 F600.0
 G0 X0112.0 Y0063.0 F2400.0
G1 X0078.7 Y0073.9 E15302.9 F600.0
 G0 X0112.0 Y0063.0 F2400.0
G1 X0077.3 Y0068.0 E15313.4 F600.0
 G0 X0112.0 Y0063.0 F2400.0
G1 X0077.0 Y0061.9 E15323.9 F600.0
 G0 X0112.0 Y0063.0 F2400.0
G1 X0077.7 Y0055.8 E15334.4 F600.0
 G0 X0112.0 Y0063.0 F2400.0
G1 X0079.5 Y0050.0 E15344.9 F600.0
 G0 X0112.0 Y0063.0 F2400.0
G1 X0082.2 Y0044.5 E15355.4 F600.0
 G0 X0112.0 Y0063.0 F2400.0
G1 X0085.9 Y0039.7 E15365.8 F600.0
 G0 X0112.0 Y0063.0 F2400.0
G1 X0090.3 Y0035.5 E15376.3 F600.0
 G0 X0112.0 Y0063.0 F2400.0
G1 X0095.4 Y0032.1 E15386.8 F600.0
 G0 X0112.0 Y0063.0 F2400.0
G1 X0101.0 Y0029.7 E15397.3 F600.0
 G0 X0112.0 Y0063.0 F2400.0
G1 X0107.0 Y0028.3 E15407.8 F600.0
 G0 X0112.0 Y0063.0 F2400.0
G1 X0113.1 Y0028.0 E15418.3 F600.0
 G0 X0112.0 Y0063.0 F2400.0
G1 X0119.1 Y0028.7 E15428.8 F600.0
 G0 X0112.0 Y0063.0 F2400.0
G1 X0124.9 Y0030.5 E15439.3 F600.0
 G0 X0112.0 Y0063.0 F2400.0
G1 X0130.4 Y0033.2 E15449.8 F600.0
 G0 X0112.0 Y0063.0 F2400.0
G1 X0135.3 Y0036.9 E15460.3 F600.0
 G0 X0112.0 Y0063.0 F2400.0
G1 X0139.4 Y0041.3 E15470.8 F600.0
 G0 X0112.0 Y0063.0 F2400.0
G1 X0142.8 Y0046.4 E15481.3 F600.0
 G0 X0112.0 Y0063.0 F2400.0
G1 X0145.2 Y0052.0 E15491.8 F600.0
G0  F600.0 Z8.399997
 G0 X0112.0 Y0063.0 F2400.0
G1 X0146.6 Y0057.9 E15502.3 F600.0
 G0 X0112.0 Y0063.0 F2400.0
G1 X0146.9 Y0064.0 E15512.8 F600.0
 G0 X0112.0 Y0063.0 F2400.0
G1 X0146.2 Y0070.0 E15523.3 F600.0
 G0 X0112.0 Y0063.0 F2400.0
G1 X0144.5 Y0075.9 E15533.8 F600.0
 G0 X0112.0 Y0063.0 F2400.0
G1 X0141.8 Y0081.3 E15544.3 F600.0
 G0 X0112.0 Y0063.0 F2400.0
G1 X0138.1 Y0086.2 E15554.8 F600.0
 G0 X0112.0 Y0063.0 F2400.0
G1 X0133.7 Y0090.4 E15565.3 F600.0
 G0 X0112.0 Y0063.0 F2400.0
G1 X0128.6 Y0093.8 E15575.8 F600.0
 G0 X0112.0 Y0063.0 F2400.0
G1 X0123.0 Y0096.2 E15586.3 F600.0
 G0 X0112.0 Y0063.0 F2400.0
G1 X0117.1 Y0097.6 E15596.8 F600.0
 G0 X0112.0 Y0063.0 F2400.0
G1 X0111.0 Y0097.9 E15607.3 F600.0
 G0 X0112.0 Y0063.0 F2400.0
G1 X0104.9 Y0097.2 E15617.7 F600.0
 G0 X0112.0 Y0063.0 F2400.0
G1 X0099.1 Y0095.5 E15628.2 F600.0
 G0 X0112.0 Y0063.0 F2400.0
G1 X0093.6 Y0092.8 E15638.7 F600.0
 G0 X0112.0 Y0063.0 F2400.0
G1 X0088.7 Y0089.1 E15649.2 F600.0
 G0 X0112.0 Y0063.0 F2400.0
G1 X0084.5 Y0084.7 E15659.7 F600.0
 G0 X0112.0 Y0063.0 F2400.0
G1 X0081.2 Y0079.6 E15670.2 F600.0
 G0 X0112.0 Y0063.0 F2400.0
G1 X0078.8 Y0074.0 E15680.7 F600.0
 G0 X0112.0 Y0063.0 F2400.0
G1 X0077.3 Y0068.1 E15691.2 F600.0
 G0 X0112.0 Y0063.0 F2400.0
G1 X0077.0 Y0062.0 E15701.7 F600.0
 G0 X0112.0 Y0063.0 F2400.0
G1 X0077.7 Y0055.9 E15712.2 F600.0
 G0 X0112.0 Y0063.0 F2400.0
G1 X0079.4 Y0050.1 E15722.7 F600.0
 G0 X0112.0 Y0063.0 F2400.0
G1 X0082.2 Y0044.6 E15733.2 F600.0
 G0 X0112.0 Y0063.0 F2400.0
G1 X0085.8 Y0039.7 E15743.7 F600.0
 G0 X0112.0 Y0063.0 F2400.0
G1 X0090.2 Y0035.6 E15754.2 F600.0
 G0 X0112.0 Y0063.0 F2400.0
G1 X0095.3 Y0032.2 E15764.7 F600.0
 G0 X0112.0 Y0063.0 F2400.0
G1 X0100.9 Y0029.8 E15775.2 F600.0
 G0 X0112.0 Y0063.0 F2400.0
G1 X0106.8 Y0028.4 E15785.7 F600.0
 G0 X0112.0 Y0063.0 F2400.0
G1 X0112.9 Y0028.0 E15796.2 F600.0
 G0 X0112.0 Y0063.0 F2400.0
G1 X0119.0 Y0028.7 E15806.7 F600.0
 G0 X0112.0 Y0063.0 F2400.0
G1 X0124.8 Y0030.4 E15817.2 F600.0
 G0 X0112.0 Y0063.0 F2400.0
G1 X0130.3 Y0033.2 E15827.7 F600.0
 G0 X0112.0 Y0063.0 F2400.0
G1 X0135.2 Y0036.8 E15838.2 F600.0
 G0 X0112.0 Y0063.0 F2400.0
G1 X0139.4 Y0041.2 E15848.7 F600.0
 G0 X0112.0 Y0063.0 F2400.0
G1 X0142.7 Y0046.3 E15859.2 F600.0
 G0 X0112.0 Y0063.0 F2400.0
G1 X0145.2 Y0051.9 E15869.6 F600.0
G0  F600.0 Z8.599997
 G0 X0112.0 Y0063.0 F2400.0
G1 X0146.5 Y0057.7 E15880.1 F600.0
 G0 X0112.0 Y0063.0 F2400.0
G1 X0146.9 Y0063.8 E15890.6 F600.0
 G0 X0112.0 Y0063.0 F2400.0
G1 X0146.3 Y0069.9 E15901.1 F600.0
 G0 X0112.0 Y0063.0 F2400.0
G1 X0144.5 Y0075.7 E15911.6 F600.0
 G0 X0112.0 Y0063.0 F2400.0
G1 X0141.8 Y0081.2 E15922.1 F600.0
 G0 X0112.0 Y0063.0 F2400.0
G1 X0138.2 Y0086.1 E15932.6 F600.0
 G0 X0112.0 Y0063.0 F2400.0
G1 X0133.8 Y0090.3 E15943.1 F600.0
 G0 X0112.0 Y0063.0 F2400.0
G1 X0128.7 Y0093.7 E15953.6 F600.0
 G0 X0112.0 Y0063.0 F2400.0
G1 X0123.1 Y0096.1 E15964.1 F600.0
 G0 X0112.0 Y0063.0 F2400.0
G1 X0117.2 Y0097.6 E15974.6 F600.0
 G0 X0112.0 Y0063.0 F2400.0
G1 X0111.1 Y0098.0 E15985.1 F600.0
 G0 X0112.0 Y0063.0 F2400.0
G1 X0105.0 Y0097.3 E15995.6 F600.0
 G0 X0112.0 Y0063.0 F2400.0
G1 X0099.2 Y0095.5 E16006.1 F600.0
 G0 X0112.0 Y0063.0 F2400.0
G1 X0093.7 Y0092.8 E16016.6 F600.0
 G0 X0112.0 Y0063.0 F2400.0
G1 X0088.8 Y0089.2 E16027.1 F600.0
 G0 X0112.0 Y0063.0 F2400.0
G1 X0084.6 Y0084.8 E16037.6 F600.0
 G0 X0112.0 Y0063.0 F2400.0
G1 X0081.2 Y0079.7 E16048.1 F600.0
 G0 X0112.0 Y0063.0 F2400.0
G1 X0078.8 Y0074.1 E16058.6 F600.0
 G0 X0112.0 Y0063.0 F2400.0
G1 X0077.4 Y0068.2 E16069.1 F600.0
 G0 X0112.0 Y0063.0 F2400.0
G1 X0077.0 Y0062.1 E16079.6 F600.0
 G0 X0112.0 Y0063.0 F2400.0
G1 X0077.7 Y0056.1 E16090.1 F600.0
 G0 X0112.0 Y0063.0 F2400.0
G1 X0079.4 Y0050.2 E16100.6 F600.0
 G0 X0112.0 Y0063.0 F2400.0
G1 X0082.1 Y0044.7 E16111.1 F600.0
 G0 X0112.0 Y0063.0 F2400.0
G1 X0085.7 Y0039.8 E16121.5 F600.0
 G0 X0112.0 Y0063.0 F2400.0
G1 X0090.1 Y0035.6 E16132.0 F600.0
 G0 X0112.0 Y0063.0 F2400.0
G1 X0095.2 Y0032.3 E16142.5 F600.0
 G0 X0112.0 Y0063.0 F2400.0
G1 X0100.8 Y0029.8 E16153.0 F600.0
 G0 X0112.0 Y0063.0 F2400.0
G1 X0106.7 Y0028.4 E16163.5 F600.0
 G0 X0112.0 Y0063.0 F2400.0
G1 X0112.8 Y0028.0 E16174.0 F600.0
 G0 X0112.0 Y0063.0 F2400.0
G1 X0118.9 Y0028.7 E16184.5 F600.0
 G0 X0112.0 Y0063.0 F2400.0
G1 X0124.7 Y0030.4 E16195.0 F600.0
 G0 X0112.0 Y0063.0 F2400.0
G1 X0130.2 Y0033.1 E16205.5 F600.0
 G0 X0112.0 Y0063.0 F2400.0
G1 X0135.1 Y0036.7 E16216.0 F600.0
 G0 X0112.0 Y0063.0 F2400.0
G1 X0139.3 Y0041.1 E16226.5 F600.0
 G0 X0112.0 Y0063.0 F2400.0
G1 X0142.7 Y0046.2 E16237.0 F600.0
 G0 X0112.0 Y0063.0 F2400.0
G1 X0145.1 Y0051.8 E16247.5 F600.0
G0  F600.0 Z8.799996
 G0 X0112.0 Y0063.0 F2400.0
G1 X0146.5 Y0057.6 E16258.0 F600.0
 G0 X0112.0 Y0063.0 F2400.0
G1 X0146.9 Y0063.7 E16268.5 F600.0
 G0 X0112.0 Y0063.0 F2400.0
G1 X0146.3 Y0069.8 E16279.0 F600.0
 G0 X0112.0 Y0063.0 F2400.0
G1 X0144.6 Y0075.6 E16289.5 F600.0
 G0 X0112.0 Y0063.0 F2400.0
G1 X0141.9 Y0081.1 E16300.0 F600.0
 G0 X0112.0 Y0063.0 F2400.0
G1 X0138.3 Y0086.0 E16310.5 F600.0
 G0 X0112.0 Y0063.0 F2400.0
G1 X0133.9 Y0090.2 E16321.0 F600.0
 G0 X0112.0 Y0063.0 F2400.0
G1 X0128.8 Y0093.6 E16331.5 F600.0
 G0 X0112.0 Y0063.0 F2400.0
G1 X0123.2 Y0096.1 E16342.0 F600.0
 G0 X0112.0 Y0063.0 F2400.0
G1 X0117.3 Y0097.5 E16352.5 F600.0
 G0 X0112.0 Y0063.0 F2400.0
G1 X0111.2 Y0098.0 E16363.0 F600.0
 G0 X0112.0 Y0063.0 F2400.0
G1 X0105.2 Y0097.3 E16373.4 F600.0
 G0 X0112.0 Y0063.0 F2400.0
G1 X0099.3 Y0095.6 E16383.9 F600.0
 G0 X0112.0 Y0063.0 F2400.0
G1 X0093.8 Y0092.9 E16394.4 F600.0
 G0 X0112.0 Y0063.0 F2400.0
G1 X0088.9 Y0089.3 E16404.9 F600.0
 G0 X0112.0 Y0063.0 F2400.0
G1 X0084.7 Y0084.9 E16415.4 F600.0
 G0 X0112.0 Y0063.0 F2400.0
G1 X0081.3 Y0079.8 E16425.9 F600.0
 G0 X0112.0 Y0063.0 F2400.0
G1 X0078.8 Y0074.2 E16436.4 F600.0
 G0 X0112.0 Y0063.0 F2400.0
G1 X0077.4 Y0068.3 E16446.9 F600.0
 G0 X0112.0 Y0063.0 F2400.0
G1 X0077.0 Y0062.2 E16457.4 F600.0
 G0 X0112.0 Y0063.0 F2400.0
G1 X0077.6 Y0056.2 E16467.9 F600.0
 G0 X0112.0 Y0063.0 F2400.0
G1 X0079.3 Y0050.3 E16478.4 F600.0
 G0 X0112.0 Y0063.0 F2400.0
G1 X0082.0 Y0044.9 E16488.9 F600.0
 G0 X0112.0 Y0063.0 F2400.0
G1 X0085.6 Y0039.9 E16499.4 F600.0
 G0 X0112.0 Y0063.0 F2400.0
G1 X0090.0 Y0035.7 E16509.9 F600.0
 G0 X0112.0 Y0063.0 F2400.0
G1 X0095.1 Y0032.3 E16520.4 F600.0
 G0 X0112.0 Y0063.0 F2400.0
G1 X0100.7 Y0029.9 E16530.9 F600.0
 G0 X0112.0 Y0063.0 F2400.0
G1 X0106.6 Y0028.4 E16541.4 F600.0
 G0 X0112.0 Y0063.0 F2400.0
G1 X0112.7 Y0028.0 E16551.9 F600.0
 G0 X0112.0 Y0063.0 F2400.0
G1 X0118.8 Y0028.7 E16562.4 F600.0
 G0 X0112.0 Y0063.0 F2400.0
G1 X0124.6 Y0030.4 E16572.9 F600.0
 G0 X0112.0 Y0063.0 F2400.0
G1 X0130.1 Y0033.0 E16583.4 F600.0
 G0 X0112.0 Y0063.0 F2400.0
G1 X0135.0 Y0036.7 E16593.9 F600.0
 G0 X0112.0 Y0063.0 F2400.0
G1 X0139.2 Y0041.1 E16604.4 F600.0
 G0 X0112.0 Y0063.0 F2400.0
G1 X0142.6 Y0046.1 E16614.8 F600.0
 G0 X0112.0 Y0063.0 F2400.0
G1 X0145.1 Y0051.7 E16625.3 F600.0
G0  F600.0 Z8.999996
 G0 X0112.0 Y0063.0 F2400.0
