FLAVOR: UltiGCode
; TIME:  400
; MATERIAL:  160
; MATERIAL2:   0
;NOZZLE_DIAMETER:   0.800000
;NOZZLE_DIAMETER2:   0.800000
;Layer count:   250.0
;LAYER:   0
M109 S215
G28
M107
M109 S215
G0 F9000 X10 Y110
G0  F600.0 Z15
G0  F600.0 Z0.2
M117 1.0 out of 250.0
 G0 X174.9 Y174.9 F2400.0
G1 X192.4 Y174.9 E005.2 F600.0
 G0 X174.9 Y174.9 F2400.0
G1 X192.2 Y177.9 E010.5 F600.0
 G0 X174.9 Y174.9 F2400.0
G1 X191.4 Y180.9 E015.7 F600.0
 G0 X174.9 Y174.9 F2400.0
G1 X190.1 Y183.6 E021.0 F600.0
 G0 X174.9 Y174.9 F2400.0
G1 X188.4 Y186.1 E026.2 F600.0
 G0 X174.9 Y174.9 F2400.0
G1 X186.2 Y188.3 E031.5 F600.0
 G0 X174.9 Y174.9 F2400.0
G1 X183.7 Y190.0 E036.7 F600.0
 G0 X174.9 Y174.9 F2400.0
G1 X181.0 Y191.3 E042.0 F600.0
 G0 X174.9 Y174.9 F2400.0
G1 X178.0 Y192.1 E047.2 F600.0
 G0 X174.9 Y174.9 F2400.0
G1 X175.0 Y192.4 E052.5 F600.0
 G0 X174.9 Y174.9 F2400.0
G1 X172.0 Y192.2 E057.7 F600.0
 G0 X174.9 Y174.9 F2400.0
G1 X169.0 Y191.4 E063.0 F600.0
 G0 X174.9 Y174.9 F2400.0
G1 X166.2 Y190.1 E068.2 F600.0
 G0 X174.9 Y174.9 F2400.0
G1 X163.7 Y188.4 E073.5 F600.0
 G0 X174.9 Y174.9 F2400.0
G1 X161.6 Y186.2 E078.7 F600.0
 G0 X174.9 Y174.9 F2400.0
G1 X159.8 Y183.7 E084.0 F600.0
 G0 X174.9 Y174.9 F2400.0
G1 X158.5 Y181.0 E089.2 F600.0
 G0 X174.9 Y174.9 F2400.0
G1 X157.7 Y178.0 E094.5 F600.0
 G0 X174.9 Y174.9 F2400.0
G1 X157.4 Y175.0 E099.7 F600.0
 G0 X174.9 Y174.9 F2400.0
G1 X157.7 Y172.0 E105.0 F600.0
 G0 X174.9 Y174.9 F2400.0
G1 X158.5 Y169.0 E110.2 F600.0
 G0 X174.9 Y174.9 F2400.0
G1 X159.8 Y166.2 E115.5 F600.0
 G0 X174.9 Y174.9 F2400.0
G1 X161.5 Y163.7 E120.7 F600.0
 G0 X174.9 Y174.9 F2400.0
G1 X163.6 Y161.6 E125.9 F600.0
 G0 X174.9 Y174.9 F2400.0
G1 X166.1 Y159.8 E131.2 F600.0
 G0 X174.9 Y174.9 F2400.0
G1 X168.9 Y158.5 E136.4 F600.0
 G0 X174.9 Y174.9 F2400.0
G1 X171.8 Y157.7 E141.7 F600.0
 G0 X174.9 Y174.9 F2400.0
G1 X174.9 Y157.4 E146.9 F600.0
 G0 X174.9 Y174.9 F2400.0
G1 X177.9 Y157.7 E152.2 F600.0
 G0 X174.9 Y174.9 F2400.0
G1 X180.9 Y158.5 E157.4 F600.0
 G0 X174.9 Y174.9 F2400.0
G1 X183.6 Y159.8 E162.7 F600.0
 G0 X174.9 Y174.9 F2400.0
G1 X186.1 Y161.5 E167.9 F600.0
 G0 X174.9 Y174.9 F2400.0
G1 X188.3 Y163.6 E173.2 F600.0
 G0 X174.9 Y174.9 F2400.0
G1 X190.0 Y166.1 E178.4 F600.0
 G0 X174.9 Y174.9 F2400.0
G1 X191.3 Y168.9 E183.7 F600.0
 G0 X174.9 Y174.9 F2400.0
G1 X192.1 Y171.8 E188.9 F600.0
G0  F600.0 Z0.4
M117 2.0 out of 250.0
 G0 X174.9 Y174.9 F2400.0
G1 X192.4 Y174.8 E194.2 F600.0
 G0 X174.9 Y174.9 F2400.0
G1 X192.2 Y177.8 E199.4 F600.0
 G0 X174.9 Y174.9 F2400.0
G1 X191.4 Y180.8 E204.7 F600.0
 G0 X174.9 Y174.9 F2400.0
G1 X190.1 Y183.6 E209.9 F600.0
 G0 X174.9 Y174.9 F2400.0
G1 X188.4 Y186.1 E215.2 F600.0
 G0 X174.9 Y174.9 F2400.0
G1 X186.3 Y188.3 E220.4 F600.0
 G0 X174.9 Y174.9 F2400.0
G1 X183.8 Y190.0 E225.7 F600.0
 G0 X174.9 Y174.9 F2400.0
G1 X181.0 Y191.3 E230.9 F600.0
 G0 X174.9 Y174.9 F2400.0
G1 X178.1 Y192.1 E236.2 F600.0
 G0 X174.9 Y174.9 F2400.0
G1 X175.1 Y192.4 E241.4 F600.0
 G0 X174.9 Y174.9 F2400.0
G1 X172.0 Y192.2 E246.7 F600.0
 G0 X174.9 Y174.9 F2400.0
G1 X169.1 Y191.4 E251.9 F600.0
 G0 X174.9 Y174.9 F2400.0
G1 X166.3 Y190.1 E257.1 F600.0
 G0 X174.9 Y174.9 F2400.0
G1 X163.8 Y188.4 E262.4 F600.0
 G0 X174.9 Y174.9 F2400.0
G1 X161.6 Y186.3 E267.6 F600.0
 G0 X174.9 Y174.9 F2400.0
G1 X159.8 Y183.8 E272.9 F600.0
 G0 X174.9 Y174.9 F2400.0
G1 X158.5 Y181.0 E278.1 F600.0
 G0 X174.9 Y174.9 F2400.0
G1 X157.7 Y178.1 E283.4 F600.0
 G0 X174.9 Y174.9 F2400.0
G1 X157.4 Y175.1 E288.6 F600.0
 G0 X174.9 Y174.9 F2400.0
G1 X157.7 Y172.0 E293.9 F600.0
 G0 X174.9 Y174.9 F2400.0
G1 X158.5 Y169.1 E299.1 F600.0
 G0 X174.9 Y174.9 F2400.0
G1 X159.7 Y166.3 E304.4 F600.0
 G0 X174.9 Y174.9 F2400.0
G1 X161.5 Y163.8 E309.6 F600.0
 G0 X174.9 Y174.9 F2400.0
G1 X163.6 Y161.6 E314.9 F600.0
 G0 X174.9 Y174.9 F2400.0
G1 X166.1 Y159.8 E320.1 F600.0
 G0 X174.9 Y174.9 F2400.0
G1 X168.8 Y158.5 E325.4 F600.0
 G0 X174.9 Y174.9 F2400.0
G1 X171.8 Y157.7 E330.6 F600.0
 G0 X174.9 Y174.9 F2400.0
G1 X174.8 Y157.4 E335.9 F600.0
 G0 X174.9 Y174.9 F2400.0
G1 X177.8 Y157.7 E341.1 F600.0
 G0 X174.9 Y174.9 F2400.0
G1 X180.8 Y158.5 E346.4 F600.0
 G0 X174.9 Y174.9 F2400.0
G1 X183.6 Y159.7 E351.6 F600.0
 G0 X174.9 Y174.9 F2400.0
G1 X186.1 Y161.5 E356.9 F600.0
 G0 X174.9 Y174.9 F2400.0
G1 X188.3 Y163.6 E362.1 F600.0
 G0 X174.9 Y174.9 F2400.0
G1 X190.0 Y166.1 E367.4 F600.0
 G0 X174.9 Y174.9 F2400.0
G1 X191.3 Y168.8 E372.6 F600.0
 G0 X174.9 Y174.9 F2400.0
G1 X192.1 Y171.8 E377.8 F600.0
G0  F600.0 Z0.6
M117 3.0 out of 250.0
 G0 X174.9 Y174.9 F2400.0
G1 X192.4 Y174.7 E383.1 F600.0
 G0 X174.9 Y174.9 F2400.0
G1 X192.2 Y177.8 E388.3 F600.0
 G0 X174.9 Y174.9 F2400.0
G1 X191.4 Y180.7 E393.6 F600.0
 G0 X174.9 Y174.9 F2400.0
G1 X190.2 Y183.5 E398.8 F600.0
 G0 X174.9 Y174.9 F2400.0
G1 X188.4 Y186.0 E404.1 F600.0
 G0 X174.9 Y174.9 F2400.0
G1 X186.3 Y188.2 E409.3 F600.0
 G0 X174.9 Y174.9 F2400.0
G1 X183.8 Y190.0 E414.6 F600.0
 G0 X174.9 Y174.9 F2400.0
G1 X181.1 Y191.3 E419.8 F600.0
 G0 X174.9 Y174.9 F2400.0
G1 X178.1 Y192.1 E425.1 F600.0
 G0 X174.9 Y174.9 F2400.0
G1 X175.1 Y192.4 E430.3 F600.0
 G0 X174.9 Y174.9 F2400.0
G1 X172.1 Y192.2 E435.6 F600.0
 G0 X174.9 Y174.9 F2400.0
G1 X169.1 Y191.4 E440.8 F600.0
 G0 X174.9 Y174.9 F2400.0
G1 X166.3 Y190.2 E446.1 F600.0
 G0 X174.9 Y174.9 F2400.0
G1 X163.8 Y188.4 E451.3 F600.0
 G0 X174.9 Y174.9 F2400.0
G1 X161.6 Y186.3 E456.6 F600.0
 G0 X174.9 Y174.9 F2400.0
G1 X159.9 Y183.8 E461.8 F600.0
 G0 X174.9 Y174.9 F2400.0
G1 X158.6 Y181.1 E467.1 F600.0
 G0 X174.9 Y174.9 F2400.0
G1 X157.7 Y178.1 E472.3 F600.0
 G0 X174.9 Y174.9 F2400.0
G1 X157.4 Y175.1 E477.6 F600.0
 G0 X174.9 Y174.9 F2400.0
G1 X157.7 Y172.1 E482.8 F600.0
 G0 X174.9 Y174.9 F2400.0
G1 X158.4 Y169.1 E488.1 F600.0
 G0 X174.9 Y174.9 F2400.0
G1 X159.7 Y166.3 E493.3 F600.0
 G0 X174.9 Y174.9 F2400.0
G1 X161.4 Y163.8 E498.6 F600.0
 G0 X174.9 Y174.9 F2400.0
G1 X163.5 Y161.6 E503.8 F600.0
 G0 X174.9 Y174.9 F2400.0
G1 X166.0 Y159.9 E509.0 F600.0
 G0 X174.9 Y174.9 F2400.0
G1 X168.8 Y158.6 E514.3 F600.0
 G0 X174.9 Y174.9 F2400.0
G1 X171.7 Y157.7 E519.5 F600.0
 G0 X174.9 Y174.9 F2400.0
G1 X174.7 Y157.4 E524.8 F600.0
 G0 X174.9 Y174.9 F2400.0
G1 X177.8 Y157.7 E530.0 F600.0
 G0 X174.9 Y174.9 F2400.0
G1 X180.7 Y158.4 E535.3 F600.0
 G0 X174.9 Y174.9 F2400.0
G1 X183.5 Y159.7 E540.5 F600.0
 G0 X174.9 Y174.9 F2400.0
G1 X186.0 Y161.4 E545.8 F600.0
 G0 X174.9 Y174.9 F2400.0
G1 X188.2 Y163.5 E551.0 F600.0
 G0 X174.9 Y174.9 F2400.0
G1 X190.0 Y166.0 E556.3 F600.0
 G0 X174.9 Y174.9 F2400.0
G1 X191.3 Y168.8 E561.5 F600.0
 G0 X174.9 Y174.9 F2400.0
G1 X192.1 Y171.7 E566.8 F600.0
G0  F600.0 Z0.8
M117 4.0 out of 250.0
 G0 X174.9 Y174.9 F2400.0
G1 X192.4 Y174.7 E572.0 F600.0
 G0 X174.9 Y174.9 F2400.0
G1 X192.2 Y177.7 E577.3 F600.0
 G0 X174.9 Y174.9 F2400.0
G1 X191.4 Y180.7 E582.5 F600.0
 G0 X174.9 Y174.9 F2400.0
G1 X190.2 Y183.5 E587.8 F600.0
 G0 X174.9 Y174.9 F2400.0
G1 X188.5 Y186.0 E593.0 F600.0
 G0 X174.9 Y174.9 F2400.0
G1 X186.4 Y188.2 E598.3 F600.0
 G0 X174.9 Y174.9 F2400.0
G1 X183.9 Y190.0 E603.5 F600.0
 G0 X174.9 Y174.9 F2400.0
G1 X181.1 Y191.3 E608.8 F600.0
 G0 X174.9 Y174.9 F2400.0
G1 X178.2 Y192.1 E614.0 F600.0
 G0 X174.9 Y174.9 F2400.0
G1 X175.2 Y192.4 E619.3 F600.0
 G0 X174.9 Y174.9 F2400.0
G1 X172.1 Y192.2 E624.5 F600.0
 G0 X174.9 Y174.9 F2400.0
G1 X169.2 Y191.4 E629.7 F600.0
 G0 X174.9 Y174.9 F2400.0
G1 X166.4 Y190.2 E635.0 F600.0
 G0 X174.9 Y174.9 F2400.0
G1 X163.9 Y188.5 E640.2 F600.0
 G0 X174.9 Y174.9 F2400.0
G1 X161.7 Y186.4 E645.5 F600.0
 G0 X174.9 Y174.9 F2400.0
G1 X159.9 Y183.9 E650.7 F600.0
 G0 X174.9 Y174.9 F2400.0
G1 X158.6 Y181.1 E656.0 F600.0
 G0 X174.9 Y174.9 F2400.0
G1 X157.7 Y178.2 E661.2 F600.0
 G0 X174.9 Y174.9 F2400.0
G1 X157.4 Y175.2 E666.5 F600.0
 G0 X174.9 Y174.9 F2400.0
G1 X157.7 Y172.1 E671.7 F600.0
 G0 X174.9 Y174.9 F2400.0
G1 X158.4 Y169.2 E677.0 F600.0
 G0 X174.9 Y174.9 F2400.0
G1 X159.7 Y166.4 E682.2 F600.0
 G0 X174.9 Y174.9 F2400.0
G1 X161.4 Y163.9 E687.5 F600.0
 G0 X174.9 Y174.9 F2400.0
G1 X163.5 Y161.7 E692.7 F600.0
 G0 X174.9 Y174.9 F2400.0
G1 X166.0 Y159.9 E698.0 F600.0
 G0 X174.9 Y174.9 F2400.0
G1 X168.7 Y158.6 E703.2 F600.0
 G0 X174.9 Y174.9 F2400.0
G1 X171.7 Y157.7 E708.5 F600.0
 G0 X174.9 Y174.9 F2400.0
G1 X174.7 Y157.4 E713.7 F600.0
 G0 X174.9 Y174.9 F2400.0
G1 X177.7 Y157.7 E719.0 F600.0
 G0 X174.9 Y174.9 F2400.0
G1 X180.7 Y158.4 E724.2 F600.0
 G0 X174.9 Y174.9 F2400.0
G1 X183.5 Y159.7 E729.5 F600.0
 G0 X174.9 Y174.9 F2400.0
G1 X186.0 Y161.4 E734.7 F600.0
 G0 X174.9 Y174.9 F2400.0
G1 X188.2 Y163.5 E740.0 F600.0
 G0 X174.9 Y174.9 F2400.0
G1 X190.0 Y166.0 E745.2 F600.0
 G0 X174.9 Y174.9 F2400.0
G1 X191.3 Y168.7 E750.4 F600.0
 G0 X174.9 Y174.9 F2400.0
G1 X192.1 Y171.7 E755.7 F600.0
G0  F600.0 Z1.0
M117 5.0 out of 250.0
 G0 X174.9 Y174.9 F2400.0
G1 X192.4 Y174.6 E760.9 F600.0
 G0 X174.9 Y174.9 F2400.0
G1 X192.2 Y177.7 E766.2 F600.0
 G0 X174.9 Y174.9 F2400.0
G1 X191.5 Y180.6 E771.4 F600.0
 G0 X174.9 Y174.9 F2400.0
G1 X190.2 Y183.4 E776.7 F600.0
 G0 X174.9 Y174.9 F2400.0
G1 X188.5 Y185.9 E781.9 F600.0
 G0 X174.9 Y174.9 F2400.0
G1 X186.4 Y188.1 E787.2 F600.0
 G0 X174.9 Y174.9 F2400.0
G1 X183.9 Y189.9 E792.4 F600.0
 G0 X174.9 Y174.9 F2400.0
G1 X181.2 Y191.3 E797.7 F600.0
 G0 X174.9 Y174.9 F2400.0
G1 X178.3 Y192.1 E802.9 F600.0
 G0 X174.9 Y174.9 F2400.0
G1 X175.2 Y192.4 E808.2 F600.0
 G0 X174.9 Y174.9 F2400.0
G1 X172.2 Y192.2 E813.4 F600.0
 G0 X174.9 Y174.9 F2400.0
G1 X169.2 Y191.5 E818.7 F600.0
 G0 X174.9 Y174.9 F2400.0
G1 X166.4 Y190.2 E823.9 F600.0
 G0 X174.9 Y174.9 F2400.0
G1 X163.9 Y188.5 E829.2 F600.0
 G0 X174.9 Y174.9 F2400.0
G1 X161.7 Y186.4 E834.4 F600.0
 G0 X174.9 Y174.9 F2400.0
G1 X159.9 Y183.9 E839.7 F600.0
 G0 X174.9 Y174.9 F2400.0
G1 X158.6 Y181.2 E844.9 F600.0
 G0 X174.9 Y174.9 F2400.0
G1 X157.8 Y178.3 E850.2 F600.0
 G0 X174.9 Y174.9 F2400.0
G1 X157.4 Y175.2 E855.4 F600.0
 G0 X174.9 Y174.9 F2400.0
G1 X157.7 Y172.2 E860.7 F600.0
 G0 X174.9 Y174.9 F2400.0
G1 X158.4 Y169.2 E865.9 F600.0
 G0 X174.9 Y174.9 F2400.0
G1 X159.6 Y166.4 E871.2 F600.0
 G0 X174.9 Y174.9 F2400.0
G1 X161.3 Y163.9 E876.4 F600.0
 G0 X174.9 Y174.9 F2400.0
G1 X163.5 Y161.7 E881.6 F600.0
 G0 X174.9 Y174.9 F2400.0
G1 X165.9 Y159.9 E886.9 F600.0
 G0 X174.9 Y174.9 F2400.0
G1 X168.7 Y158.6 E892.1 F600.0
 G0 X174.9 Y174.9 F2400.0
G1 X171.6 Y157.8 E897.4 F600.0
 G0 X174.9 Y174.9 F2400.0
G1 X174.6 Y157.4 E902.6 F600.0
 G0 X174.9 Y174.9 F2400.0
G1 X177.7 Y157.7 E907.9 F600.0
 G0 X174.9 Y174.9 F2400.0
G1 X180.6 Y158.4 E913.1 F600.0
 G0 X174.9 Y174.9 F2400.0
G1 X183.4 Y159.6 E918.4 F600.0
 G0 X174.9 Y174.9 F2400.0
G1 X185.9 Y161.3 E923.6 F600.0
 G0 X174.9 Y174.9 F2400.0
G1 X188.1 Y163.5 E928.9 F600.0
 G0 X174.9 Y174.9 F2400.0
G1 X189.9 Y165.9 E934.1 F600.0
 G0 X174.9 Y174.9 F2400.0
G1 X191.3 Y168.7 E939.4 F600.0
 G0 X174.9 Y174.9 F2400.0
G1 X192.1 Y171.6 E944.6 F600.0
G0  F600.0 Z1.2
M117 6.0 out of 250.0
 G0 X174.9 Y174.9 F2400.0
G1 X192.4 Y174.6 E949.9 F600.0
 G0 X174.9 Y174.9 F2400.0
G1 X192.2 Y177.6 E955.1 F600.0
 G0 X174.9 Y174.9 F2400.0
G1 X191.5 Y180.6 E960.4 F600.0
 G0 X174.9 Y174.9 F2400.0
G1 X190.3 Y183.4 E965.6 F600.0
 G0 X174.9 Y174.9 F2400.0
G1 X188.6 Y185.9 E970.9 F600.0
 G0 X174.9 Y174.9 F2400.0
G1 X186.5 Y188.1 E976.1 F600.0
 G0 X174.9 Y174.9 F2400.0
G1 X184.0 Y189.9 E981.4 F600.0
 G0 X174.9 Y174.9 F2400.0
G1 X181.3 Y191.2 E986.6 F600.0
 G0 X174.9 Y174.9 F2400.0
G1 X178.3 Y192.1 E991.9 F600.0
 G0 X174.9 Y174.9 F2400.0
G1 X175.3 Y192.4 E997.1 F600.0
 G0 X174.9 Y174.9 F2400.0
G1 X172.3 Y192.2 E1002.3 F600.0
 G0 X174.9 Y174.9 F2400.0
G1 X169.3 Y191.5 E1007.6 F600.0
 G0 X174.9 Y174.9 F2400.0
G1 X166.5 Y190.3 E1012.8 F600.0
 G0 X174.9 Y174.9 F2400.0
G1 X164.0 Y188.6 E1018.1 F600.0
 G0 X174.9 Y174.9 F2400.0
G1 X161.8 Y186.5 E1023.3 F600.0
 G0 X174.9 Y174.9 F2400.0
G1 X160.0 Y184.0 E1028.6 F600.0
 G0 X174.9 Y174.9 F2400.0
G1 X158.6 Y181.3 E1033.8 F600.0
 G0 X174.9 Y174.9 F2400.0
G1 X157.8 Y178.3 E1039.1 F600.0
 G0 X174.9 Y174.9 F2400.0
G1 X157.4 Y175.3 E1044.3 F600.0
 G0 X174.9 Y174.9 F2400.0
G1 X157.6 Y172.3 E1049.6 F600.0
 G0 X174.9 Y174.9 F2400.0
G1 X158.4 Y169.3 E1054.8 F600.0
 G0 X174.9 Y174.9 F2400.0
G1 X159.6 Y166.5 E1060.1 F600.0
 G0 X174.9 Y174.9 F2400.0
G1 X161.3 Y164.0 E1065.3 F600.0
 G0 X174.9 Y174.9 F2400.0
G1 X163.4 Y161.8 E1070.6 F600.0
 G0 X174.9 Y174.9 F2400.0
G1 X165.9 Y160.0 E1075.8 F600.0
 G0 X174.9 Y174.9 F2400.0
G1 X168.6 Y158.6 E1081.1 F600.0
 G0 X174.9 Y174.9 F2400.0
G1 X171.5 Y157.8 E1086.3 F600.0
 G0 X174.9 Y174.9 F2400.0
G1 X174.6 Y157.4 E1091.6 F600.0
 G0 X174.9 Y174.9 F2400.0
G1 X177.6 Y157.6 E1096.8 F600.0
 G0 X174.9 Y174.9 F2400.0
G1 X180.6 Y158.4 E1102.1 F600.0
 G0 X174.9 Y174.9 F2400.0
G1 X183.4 Y159.6 E1107.3 F600.0
 G0 X174.9 Y174.9 F2400.0
G1 X185.9 Y161.3 E1112.6 F600.0
 G0 X174.9 Y174.9 F2400.0
G1 X188.1 Y163.4 E1117.8 F600.0
 G0 X174.9 Y174.9 F2400.0
G1 X189.9 Y165.9 E1123.1 F600.0
 G0 X174.9 Y174.9 F2400.0
G1 X191.2 Y168.6 E1128.3 F600.0
 G0 X174.9 Y174.9 F2400.0
G1 X192.1 Y171.5 E1133.5 F600.0
G0  F600.0 Z1.4000001
M117 7.0000005 out of 250.0
 G0 X174.9 Y174.9 F2400.0
G1 X192.4 Y174.5 E1138.8 F600.0
 G0 X174.9 Y174.9 F2400.0
G1 X192.2 Y177.5 E1144.0 F600.0
 G0 X174.9 Y174.9 F2400.0
G1 X191.5 Y180.5 E1149.3 F600.0
 G0 X174.9 Y174.9 F2400.0
G1 X190.3 Y183.3 E1154.5 F600.0
 G0 X174.9 Y174.9 F2400.0
G1 X188.6 Y185.8 E1159.8 F600.0
 G0 X174.9 Y174.9 F2400.0
G1 X186.5 Y188.1 E1165.0 F600.0
 G0 X174.9 Y174.9 F2400.0
G1 X184.0 Y189.9 E1170.3 F600.0
 G0 X174.9 Y174.9 F2400.0
G1 X181.3 Y191.2 E1175.5 F600.0
 G0 X174.9 Y174.9 F2400.0
G1 X178.4 Y192.1 E1180.8 F600.0
 G0 X174.9 Y174.9 F2400.0
G1 X175.4 Y192.4 E1186.0 F600.0
 G0 X174.9 Y174.9 F2400.0
G1 X172.3 Y192.2 E1191.3 F600.0
 G0 X174.9 Y174.9 F2400.0
G1 X169.4 Y191.5 E1196.5 F600.0
 G0 X174.9 Y174.9 F2400.0
G1 X166.6 Y190.3 E1201.8 F600.0
 G0 X174.9 Y174.9 F2400.0
G1 X164.0 Y188.6 E1207.0 F600.0
 G0 X174.9 Y174.9 F2400.0
G1 X161.8 Y186.5 E1212.3 F600.0
 G0 X174.9 Y174.9 F2400.0
G1 X160.0 Y184.0 E1217.5 F600.0
 G0 X174.9 Y174.9 F2400.0
G1 X158.6 Y181.3 E1222.8 F600.0
 G0 X174.9 Y174.9 F2400.0
G1 X157.8 Y178.4 E1228.0 F600.0
 G0 X174.9 Y174.9 F2400.0
G1 X157.4 Y175.4 E1233.3 F600.0
 G0 X174.9 Y174.9 F2400.0
G1 X157.6 Y172.3 E1238.5 F600.0
 G0 X174.9 Y174.9 F2400.0
G1 X158.4 Y169.4 E1243.8 F600.0
 G0 X174.9 Y174.9 F2400.0
G1 X159.6 Y166.6 E1249.0 F600.0
 G0 X174.9 Y174.9 F2400.0
G1 X161.3 Y164.0 E1254.2 F600.0
 G0 X174.9 Y174.9 F2400.0
G1 X163.4 Y161.8 E1259.5 F600.0
 G0 X174.9 Y174.9 F2400.0
G1 X165.8 Y160.0 E1264.7 F600.0
 G0 X174.9 Y174.9 F2400.0
G1 X168.5 Y158.6 E1270.0 F600.0
 G0 X174.9 Y174.9 F2400.0
G1 X171.5 Y157.8 E1275.2 F600.0
 G0 X174.9 Y174.9 F2400.0
G1 X174.5 Y157.4 E1280.5 F600.0
 G0 X174.9 Y174.9 F2400.0
G1 X177.5 Y157.6 E1285.7 F600.0
 G0 X174.9 Y174.9 F2400.0
G1 X180.5 Y158.4 E1291.0 F600.0
 G0 X174.9 Y174.9 F2400.0
G1 X183.3 Y159.6 E1296.2 F600.0
 G0 X174.9 Y174.9 F2400.0
G1 X185.8 Y161.3 E1301.5 F600.0
 G0 X174.9 Y174.9 F2400.0
G1 X188.1 Y163.4 E1306.7 F600.0
 G0 X174.9 Y174.9 F2400.0
G1 X189.9 Y165.8 E1312.0 F600.0
 G0 X174.9 Y174.9 F2400.0
G1 X191.2 Y168.5 E1317.2 F600.0
 G0 X174.9 Y174.9 F2400.0
G1 X192.1 Y171.5 E1322.5 F600.0
G0  F600.0 Z1.6000001
M117 8.000001 out of 250.0
 G0 X174.9 Y174.9 F2400.0
G1 X192.4 Y174.4 E1327.7 F600.0
 G0 X174.9 Y174.9 F2400.0
G1 X192.2 Y177.5 E1333.0 F600.0
 G0 X174.9 Y174.9 F2400.0
G1 X191.5 Y180.5 E1338.2 F600.0
 G0 X174.9 Y174.9 F2400.0
G1 X190.3 Y183.3 E1343.5 F600.0
 G0 X174.9 Y174.9 F2400.0
G1 X188.6 Y185.8 E1348.7 F600.0
 G0 X174.9 Y174.9 F2400.0
G1 X186.5 Y188.0 E1354.0 F600.0
 G0 X174.9 Y174.9 F2400.0
G1 X184.1 Y189.8 E1359.2 F600.0
 G0 X174.9 Y174.9 F2400.0
G1 X181.4 Y191.2 E1364.5 F600.0
 G0 X174.9 Y174.9 F2400.0
G1 X178.4 Y192.1 E1369.7 F600.0
 G0 X174.9 Y174.9 F2400.0
G1 X175.4 Y192.4 E1374.9 F600.0
 G0 X174.9 Y174.9 F2400.0
G1 X172.4 Y192.2 E1380.2 F600.0
 G0 X174.9 Y174.9 F2400.0
G1 X169.4 Y191.5 E1385.4 F600.0
 G0 X174.9 Y174.9 F2400.0
G1 X166.6 Y190.3 E1390.7 F600.0
 G0 X174.9 Y174.9 F2400.0
G1 X164.1 Y188.6 E1395.9 F600.0
 G0 X174.9 Y174.9 F2400.0
G1 X161.8 Y186.5 E1401.2 F600.0
 G0 X174.9 Y174.9 F2400.0
G1 X160.0 Y184.1 E1406.4 F600.0
 G0 X174.9 Y174.9 F2400.0
G1 X158.7 Y181.4 E1411.7 F600.0
 G0 X174.9 Y174.9 F2400.0
G1 X157.8 Y178.4 E1416.9 F600.0
 G0 X174.9 Y174.9 F2400.0
G1 X157.4 Y175.4 E1422.2 F600.0
 G0 X174.9 Y174.9 F2400.0
G1 X157.6 Y172.4 E1427.4 F600.0
 G0 X174.9 Y174.9 F2400.0
G1 X158.3 Y169.4 E1432.7 F600.0
 G0 X174.9 Y174.9 F2400.0
G1 X159.5 Y166.6 E1437.9 F600.0
 G0 X174.9 Y174.9 F2400.0
G1 X161.2 Y164.1 E1443.2 F600.0
 G0 X174.9 Y174.9 F2400.0
G1 X163.3 Y161.8 E1448.4 F600.0
 G0 X174.9 Y174.9 F2400.0
G1 X165.8 Y160.0 E1453.7 F600.0
 G0 X174.9 Y174.9 F2400.0
G1 X168.5 Y158.7 E1458.9 F600.0
 G0 X174.9 Y174.9 F2400.0
G1 X171.4 Y157.8 E1464.2 F600.0
 G0 X174.9 Y174.9 F2400.0
G1 X174.4 Y157.4 E1469.4 F600.0
 G0 X174.9 Y174.9 F2400.0
G1 X177.5 Y157.6 E1474.7 F600.0
 G0 X174.9 Y174.9 F2400.0
G1 X180.5 Y158.3 E1479.9 F600.0
 G0 X174.9 Y174.9 F2400.0
G1 X183.3 Y159.5 E1485.2 F600.0
 G0 X174.9 Y174.9 F2400.0
G1 X185.8 Y161.2 E1490.4 F600.0
 G0 X174.9 Y174.9 F2400.0
G1 X188.0 Y163.3 E1495.7 F600.0
 G0 X174.9 Y174.9 F2400.0
G1 X189.8 Y165.8 E1500.9 F600.0
 G0 X174.9 Y174.9 F2400.0
G1 X191.2 Y168.5 E1506.1 F600.0
 G0 X174.9 Y174.9 F2400.0
G1 X192.1 Y171.4 E1511.4 F600.0
G0  F600.0 Z1.8000002
M117 9.000001 out of 250.0
 G0 X174.9 Y174.9 F2400.0
G1 X192.4 Y174.4 E1516.6 F600.0
 G0 X174.9 Y174.9 F2400.0
G1 X192.2 Y177.4 E1521.9 F600.0
 G0 X174.9 Y174.9 F2400.0
G1 X191.5 Y180.4 E1527.1 F600.0
 G0 X174.9 Y174.9 F2400.0
G1 X190.3 Y183.2 E1532.4 F600.0
 G0 X174.9 Y174.9 F2400.0
G1 X188.7 Y185.7 E1537.6 F600.0
 G0 X174.9 Y174.9 F2400.0
G1 X186.6 Y188.0 E1542.9 F600.0
 G0 X174.9 Y174.9 F2400.0
G1 X184.1 Y189.8 E1548.1 F600.0
 G0 X174.9 Y174.9 F2400.0
G1 X181.4 Y191.2 E1553.4 F600.0
 G0 X174.9 Y174.9 F2400.0
G1 X178.5 Y192.1 E1558.6 F600.0
 G0 X174.9 Y174.9 F2400.0
G1 X175.5 Y192.4 E1563.9 F600.0
 G0 X174.9 Y174.9 F2400.0
G1 X172.4 Y192.2 E1569.1 F600.0
 G0 X174.9 Y174.9 F2400.0
G1 X169.5 Y191.5 E1574.4 F600.0
 G0 X174.9 Y174.9 F2400.0
G1 X166.7 Y190.3 E1579.6 F600.0
 G0 X174.9 Y174.9 F2400.0
G1 X164.1 Y188.7 E1584.9 F600.0
 G0 X174.9 Y174.9 F2400.0
G1 X161.9 Y186.6 E1590.1 F600.0
 G0 X174.9 Y174.9 F2400.0
G1 X160.1 Y184.1 E1595.4 F600.0
 G0 X174.9 Y174.9 F2400.0
G1 X158.7 Y181.4 E1600.6 F600.0
 G0 X174.9 Y174.9 F2400.0
G1 X157.8 Y178.5 E1605.9 F600.0
 G0 X174.9 Y174.9 F2400.0
G1 X157.4 Y175.5 E1611.1 F600.0
 G0 X174.9 Y174.9 F2400.0
G1 X157.6 Y172.4 E1616.4 F600.0
 G0 X174.9 Y174.9 F2400.0
G1 X158.3 Y169.5 E1621.6 F600.0
 G0 X174.9 Y174.9 F2400.0
G1 X159.5 Y166.7 E1626.8 F600.0
 G0 X174.9 Y174.9 F2400.0
G1 X161.2 Y164.1 E1632.1 F600.0
 G0 X174.9 Y174.9 F2400.0
G1 X163.3 Y161.9 E1637.3 F600.0
 G0 X174.9 Y174.9 F2400.0
G1 X165.7 Y160.1 E1642.6 F600.0
 G0 X174.9 Y174.9 F2400.0
G1 X168.4 Y158.7 E1647.8 F600.0
 G0 X174.9 Y174.9 F2400.0
G1 X171.4 Y157.8 E1653.1 F600.0
 G0 X174.9 Y174.9 F2400.0
G1 X174.4 Y157.4 E1658.3 F600.0
 G0 X174.9 Y174.9 F2400.0
G1 X177.4 Y157.6 E1663.6 F600.0
 G0 X174.9 Y174.9 F2400.0
G1 X180.4 Y158.3 E1668.8 F600.0
 G0 X174.9 Y174.9 F2400.0
G1 X183.2 Y159.5 E1674.1 F600.0
 G0 X174.9 Y174.9 F2400.0
G1 X185.7 Y161.2 E1679.3 F600.0
 G0 X174.9 Y174.9 F2400.0
G1 X188.0 Y163.3 E1684.6 F600.0
 G0 X174.9 Y174.9 F2400.0
G1 X189.8 Y165.7 E1689.8 F600.0
 G0 X174.9 Y174.9 F2400.0
G1 X191.2 Y168.4 E1695.1 F600.0
 G0 X174.9 Y174.9 F2400.0
G1 X192.1 Y171.4 E1700.3 F600.0
G0  F600.0 Z2.0000002
M117 10.000001 out of 250.0
 G0 X174.9 Y174.9 F2400.0
G1 X192.4 Y174.3 E1705.6 F600.0
 G0 X174.9 Y174.9 F2400.0
G1 X192.3 Y177.4 E1710.8 F600.0
 G0 X174.9 Y174.9 F2400.0
G1 X191.6 Y180.3 E1716.1 F600.0
 G0 X174.9 Y174.9 F2400.0
G1 X190.4 Y183.1 E1721.3 F600.0
 G0 X174.9 Y174.9 F2400.0
G1 X188.7 Y185.7 E1726.6 F600.0
 G0 X174.9 Y174.9 F2400.0
G1 X186.6 Y187.9 E1731.8 F600.0
 G0 X174.9 Y174.9 F2400.0
G1 X184.2 Y189.8 E1737.1 F600.0
 G0 X174.9 Y174.9 F2400.0
G1 X181.5 Y191.1 E1742.3 F600.0
 G0 X174.9 Y174.9 F2400.0
G1 X178.6 Y192.0 E1747.6 F600.0
 G0 X174.9 Y174.9 F2400.0
G1 X175.5 Y192.4 E1752.8 F600.0
 G0 X174.9 Y174.9 F2400.0
G1 X172.5 Y192.3 E1758.0 F600.0
 G0 X174.9 Y174.9 F2400.0
G1 X169.5 Y191.6 E1763.3 F600.0
 G0 X174.9 Y174.9 F2400.0
G1 X166.7 Y190.4 E1768.5 F600.0
 G0 X174.9 Y174.9 F2400.0
G1 X164.2 Y188.7 E1773.8 F600.0
 G0 X174.9 Y174.9 F2400.0
G1 X161.9 Y186.6 E1779.0 F600.0
 G0 X174.9 Y174.9 F2400.0
G1 X160.1 Y184.2 E1784.3 F600.0
 G0 X174.9 Y174.9 F2400.0
G1 X158.7 Y181.5 E1789.5 F600.0
 G0 X174.9 Y174.9 F2400.0
G1 X157.8 Y178.6 E1794.8 F600.0
 G0 X174.9 Y174.9 F2400.0
G1 X157.4 Y175.5 E1800.0 F600.0
 G0 X174.9 Y174.9 F2400.0
G1 X157.6 Y172.5 E1805.3 F600.0
 G0 X174.9 Y174.9 F2400.0
G1 X158.3 Y169.5 E1810.5 F600.0
 G0 X174.9 Y174.9 F2400.0
G1 X159.5 Y166.7 E1815.8 F600.0
 G0 X174.9 Y174.9 F2400.0
G1 X161.1 Y164.2 E1821.0 F600.0
 G0 X174.9 Y174.9 F2400.0
G1 X163.2 Y161.9 E1826.3 F600.0
 G0 X174.9 Y174.9 F2400.0
G1 X165.7 Y160.1 E1831.5 F600.0
 G0 X174.9 Y174.9 F2400.0
G1 X168.4 Y158.7 E1836.8 F600.0
 G0 X174.9 Y174.9 F2400.0
G1 X171.3 Y157.8 E1842.0 F600.0
 G0 X174.9 Y174.9 F2400.0
G1 X174.3 Y157.4 E1847.3 F600.0
 G0 X174.9 Y174.9 F2400.0
G1 X177.4 Y157.6 E1852.5 F600.0
 G0 X174.9 Y174.9 F2400.0
G1 X180.3 Y158.3 E1857.8 F600.0
 G0 X174.9 Y174.9 F2400.0
G1 X183.1 Y159.5 E1863.0 F600.0
 G0 X174.9 Y174.9 F2400.0
G1 X185.7 Y161.1 E1868.3 F600.0
 G0 X174.9 Y174.9 F2400.0
G1 X187.9 Y163.2 E1873.5 F600.0
 G0 X174.9 Y174.9 F2400.0
G1 X189.8 Y165.7 E1878.7 F600.0
 G0 X174.9 Y174.9 F2400.0
G1 X191.1 Y168.4 E1884.0 F600.0
 G0 X174.9 Y174.9 F2400.0
G1 X192.0 Y171.3 E1889.2 F600.0
G0  F600.0 Z2.2000003
M117 11.000001 out of 250.0
 G0 X174.9 Y174.9 F2400.0
G1 X192.4 Y174.3 E1894.5 F600.0
 G0 X174.9 Y174.9 F2400.0
G1 X192.3 Y177.3 E1899.7 F600.0
 G0 X174.9 Y174.9 F2400.0
G1 X191.6 Y180.3 E1905.0 F600.0
 G0 X174.9 Y174.9 F2400.0
G1 X190.4 Y183.1 E1910.2 F600.0
 G0 X174.9 Y174.9 F2400.0
G1 X188.8 Y185.7 E1915.5 F600.0
 G0 X174.9 Y174.9 F2400.0
G1 X186.7 Y187.9 E1920.7 F600.0
 G0 X174.9 Y174.9 F2400.0
G1 X184.3 Y189.7 E1926.0 F600.0
 G0 X174.9 Y174.9 F2400.0
G1 X181.5 Y191.1 E1931.2 F600.0
 G0 X174.9 Y174.9 F2400.0
G1 X178.6 Y192.0 E1936.5 F600.0
 G0 X174.9 Y174.9 F2400.0
G1 X175.6 Y192.4 E1941.7 F600.0
 G0 X174.9 Y174.9 F2400.0
G1 X172.6 Y192.3 E1947.0 F600.0
 G0 X174.9 Y174.9 F2400.0
G1 X169.6 Y191.6 E1952.2 F600.0
 G0 X174.9 Y174.9 F2400.0
G1 X166.8 Y190.4 E1957.5 F600.0
 G0 X174.9 Y174.9 F2400.0
G1 X164.2 Y188.8 E1962.7 F600.0
 G0 X174.9 Y174.9 F2400.0
G1 X162.0 Y186.7 E1968.0 F600.0
 G0 X174.9 Y174.9 F2400.0
G1 X160.1 Y184.3 E1973.2 F600.0
 G0 X174.9 Y174.9 F2400.0
G1 X158.7 Y181.5 E1978.5 F600.0
 G0 X174.9 Y174.9 F2400.0
G1 X157.8 Y178.6 E1983.7 F600.0
 G0 X174.9 Y174.9 F2400.0
G1 X157.4 Y175.6 E1989.0 F600.0
 G0 X174.9 Y174.9 F2400.0
G1 X157.6 Y172.6 E1994.2 F600.0
 G0 X174.9 Y174.9 F2400.0
G1 X158.3 Y169.6 E1999.4 F600.0
 G0 X174.9 Y174.9 F2400.0
G1 X159.5 Y166.8 E2004.7 F600.0
 G0 X174.9 Y174.9 F2400.0
G1 X161.1 Y164.2 E2009.9 F600.0
 G0 X174.9 Y174.9 F2400.0
G1 X163.2 Y162.0 E2015.2 F600.0
 G0 X174.9 Y174.9 F2400.0
G1 X165.6 Y160.1 E2020.4 F600.0
 G0 X174.9 Y174.9 F2400.0
G1 X168.3 Y158.7 E2025.7 F600.0
 G0 X174.9 Y174.9 F2400.0
G1 X171.2 Y157.8 E2030.9 F600.0
 G0 X174.9 Y174.9 F2400.0
G1 X174.3 Y157.4 E2036.2 F600.0
 G0 X174.9 Y174.9 F2400.0
G1 X177.3 Y157.6 E2041.4 F600.0
 G0 X174.9 Y174.9 F2400.0
G1 X180.3 Y158.3 E2046.7 F600.0
 G0 X174.9 Y174.9 F2400.0
G1 X183.1 Y159.5 E2051.9 F600.0
 G0 X174.9 Y174.9 F2400.0
G1 X185.7 Y161.1 E2057.2 F600.0
 G0 X174.9 Y174.9 F2400.0
G1 X187.9 Y163.2 E2062.4 F600.0
 G0 X174.9 Y174.9 F2400.0
G1 X189.7 Y165.6 E2067.7 F600.0
 G0 X174.9 Y174.9 F2400.0
G1 X191.1 Y168.3 E2072.9 F600.0
 G0 X174.9 Y174.9 F2400.0
G1 X192.0 Y171.2 E2078.2 F600.0
G0  F600.0 Z2.4000003
M117 12.000002 out of 250.0
 G0 X174.9 Y174.9 F2400.0
G1 X192.4 Y174.2 E2083.4 F600.0
 G0 X174.9 Y174.9 F2400.0
G1 X192.3 Y177.2 E2088.7 F600.0
 G0 X174.9 Y174.9 F2400.0
G1 X191.6 Y180.2 E2093.9 F600.0
 G0 X174.9 Y174.9 F2400.0
G1 X190.4 Y183.0 E2099.2 F600.0
 G0 X174.9 Y174.9 F2400.0
G1 X188.8 Y185.6 E2104.4 F600.0
 G0 X174.9 Y174.9 F2400.0
G1 X186.7 Y187.8 E2109.7 F600.0
 G0 X174.9 Y174.9 F2400.0
G1 X184.3 Y189.7 E2114.9 F600.0
 G0 X174.9 Y174.9 F2400.0
G1 X181.6 Y191.1 E2120.2 F600.0
 G0 X174.9 Y174.9 F2400.0
G1 X178.7 Y192.0 E2125.4 F600.0
 G0 X174.9 Y174.9 F2400.0
G1 X175.7 Y192.4 E2130.6 F600.0
 G0 X174.9 Y174.9 F2400.0
G1 X172.6 Y192.3 E2135.9 F600.0
 G0 X174.9 Y174.9 F2400.0
G1 X169.6 Y191.6 E2141.1 F600.0
 G0 X174.9 Y174.9 F2400.0
G1 X166.8 Y190.4 E2146.4 F600.0
 G0 X174.9 Y174.9 F2400.0
G1 X164.3 Y188.8 E2151.6 F600.0
 G0 X174.9 Y174.9 F2400.0
G1 X162.0 Y186.7 E2156.9 F600.0
 G0 X174.9 Y174.9 F2400.0
G1 X160.2 Y184.3 E2162.1 F600.0
 G0 X174.9 Y174.9 F2400.0
G1 X158.8 Y181.6 E2167.4 F600.0
 G0 X174.9 Y174.9 F2400.0
G1 X157.8 Y178.7 E2172.6 F600.0
 G0 X174.9 Y174.9 F2400.0
G1 X157.5 Y175.7 E2177.9 F600.0
 G0 X174.9 Y174.9 F2400.0
G1 X157.6 Y172.6 E2183.1 F600.0
 G0 X174.9 Y174.9 F2400.0
G1 X158.3 Y169.6 E2188.4 F600.0
 G0 X174.9 Y174.9 F2400.0
G1 X159.4 Y166.8 E2193.6 F600.0
 G0 X174.9 Y174.9 F2400.0
G1 X161.1 Y164.3 E2198.9 F600.0
 G0 X174.9 Y174.9 F2400.0
G1 X163.1 Y162.0 E2204.1 F600.0
 G0 X174.9 Y174.9 F2400.0
G1 X165.6 Y160.2 E2209.4 F600.0
 G0 X174.9 Y174.9 F2400.0
G1 X168.3 Y158.8 E2214.6 F600.0
 G0 X174.9 Y174.9 F2400.0
G1 X171.2 Y157.8 E2219.9 F600.0
 G0 X174.9 Y174.9 F2400.0
G1 X174.2 Y157.5 E2225.1 F600.0
 G0 X174.9 Y174.9 F2400.0
G1 X177.2 Y157.6 E2230.4 F600.0
 G0 X174.9 Y174.9 F2400.0
G1 X180.2 Y158.3 E2235.6 F600.0
 G0 X174.9 Y174.9 F2400.0
G1 X183.0 Y159.4 E2240.9 F600.0
 G0 X174.9 Y174.9 F2400.0
G1 X185.6 Y161.1 E2246.1 F600.0
 G0 X174.9 Y174.9 F2400.0
G1 X187.8 Y163.1 E2251.3 F600.0
 G0 X174.9 Y174.9 F2400.0
G1 X189.7 Y165.6 E2256.6 F600.0
 G0 X174.9 Y174.9 F2400.0
G1 X191.1 Y168.3 E2261.8 F600.0
 G0 X174.9 Y174.9 F2400.0
G1 X192.0 Y171.2 E2267.1 F600.0
G0  F600.0 Z2.6000004
M117 13.000002 out of 250.0
 G0 X174.9 Y174.9 F2400.0
G1 X192.4 Y174.1 E2272.3 F600.0
 G0 X174.9 Y174.9 F2400.0
G1 X192.3 Y177.2 E2277.6 F600.0
 G0 X174.9 Y174.9 F2400.0
G1 X191.6 Y180.2 E2282.8 F600.0
 G0 X174.9 Y174.9 F2400.0
G1 X190.5 Y183.0 E2288.1 F600.0
 G0 X174.9 Y174.9 F2400.0
G1 X188.8 Y185.6 E2293.3 F600.0
 G0 X174.9 Y174.9 F2400.0
G1 X186.8 Y187.8 E2298.6 F600.0
 G0 X174.9 Y174.9 F2400.0
G1 X184.4 Y189.7 E2303.8 F600.0
 G0 X174.9 Y174.9 F2400.0
G1 X181.7 Y191.1 E2309.1 F600.0
 G0 X174.9 Y174.9 F2400.0
G1 X178.7 Y192.0 E2314.3 F600.0
 G0 X174.9 Y174.9 F2400.0
G1 X175.7 Y192.4 E2319.6 F600.0
 G0 X174.9 Y174.9 F2400.0
G1 X172.7 Y192.3 E2324.8 F600.0
 G0 X174.9 Y174.9 F2400.0
G1 X169.7 Y191.6 E2330.1 F600.0
 G0 X174.9 Y174.9 F2400.0
G1 X166.9 Y190.5 E2335.3 F600.0
 G0 X174.9 Y174.9 F2400.0
G1 X164.3 Y188.8 E2340.6 F600.0
 G0 X174.9 Y174.9 F2400.0
G1 X162.1 Y186.8 E2345.8 F600.0
 G0 X174.9 Y174.9 F2400.0
G1 X160.2 Y184.4 E2351.1 F600.0
 G0 X174.9 Y174.9 F2400.0
G1 X158.8 Y181.7 E2356.3 F600.0
 G0 X174.9 Y174.9 F2400.0
G1 X157.9 Y178.7 E2361.6 F600.0
 G0 X174.9 Y174.9 F2400.0
G1 X157.5 Y175.7 E2366.8 F600.0
 G0 X174.9 Y174.9 F2400.0
G1 X157.6 Y172.7 E2372.1 F600.0
 G0 X174.9 Y174.9 F2400.0
G1 X158.2 Y169.7 E2377.3 F600.0
 G0 X174.9 Y174.9 F2400.0
G1 X159.4 Y166.9 E2382.5 F600.0
 G0 X174.9 Y174.9 F2400.0
G1 X161.0 Y164.3 E2387.8 F600.0
 G0 X174.9 Y174.9 F2400.0
G1 X163.1 Y162.1 E2393.0 F600.0
 G0 X174.9 Y174.9 F2400.0
G1 X165.5 Y160.2 E2398.3 F600.0
 G0 X174.9 Y174.9 F2400.0
G1 X168.2 Y158.8 E2403.5 F600.0
 G0 X174.9 Y174.9 F2400.0
G1 X171.1 Y157.9 E2408.8 F600.0
 G0 X174.9 Y174.9 F2400.0
G1 X174.1 Y157.5 E2414.0 F600.0
 G0 X174.9 Y174.9 F2400.0
G1 X177.2 Y157.6 E2419.3 F600.0
 G0 X174.9 Y174.9 F2400.0
G1 X180.2 Y158.2 E2424.5 F600.0
 G0 X174.9 Y174.9 F2400.0
G1 X183.0 Y159.4 E2429.8 F600.0
 G0 X174.9 Y174.9 F2400.0
G1 X185.6 Y161.0 E2435.0 F600.0
 G0 X174.9 Y174.9 F2400.0
G1 X187.8 Y163.1 E2440.3 F600.0
 G0 X174.9 Y174.9 F2400.0
G1 X189.7 Y165.5 E2445.5 F600.0
 G0 X174.9 Y174.9 F2400.0
G1 X191.1 Y168.2 E2450.8 F600.0
 G0 X174.9 Y174.9 F2400.0
G1 X192.0 Y171.1 E2456.0 F600.0
G0  F600.0 Z2.8000004
M117 14.000002 out of 250.0
 G0 X174.9 Y174.9 F2400.0
G1 X192.4 Y174.1 E2461.3 F600.0
 G0 X174.9 Y174.9 F2400.0
G1 X192.3 Y177.1 E2466.5 F600.0
 G0 X174.9 Y174.9 F2400.0
G1 X191.6 Y180.1 E2471.8 F600.0
 G0 X174.9 Y174.9 F2400.0
G1 X190.5 Y182.9 E2477.0 F600.0
 G0 X174.9 Y174.9 F2400.0
G1 X188.9 Y185.5 E2482.3 F600.0
 G0 X174.9 Y174.9 F2400.0
G1 X186.8 Y187.8 E2487.5 F600.0
 G0 X174.9 Y174.9 F2400.0
G1 X184.4 Y189.6 E2492.8 F600.0
 G0 X174.9 Y174.9 F2400.0
G1 X181.7 Y191.1 E2498.0 F600.0
 G0 X174.9 Y174.9 F2400.0
G1 X178.8 Y192.0 E2503.2 F600.0
 G0 X174.9 Y174.9 F2400.0
G1 X175.8 Y192.4 E2508.5 F600.0
 G0 X174.9 Y174.9 F2400.0
G1 X172.7 Y192.3 E2513.7 F600.0
 G0 X174.9 Y174.9 F2400.0
G1 X169.8 Y191.6 E2519.0 F600.0
 G0 X174.9 Y174.9 F2400.0
G1 X166.9 Y190.5 E2524.2 F600.0
 G0 X174.9 Y174.9 F2400.0
G1 X164.4 Y188.9 E2529.5 F600.0
 G0 X174.9 Y174.9 F2400.0
G1 X162.1 Y186.8 E2534.7 F600.0
 G0 X174.9 Y174.9 F2400.0
G1 X160.2 Y184.4 E2540.0 F600.0
 G0 X174.9 Y174.9 F2400.0
G1 X158.8 Y181.7 E2545.2 F600.0
 G0 X174.9 Y174.9 F2400.0
G1 X157.9 Y178.8 E2550.5 F600.0
 G0 X174.9 Y174.9 F2400.0
G1 X157.5 Y175.8 E2555.7 F600.0
 G0 X174.9 Y174.9 F2400.0
G1 X157.6 Y172.7 E2561.0 F600.0
 G0 X174.9 Y174.9 F2400.0
G1 X158.2 Y169.8 E2566.2 F600.0
 G0 X174.9 Y174.9 F2400.0
G1 X159.4 Y166.9 E2571.5 F600.0
 G0 X174.9 Y174.9 F2400.0
G1 X161.0 Y164.4 E2576.7 F600.0
 G0 X174.9 Y174.9 F2400.0
G1 X163.0 Y162.1 E2582.0 F600.0
 G0 X174.9 Y174.9 F2400.0
G1 X165.5 Y160.2 E2587.2 F600.0
 G0 X174.9 Y174.9 F2400.0
G1 X168.2 Y158.8 E2592.5 F600.0
 G0 X174.9 Y174.9 F2400.0
G1 X171.1 Y157.9 E2597.7 F600.0
 G0 X174.9 Y174.9 F2400.0
G1 X174.1 Y157.5 E2603.0 F600.0
 G0 X174.9 Y174.9 F2400.0
G1 X177.1 Y157.6 E2608.2 F600.0
 G0 X174.9 Y174.9 F2400.0
G1 X180.1 Y158.2 E2613.5 F600.0
 G0 X174.9 Y174.9 F2400.0
G1 X182.9 Y159.4 E2618.7 F600.0
 G0 X174.9 Y174.9 F2400.0
G1 X185.5 Y161.0 E2623.9 F600.0
 G0 X174.9 Y174.9 F2400.0
G1 X187.8 Y163.0 E2629.2 F600.0
 G0 X174.9 Y174.9 F2400.0
G1 X189.6 Y165.5 E2634.4 F600.0
 G0 X174.9 Y174.9 F2400.0
G1 X191.1 Y168.2 E2639.7 F600.0
 G0 X174.9 Y174.9 F2400.0
G1 X192.0 Y171.1 E2644.9 F600.0
G0  F600.0 Z3.0000005
M117 15.000002 out of 250.0
 G0 X174.9 Y174.9 F2400.0
G1 X192.4 Y174.0 E2650.2 F600.0
 G0 X174.9 Y174.9 F2400.0
G1 X192.3 Y177.1 E2655.4 F600.0
 G0 X174.9 Y174.9 F2400.0
G1 X191.7 Y180.0 E2660.7 F600.0
 G0 X174.9 Y174.9 F2400.0
G1 X190.5 Y182.9 E2665.9 F600.0
 G0 X174.9 Y174.9 F2400.0
G1 X188.9 Y185.5 E2671.2 F600.0
 G0 X174.9 Y174.9 F2400.0
G1 X186.9 Y187.7 E2676.4 F600.0
 G0 X174.9 Y174.9 F2400.0
G1 X184.5 Y189.6 E2681.7 F600.0
 G0 X174.9 Y174.9 F2400.0
G1 X181.8 Y191.0 E2686.9 F600.0
 G0 X174.9 Y174.9 F2400.0
G1 X178.9 Y192.0 E2692.2 F600.0
 G0 X174.9 Y174.9 F2400.0
G1 X175.8 Y192.4 E2697.4 F600.0
 G0 X174.9 Y174.9 F2400.0
G1 X172.8 Y192.3 E2702.7 F600.0
 G0 X174.9 Y174.9 F2400.0
G1 X169.8 Y191.7 E2707.9 F600.0
 G0 X174.9 Y174.9 F2400.0
G1 X167.0 Y190.5 E2713.2 F600.0
 G0 X174.9 Y174.9 F2400.0
G1 X164.4 Y188.9 E2718.4 F600.0
 G0 X174.9 Y174.9 F2400.0
G1 X162.1 Y186.9 E2723.7 F600.0
 G0 X174.9 Y174.9 F2400.0
G1 X160.3 Y184.5 E2728.9 F600.0
 G0 X174.9 Y174.9 F2400.0
G1 X158.8 Y181.8 E2734.2 F600.0
 G0 X174.9 Y174.9 F2400.0
G1 X157.9 Y178.9 E2739.4 F600.0
 G0 X174.9 Y174.9 F2400.0
G1 X157.5 Y175.8 E2744.7 F600.0
 G0 X174.9 Y174.9 F2400.0
G1 X157.6 Y172.8 E2749.9 F600.0
 G0 X174.9 Y174.9 F2400.0
G1 X158.2 Y169.8 E2755.1 F600.0
 G0 X174.9 Y174.9 F2400.0
G1 X159.3 Y167.0 E2760.4 F600.0
 G0 X174.9 Y174.9 F2400.0
G1 X161.0 Y164.4 E2765.6 F600.0
 G0 X174.9 Y174.9 F2400.0
G1 X163.0 Y162.1 E2770.9 F600.0
 G0 X174.9 Y174.9 F2400.0
G1 X165.4 Y160.3 E2776.1 F600.0
 G0 X174.9 Y174.9 F2400.0
G1 X168.1 Y158.8 E2781.4 F600.0
 G0 X174.9 Y174.9 F2400.0
G1 X171.0 Y157.9 E2786.6 F600.0
 G0 X174.9 Y174.9 F2400.0
G1 X174.0 Y157.5 E2791.9 F600.0
 G0 X174.9 Y174.9 F2400.0
G1 X177.1 Y157.6 E2797.1 F600.0
 G0 X174.9 Y174.9 F2400.0
G1 X180.0 Y158.2 E2802.4 F600.0
 G0 X174.9 Y174.9 F2400.0
G1 X182.9 Y159.3 E2807.6 F600.0
 G0 X174.9 Y174.9 F2400.0
G1 X185.5 Y161.0 E2812.9 F600.0
 G0 X174.9 Y174.9 F2400.0
G1 X187.7 Y163.0 E2818.1 F600.0
 G0 X174.9 Y174.9 F2400.0
G1 X189.6 Y165.4 E2823.4 F600.0
 G0 X174.9 Y174.9 F2400.0
G1 X191.0 Y168.1 E2828.6 F600.0
 G0 X174.9 Y174.9 F2400.0
G1 X192.0 Y171.0 E2833.9 F600.0
G0  F600.0 Z3.2000005
M117 16.000002 out of 250.0
 G0 X174.9 Y174.9 F2400.0
G1 X192.4 Y174.0 E2839.1 F600.0
 G0 X174.9 Y174.9 F2400.0
G1 X192.3 Y177.0 E2844.4 F600.0
 G0 X174.9 Y174.9 F2400.0
G1 X191.7 Y180.0 E2849.6 F600.0
 G0 X174.9 Y174.9 F2400.0
G1 X190.5 Y182.8 E2854.9 F600.0
 G0 X174.9 Y174.9 F2400.0
G1 X188.9 Y185.4 E2860.1 F600.0
 G0 X174.9 Y174.9 F2400.0
G1 X186.9 Y187.7 E2865.4 F600.0
 G0 X174.9 Y174.9 F2400.0
G1 X184.5 Y189.6 E2870.6 F600.0
 G0 X174.9 Y174.9 F2400.0
G1 X181.8 Y191.0 E2875.8 F600.0
 G0 X174.9 Y174.9 F2400.0
G1 X178.9 Y192.0 E2881.1 F600.0
 G0 X174.9 Y174.9 F2400.0
G1 X175.9 Y192.4 E2886.3 F600.0
 G0 X174.9 Y174.9 F2400.0
G1 X172.9 Y192.3 E2891.6 F600.0
 G0 X174.9 Y174.9 F2400.0
G1 X169.9 Y191.7 E2896.8 F600.0
 G0 X174.9 Y174.9 F2400.0
G1 X167.0 Y190.5 E2902.1 F600.0
 G0 X174.9 Y174.9 F2400.0
G1 X164.5 Y188.9 E2907.3 F600.0
 G0 X174.9 Y174.9 F2400.0
G1 X162.2 Y186.9 E2912.6 F600.0
 G0 X174.9 Y174.9 F2400.0
G1 X160.3 Y184.5 E2917.8 F600.0
 G0 X174.9 Y174.9 F2400.0
G1 X158.9 Y181.8 E2923.1 F600.0
 G0 X174.9 Y174.9 F2400.0
G1 X157.9 Y178.9 E2928.3 F600.0
 G0 X174.9 Y174.9 F2400.0
G1 X157.5 Y175.9 E2933.6 F600.0
 G0 X174.9 Y174.9 F2400.0
G1 X157.6 Y172.9 E2938.8 F600.0
 G0 X174.9 Y174.9 F2400.0
G1 X158.2 Y169.9 E2944.1 F600.0
 G0 X174.9 Y174.9 F2400.0
G1 X159.3 Y167.0 E2949.3 F600.0
 G0 X174.9 Y174.9 F2400.0
G1 X160.9 Y164.5 E2954.6 F600.0
 G0 X174.9 Y174.9 F2400.0
G1 X163.0 Y162.2 E2959.8 F600.0
 G0 X174.9 Y174.9 F2400.0
G1 X165.4 Y160.3 E2965.1 F600.0
 G0 X174.9 Y174.9 F2400.0
G1 X168.0 Y158.9 E2970.3 F600.0
 G0 X174.9 Y174.9 F2400.0
G1 X170.9 Y157.9 E2975.6 F600.0
 G0 X174.9 Y174.9 F2400.0
G1 X174.0 Y157.5 E2980.8 F600.0
 G0 X174.9 Y174.9 F2400.0
G1 X177.0 Y157.6 E2986.1 F600.0
 G0 X174.9 Y174.9 F2400.0
G1 X180.0 Y158.2 E2991.3 F600.0
 G0 X174.9 Y174.9 F2400.0
G1 X182.8 Y159.3 E2996.6 F600.0
 G0 X174.9 Y174.9 F2400.0
G1 X185.4 Y160.9 E3001.8 F600.0
 G0 X174.9 Y174.9 F2400.0
G1 X187.7 Y163.0 E3007.0 F600.0
 G0 X174.9 Y174.9 F2400.0
G1 X189.6 Y165.4 E3012.3 F600.0
 G0 X174.9 Y174.9 F2400.0
G1 X191.0 Y168.0 E3017.5 F600.0
 G0 X174.9 Y174.9 F2400.0
G1 X192.0 Y170.9 E3022.8 F600.0
G0  F600.0 Z3.4000006
M117 17.000002 out of 250.0
 G0 X174.9 Y174.9 F2400.0
G1 X192.4 Y173.9 E3028.0 F600.0
 G0 X174.9 Y174.9 F2400.0
G1 X192.3 Y176.9 E3033.3 F600.0
 G0 X174.9 Y174.9 F2400.0
G1 X191.7 Y179.9 E3038.5 F600.0
 G0 X174.9 Y174.9 F2400.0
G1 X190.6 Y182.8 E3043.8 F600.0
 G0 X174.9 Y174.9 F2400.0
G1 X189.0 Y185.4 E3049.0 F600.0
 G0 X174.9 Y174.9 F2400.0
G1 X186.9 Y187.6 E3054.3 F600.0
 G0 X174.9 Y174.9 F2400.0
G1 X184.6 Y189.5 E3059.5 F600.0
 G0 X174.9 Y174.9 F2400.0
G1 X181.9 Y191.0 E3064.8 F600.0
 G0 X174.9 Y174.9 F2400.0
G1 X179.0 Y191.9 E3070.0 F600.0
 G0 X174.9 Y174.9 F2400.0
G1 X176.0 Y192.4 E3075.3 F600.0
 G0 X174.9 Y174.9 F2400.0
G1 X172.9 Y192.3 E3080.5 F600.0
 G0 X174.9 Y174.9 F2400.0
G1 X169.9 Y191.7 E3085.8 F600.0
 G0 X174.9 Y174.9 F2400.0
G1 X167.1 Y190.6 E3091.0 F600.0
 G0 X174.9 Y174.9 F2400.0
G1 X164.5 Y189.0 E3096.3 F600.0
 G0 X174.9 Y174.9 F2400.0
G1 X162.2 Y186.9 E3101.5 F600.0
 G0 X174.9 Y174.9 F2400.0
G1 X160.3 Y184.6 E3106.8 F600.0
 G0 X174.9 Y174.9 F2400.0
G1 X158.9 Y181.9 E3112.0 F600.0
 G0 X174.9 Y174.9 F2400.0
G1 X157.9 Y179.0 E3117.3 F600.0
 G0 X174.9 Y174.9 F2400.0
G1 X157.5 Y176.0 E3122.5 F600.0
 G0 X174.9 Y174.9 F2400.0
G1 X157.6 Y172.9 E3127.7 F600.0
 G0 X174.9 Y174.9 F2400.0
G1 X158.2 Y169.9 E3133.0 F600.0
 G0 X174.9 Y174.9 F2400.0
G1 X159.3 Y167.1 E3138.2 F600.0
 G0 X174.9 Y174.9 F2400.0
G1 X160.9 Y164.5 E3143.5 F600.0
 G0 X174.9 Y174.9 F2400.0
G1 X162.9 Y162.2 E3148.7 F600.0
 G0 X174.9 Y174.9 F2400.0
G1 X165.3 Y160.3 E3154.0 F600.0
 G0 X174.9 Y174.9 F2400.0
G1 X168.0 Y158.9 E3159.2 F600.0
 G0 X174.9 Y174.9 F2400.0
G1 X170.9 Y157.9 E3164.5 F600.0
 G0 X174.9 Y174.9 F2400.0
G1 X173.9 Y157.5 E3169.7 F600.0
 G0 X174.9 Y174.9 F2400.0
G1 X176.9 Y157.6 E3175.0 F600.0
 G0 X174.9 Y174.9 F2400.0
G1 X179.9 Y158.2 E3180.2 F600.0
 G0 X174.9 Y174.9 F2400.0
G1 X182.8 Y159.3 E3185.5 F600.0
 G0 X174.9 Y174.9 F2400.0
G1 X185.4 Y160.9 E3190.7 F600.0
 G0 X174.9 Y174.9 F2400.0
G1 X187.6 Y162.9 E3196.0 F600.0
 G0 X174.9 Y174.9 F2400.0
G1 X189.5 Y165.3 E3201.2 F600.0
 G0 X174.9 Y174.9 F2400.0
G1 X191.0 Y168.0 E3206.5 F600.0
 G0 X174.9 Y174.9 F2400.0
G1 X191.9 Y170.9 E3211.7 F600.0
G0  F600.0 Z3.6000006
M117 18.000002 out of 250.0
 G0 X174.9 Y174.9 F2400.0
G1 X192.4 Y173.8 E3217.0 F600.0
 G0 X174.9 Y174.9 F2400.0
G1 X192.3 Y176.9 E3222.2 F600.0
 G0 X174.9 Y174.9 F2400.0
G1 X191.7 Y179.9 E3227.5 F600.0
 G0 X174.9 Y174.9 F2400.0
G1 X190.6 Y182.7 E3232.7 F600.0
 G0 X174.9 Y174.9 F2400.0
G1 X189.0 Y185.3 E3238.0 F600.0
 G0 X174.9 Y174.9 F2400.0
G1 X187.0 Y187.6 E3243.2 F600.0
 G0 X174.9 Y174.9 F2400.0
G1 X184.6 Y189.5 E3248.4 F600.0
 G0 X174.9 Y174.9 F2400.0
G1 X181.9 Y191.0 E3253.7 F600.0
 G0 X174.9 Y174.9 F2400.0
G1 X179.0 Y191.9 E3258.9 F600.0
 G0 X174.9 Y174.9 F2400.0
G1 X176.0 Y192.4 E3264.2 F600.0
 G0 X174.9 Y174.9 F2400.0
G1 X173.0 Y192.3 E3269.4 F600.0
 G0 X174.9 Y174.9 F2400.0
G1 X170.0 Y191.7 E3274.7 F600.0
 G0 X174.9 Y174.9 F2400.0
G1 X167.2 Y190.6 E3279.9 F600.0
 G0 X174.9 Y174.9 F2400.0
G1 X164.5 Y189.0 E3285.2 F600.0
 G0 X174.9 Y174.9 F2400.0
G1 X162.3 Y187.0 E3290.4 F600.0
 G0 X174.9 Y174.9 F2400.0
G1 X160.4 Y184.6 E3295.7 F600.0
 G0 X174.9 Y174.9 F2400.0
G1 X158.9 Y181.9 E3300.9 F600.0
 G0 X174.9 Y174.9 F2400.0
G1 X157.9 Y179.0 E3306.2 F600.0
 G0 X174.9 Y174.9 F2400.0
G1 X157.5 Y176.0 E3311.4 F600.0
 G0 X174.9 Y174.9 F2400.0
G1 X157.5 Y173.0 E3316.7 F600.0
 G0 X174.9 Y174.9 F2400.0
G1 X158.1 Y170.0 E3321.9 F600.0
 G0 X174.9 Y174.9 F2400.0
G1 X159.3 Y167.2 E3327.2 F600.0
 G0 X174.9 Y174.9 F2400.0
G1 X160.8 Y164.5 E3332.4 F600.0
 G0 X174.9 Y174.9 F2400.0
G1 X162.9 Y162.3 E3337.7 F600.0
 G0 X174.9 Y174.9 F2400.0
G1 X165.2 Y160.4 E3342.9 F600.0
 G0 X174.9 Y174.9 F2400.0
G1 X167.9 Y158.9 E3348.2 F600.0
 G0 X174.9 Y174.9 F2400.0
G1 X170.8 Y157.9 E3353.4 F600.0
 G0 X174.9 Y174.9 F2400.0
G1 X173.8 Y157.5 E3358.7 F600.0
 G0 X174.9 Y174.9 F2400.0
G1 X176.9 Y157.5 E3363.9 F600.0
 G0 X174.9 Y174.9 F2400.0
G1 X179.9 Y158.1 E3369.2 F600.0
 G0 X174.9 Y174.9 F2400.0
G1 X182.7 Y159.3 E3374.4 F600.0
 G0 X174.9 Y174.9 F2400.0
G1 X185.3 Y160.8 E3379.6 F600.0
 G0 X174.9 Y174.9 F2400.0
G1 X187.6 Y162.9 E3384.9 F600.0
 G0 X174.9 Y174.9 F2400.0
G1 X189.5 Y165.2 E3390.1 F600.0
 G0 X174.9 Y174.9 F2400.0
G1 X191.0 Y167.9 E3395.4 F600.0
 G0 X174.9 Y174.9 F2400.0
G1 X191.9 Y170.8 E3400.6 F600.0
G0  F600.0 Z3.8000007
M117 19.000004 out of 250.0
 G0 X174.9 Y174.9 F2400.0
G1 X192.4 Y173.8 E3405.9 F600.0
 G0 X174.9 Y174.9 F2400.0
G1 X192.3 Y176.8 E3411.1 F600.0
 G0 X174.9 Y174.9 F2400.0
G1 X191.7 Y179.8 E3416.4 F600.0
 G0 X174.9 Y174.9 F2400.0
G1 X190.6 Y182.7 E3421.6 F600.0
 G0 X174.9 Y174.9 F2400.0
G1 X189.0 Y185.3 E3426.9 F600.0
 G0 X174.9 Y174.9 F2400.0
G1 X187.0 Y187.6 E3432.1 F600.0
 G0 X174.9 Y174.9 F2400.0
G1 X184.7 Y189.5 E3437.4 F600.0
 G0 X174.9 Y174.9 F2400.0
G1 X182.0 Y190.9 E3442.6 F600.0
 G0 X174.9 Y174.9 F2400.0
G1 X179.1 Y191.9 E3447.9 F600.0
 G0 X174.9 Y174.9 F2400.0
G1 X176.1 Y192.4 E3453.1 F600.0
 G0 X174.9 Y174.9 F2400.0
G1 X173.0 Y192.3 E3458.4 F600.0
 G0 X174.9 Y174.9 F2400.0
G1 X170.0 Y191.7 E3463.6 F600.0
 G0 X174.9 Y174.9 F2400.0
G1 X167.2 Y190.6 E3468.9 F600.0
 G0 X174.9 Y174.9 F2400.0
G1 X164.6 Y189.0 E3474.1 F600.0
 G0 X174.9 Y174.9 F2400.0
G1 X162.3 Y187.0 E3479.4 F600.0
 G0 X174.9 Y174.9 F2400.0
G1 X160.4 Y184.7 E3484.6 F600.0
 G0 X174.9 Y174.9 F2400.0
G1 X158.9 Y182.0 E3489.9 F600.0
 G0 X174.9 Y174.9 F2400.0
G1 X157.9 Y179.1 E3495.1 F600.0
 G0 X174.9 Y174.9 F2400.0
G1 X157.5 Y176.1 E3500.3 F600.0
 G0 X174.9 Y174.9 F2400.0
G1 X157.5 Y173.0 E3505.6 F600.0
 G0 X174.9 Y174.9 F2400.0
G1 X158.1 Y170.0 E3510.8 F600.0
 G0 X174.9 Y174.9 F2400.0
G1 X159.2 Y167.2 E3516.1 F600.0
 G0 X174.9 Y174.9 F2400.0
G1 X160.8 Y164.6 E3521.3 F600.0
 G0 X174.9 Y174.9 F2400.0
G1 X162.8 Y162.3 E3526.6 F600.0
 G0 X174.9 Y174.9 F2400.0
G1 X165.2 Y160.4 E3531.8 F600.0
 G0 X174.9 Y174.9 F2400.0
G1 X167.9 Y158.9 E3537.1 F600.0
 G0 X174.9 Y174.9 F2400.0
G1 X170.8 Y157.9 E3542.3 F600.0
 G0 X174.9 Y174.9 F2400.0
G1 X173.8 Y157.5 E3547.6 F600.0
 G0 X174.9 Y174.9 F2400.0
G1 X176.8 Y157.5 E3552.8 F600.0
 G0 X174.9 Y174.9 F2400.0
G1 X179.8 Y158.1 E3558.1 F600.0
 G0 X174.9 Y174.9 F2400.0
G1 X182.7 Y159.2 E3563.3 F600.0
 G0 X174.9 Y174.9 F2400.0
G1 X185.3 Y160.8 E3568.6 F600.0
 G0 X174.9 Y174.9 F2400.0
G1 X187.6 Y162.8 E3573.8 F600.0
 G0 X174.9 Y174.9 F2400.0
G1 X189.5 Y165.2 E3579.1 F600.0
 G0 X174.9 Y174.9 F2400.0
G1 X190.9 Y167.9 E3584.3 F600.0
 G0 X174.9 Y174.9 F2400.0
G1 X191.9 Y170.8 E3589.6 F600.0
G0  F600.0 Z4.0000005
M117 20.000002 out of 250.0
 G0 X174.9 Y174.9 F2400.0
G1 X192.4 Y173.7 E3594.8 F600.0
 G0 X174.9 Y174.9 F2400.0
G1 X192.3 Y176.8 E3600.1 F600.0
 G0 X174.9 Y174.9 F2400.0
G1 X191.7 Y179.8 E3605.3 F600.0
 G0 X174.9 Y174.9 F2400.0
G1 X190.7 Y182.6 E3610.6 F600.0
 G0 X174.9 Y174.9 F2400.0
G1 X189.1 Y185.2 E3615.8 F600.0
 G0 X174.9 Y174.9 F2400.0
G1 X187.1 Y187.5 E3621.1 F600.0
 G0 X174.9 Y174.9 F2400.0
G1 X184.7 Y189.4 E3626.3 F600.0
 G0 X174.9 Y174.9 F2400.0
G1 X182.0 Y190.9 E3631.5 F600.0
 G0 X174.9 Y174.9 F2400.0
G1 X179.2 Y191.9 E3636.8 F600.0
 G0 X174.9 Y174.9 F2400.0
G1 X176.2 Y192.4 E3642.0 F600.0
 G0 X174.9 Y174.9 F2400.0
G1 X173.1 Y192.3 E3647.3 F600.0
 G0 X174.9 Y174.9 F2400.0
G1 X170.1 Y191.7 E3652.5 F600.0
 G0 X174.9 Y174.9 F2400.0
G1 X167.3 Y190.7 E3657.8 F600.0
 G0 X174.9 Y174.9 F2400.0
G1 X164.6 Y189.1 E3663.0 F600.0
 G0 X174.9 Y174.9 F2400.0
G1 X162.3 Y187.1 E3668.3 F600.0
 G0 X174.9 Y174.9 F2400.0
G1 X160.4 Y184.7 E3673.5 F600.0
 G0 X174.9 Y174.9 F2400.0
G1 X158.9 Y182.0 E3678.8 F600.0
 G0 X174.9 Y174.9 F2400.0
G1 X158.0 Y179.2 E3684.0 F600.0
 G0 X174.9 Y174.9 F2400.0
G1 X157.5 Y176.2 E3689.3 F600.0
 G0 X174.9 Y174.9 F2400.0
G1 X157.5 Y173.1 E3694.5 F600.0
 G0 X174.9 Y174.9 F2400.0
G1 X158.1 Y170.1 E3699.8 F600.0
 G0 X174.9 Y174.9 F2400.0
G1 X159.2 Y167.3 E3705.0 F600.0
 G0 X174.9 Y174.9 F2400.0
G1 X160.8 Y164.6 E3710.3 F600.0
 G0 X174.9 Y174.9 F2400.0
G1 X162.8 Y162.3 E3715.5 F600.0
 G0 X174.9 Y174.9 F2400.0
G1 X165.1 Y160.4 E3720.8 F600.0
 G0 X174.9 Y174.9 F2400.0
G1 X167.8 Y158.9 E3726.0 F600.0
 G0 X174.9 Y174.9 F2400.0
G1 X170.7 Y158.0 E3731.3 F600.0
 G0 X174.9 Y174.9 F2400.0
G1 X173.7 Y157.5 E3736.5 F600.0
 G0 X174.9 Y174.9 F2400.0
G1 X176.8 Y157.5 E3741.8 F600.0
 G0 X174.9 Y174.9 F2400.0
G1 X179.8 Y158.1 E3747.0 F600.0
 G0 X174.9 Y174.9 F2400.0
G1 X182.6 Y159.2 E3752.2 F600.0
 G0 X174.9 Y174.9 F2400.0
G1 X185.2 Y160.8 E3757.5 F600.0
 G0 X174.9 Y174.9 F2400.0
G1 X187.5 Y162.8 E3762.7 F600.0
 G0 X174.9 Y174.9 F2400.0
G1 X189.4 Y165.1 E3768.0 F600.0
 G0 X174.9 Y174.9 F2400.0
G1 X190.9 Y167.8 E3773.2 F600.0
 G0 X174.9 Y174.9 F2400.0
G1 X191.9 Y170.7 E3778.5 F600.0
G0  F600.0 Z4.2000003
M117 21.000002 out of 250.0
 G0 X174.9 Y174.9 F2400.0
G1 X192.4 Y173.6 E3783.7 F600.0
 G0 X174.9 Y174.9 F2400.0
G1 X192.3 Y176.7 E3789.0 F600.0
 G0 X174.9 Y174.9 F2400.0
G1 X191.8 Y179.7 E3794.2 F600.0
 G0 X174.9 Y174.9 F2400.0
G1 X190.7 Y182.5 E3799.5 F600.0
 G0 X174.9 Y174.9 F2400.0
G1 X189.1 Y185.2 E3804.7 F600.0
 G0 X174.9 Y174.9 F2400.0
G1 X187.1 Y187.5 E3810.0 F600.0
 G0 X174.9 Y174.9 F2400.0
G1 X184.8 Y189.4 E3815.2 F600.0
 G0 X174.9 Y174.9 F2400.0
G1 X182.1 Y190.9 E3820.5 F600.0
 G0 X174.9 Y174.9 F2400.0
G1 X179.2 Y191.9 E3825.7 F600.0
 G0 X174.9 Y174.9 F2400.0
G1 X176.2 Y192.4 E3831.0 F600.0
 G0 X174.9 Y174.9 F2400.0
G1 X173.2 Y192.3 E3836.2 F600.0
 G0 X174.9 Y174.9 F2400.0
G1 X170.2 Y191.8 E3841.5 F600.0
 G0 X174.9 Y174.9 F2400.0
G1 X167.3 Y190.7 E3846.7 F600.0
 G0 X174.9 Y174.9 F2400.0
G1 X164.7 Y189.1 E3852.0 F600.0
 G0 X174.9 Y174.9 F2400.0
G1 X162.4 Y187.1 E3857.2 F600.0
 G0 X174.9 Y174.9 F2400.0
G1 X160.5 Y184.8 E3862.5 F600.0
 G0 X174.9 Y174.9 F2400.0
G1 X159.0 Y182.1 E3867.7 F600.0
 G0 X174.9 Y174.9 F2400.0
G1 X158.0 Y179.2 E3872.9 F600.0
 G0 X174.9 Y174.9 F2400.0
G1 X157.5 Y176.2 E3878.2 F600.0
 G0 X174.9 Y174.9 F2400.0
G1 X157.5 Y173.2 E3883.4 F600.0
 G0 X174.9 Y174.9 F2400.0
G1 X158.1 Y170.2 E3888.7 F600.0
 G0 X174.9 Y174.9 F2400.0
G1 X159.2 Y167.3 E3893.9 F600.0
 G0 X174.9 Y174.9 F2400.0
G1 X160.7 Y164.7 E3899.2 F600.0
 G0 X174.9 Y174.9 F2400.0
G1 X162.7 Y162.4 E3904.4 F600.0
 G0 X174.9 Y174.9 F2400.0
G1 X165.1 Y160.5 E3909.7 F600.0
 G0 X174.9 Y174.9 F2400.0
G1 X167.8 Y159.0 E3914.9 F600.0
 G0 X174.9 Y174.9 F2400.0
G1 X170.6 Y158.0 E3920.2 F600.0
 G0 X174.9 Y174.9 F2400.0
G1 X173.6 Y157.5 E3925.4 F600.0
 G0 X174.9 Y174.9 F2400.0
G1 X176.7 Y157.5 E3930.7 F600.0
 G0 X174.9 Y174.9 F2400.0
G1 X179.7 Y158.1 E3935.9 F600.0
 G0 X174.9 Y174.9 F2400.0
G1 X182.5 Y159.2 E3941.2 F600.0
 G0 X174.9 Y174.9 F2400.0
G1 X185.2 Y160.7 E3946.4 F600.0
 G0 X174.9 Y174.9 F2400.0
G1 X187.5 Y162.7 E3951.7 F600.0
 G0 X174.9 Y174.9 F2400.0
G1 X189.4 Y165.1 E3956.9 F600.0
 G0 X174.9 Y174.9 F2400.0
G1 X190.9 Y167.8 E3962.2 F600.0
 G0 X174.9 Y174.9 F2400.0
G1 X191.9 Y170.6 E3967.4 F600.0
G0  F600.0 Z4.4
M117 22.0 out of 250.0
 G0 X174.9 Y174.9 F2400.0
G1 X192.4 Y173.6 E3972.7 F600.0
 G0 X174.9 Y174.9 F2400.0
G1 X192.3 Y176.6 E3977.9 F600.0
 G0 X174.9 Y174.9 F2400.0
G1 X191.8 Y179.6 E3983.2 F600.0
 G0 X174.9 Y174.9 F2400.0
G1 X190.7 Y182.5 E3988.4 F600.0
 G0 X174.9 Y174.9 F2400.0
G1 X189.2 Y185.1 E3993.7 F600.0
 G0 X174.9 Y174.9 F2400.0
G1 X187.2 Y187.4 E3998.9 F600.0
 G0 X174.9 Y174.9 F2400.0
G1 X184.8 Y189.4 E4004.1 F600.0
 G0 X174.9 Y174.9 F2400.0
G1 X182.2 Y190.9 E4009.4 F600.0
 G0 X174.9 Y174.9 F2400.0
G1 X179.3 Y191.9 E4014.6 F600.0
 G0 X174.9 Y174.9 F2400.0
G1 X176.3 Y192.4 E4019.9 F600.0
 G0 X174.9 Y174.9 F2400.0
G1 X173.2 Y192.3 E4025.1 F600.0
 G0 X174.9 Y174.9 F2400.0
G1 X170.2 Y191.8 E4030.4 F600.0
 G0 X174.9 Y174.9 F2400.0
G1 X167.4 Y190.7 E4035.6 F600.0
 G0 X174.9 Y174.9 F2400.0
G1 X164.7 Y189.2 E4040.9 F600.0
 G0 X174.9 Y174.9 F2400.0
G1 X162.4 Y187.2 E4046.1 F600.0
 G0 X174.9 Y174.9 F2400.0
G1 X160.5 Y184.8 E4051.4 F600.0
 G0 X174.9 Y174.9 F2400.0
G1 X159.0 Y182.2 E4056.6 F600.0
 G0 X174.9 Y174.9 F2400.0
G1 X158.0 Y179.3 E4061.9 F600.0
 G0 X174.9 Y174.9 F2400.0
G1 X157.5 Y176.3 E4067.1 F600.0
 G0 X174.9 Y174.9 F2400.0
G1 X157.5 Y173.2 E4072.4 F600.0
 G0 X174.9 Y174.9 F2400.0
G1 X158.1 Y170.2 E4077.6 F600.0
 G0 X174.9 Y174.9 F2400.0
G1 X159.2 Y167.4 E4082.9 F600.0
 G0 X174.9 Y174.9 F2400.0
G1 X160.7 Y164.7 E4088.1 F600.0
 G0 X174.9 Y174.9 F2400.0
G1 X162.7 Y162.4 E4093.4 F600.0
 G0 X174.9 Y174.9 F2400.0
G1 X165.0 Y160.5 E4098.6 F600.0
 G0 X174.9 Y174.9 F2400.0
G1 X167.7 Y159.0 E4103.9 F600.0
 G0 X174.9 Y174.9 F2400.0
G1 X170.6 Y158.0 E4109.1 F600.0
 G0 X174.9 Y174.9 F2400.0
G1 X173.6 Y157.5 E4114.4 F600.0
 G0 X174.9 Y174.9 F2400.0
G1 X176.6 Y157.5 E4119.6 F600.0
 G0 X174.9 Y174.9 F2400.0
G1 X179.6 Y158.1 E4124.8 F600.0
 G0 X174.9 Y174.9 F2400.0
G1 X182.5 Y159.2 E4130.1 F600.0
 G0 X174.9 Y174.9 F2400.0
G1 X185.1 Y160.7 E4135.3 F600.0
 G0 X174.9 Y174.9 F2400.0
G1 X187.4 Y162.7 E4140.6 F600.0
 G0 X174.9 Y174.9 F2400.0
G1 X189.4 Y165.0 E4145.8 F600.0
 G0 X174.9 Y174.9 F2400.0
G1 X190.9 Y167.7 E4151.1 F600.0
 G0 X174.9 Y174.9 F2400.0
G1 X191.9 Y170.6 E4156.3 F600.0
G0  F600.0 Z4.6
M117 23.0 out of 250.0
 G0 X174.9 Y174.9 F2400.0
G1 X192.4 Y173.5 E4161.6 F600.0
 G0 X174.9 Y174.9 F2400.0
G1 X192.3 Y176.6 E4166.8 F600.0
 G0 X174.9 Y174.9 F2400.0
G1 X191.8 Y179.6 E4172.1 F600.0
 G0 X174.9 Y174.9 F2400.0
G1 X190.7 Y182.4 E4177.3 F600.0
 G0 X174.9 Y174.9 F2400.0
G1 X189.2 Y185.1 E4182.6 F600.0
 G0 X174.9 Y174.9 F2400.0
G1 X187.2 Y187.4 E4187.8 F600.0
 G0 X174.9 Y174.9 F2400.0
G1 X184.9 Y189.3 E4193.1 F600.0
 G0 X174.9 Y174.9 F2400.0
G1 X182.2 Y190.8 E4198.3 F600.0
 G0 X174.9 Y174.9 F2400.0
G1 X179.3 Y191.9 E4203.6 F600.0
 G0 X174.9 Y174.9 F2400.0
G1 X176.3 Y192.4 E4208.8 F600.0
 G0 X174.9 Y174.9 F2400.0
G1 X173.3 Y192.3 E4214.1 F600.0
 G0 X174.9 Y174.9 F2400.0
G1 X170.3 Y191.8 E4219.3 F600.0
 G0 X174.9 Y174.9 F2400.0
G1 X167.4 Y190.7 E4224.6 F600.0
 G0 X174.9 Y174.9 F2400.0
G1 X164.8 Y189.2 E4229.8 F600.0
 G0 X174.9 Y174.9 F2400.0
G1 X162.5 Y187.2 E4235.1 F600.0
 G0 X174.9 Y174.9 F2400.0
G1 X160.5 Y184.9 E4240.3 F600.0
 G0 X174.9 Y174.9 F2400.0
G1 X159.0 Y182.2 E4245.6 F600.0
 G0 X174.9 Y174.9 F2400.0
G1 X158.0 Y179.3 E4250.8 F600.0
 G0 X174.9 Y174.9 F2400.0
G1 X157.5 Y176.3 E4256.0 F600.0
 G0 X174.9 Y174.9 F2400.0
G1 X157.5 Y173.3 E4261.3 F600.0
 G0 X174.9 Y174.9 F2400.0
G1 X158.1 Y170.3 E4266.5 F600.0
 G0 X174.9 Y174.9 F2400.0
G1 X159.1 Y167.4 E4271.8 F600.0
 G0 X174.9 Y174.9 F2400.0
G1 X160.7 Y164.8 E4277.0 F600.0
 G0 X174.9 Y174.9 F2400.0
G1 X162.6 Y162.5 E4282.3 F600.0
 G0 X174.9 Y174.9 F2400.0
G1 X165.0 Y160.5 E4287.5 F600.0
 G0 X174.9 Y174.9 F2400.0
G1 X167.6 Y159.0 E4292.8 F600.0
 G0 X174.9 Y174.9 F2400.0
G1 X170.5 Y158.0 E4298.0 F600.0
 G0 X174.9 Y174.9 F2400.0
G1 X173.5 Y157.5 E4303.3 F600.0
 G0 X174.9 Y174.9 F2400.0
G1 X176.6 Y157.5 E4308.5 F600.0
 G0 X174.9 Y174.9 F2400.0
G1 X179.6 Y158.1 E4313.8 F600.0
 G0 X174.9 Y174.9 F2400.0
G1 X182.4 Y159.1 E4319.0 F600.0
 G0 X174.9 Y174.9 F2400.0
G1 X185.1 Y160.7 E4324.3 F600.0
 G0 X174.9 Y174.9 F2400.0
G1 X187.4 Y162.6 E4329.5 F600.0
 G0 X174.9 Y174.9 F2400.0
G1 X189.3 Y165.0 E4334.8 F600.0
 G0 X174.9 Y174.9 F2400.0
G1 X190.8 Y167.6 E4340.0 F600.0
 G0 X174.9 Y174.9 F2400.0
G1 X191.9 Y170.5 E4345.3 F600.0
G0  F600.0 Z4.7999997
M117 23.999998 out of 250.0
 G0 X174.9 Y174.9 F2400.0
G1 X192.4 Y173.5 E4350.5 F600.0
 G0 X174.9 Y174.9 F2400.0
G1 X192.4 Y176.5 E4355.8 F600.0
 G0 X174.9 Y174.9 F2400.0
G1 X191.8 Y179.5 E4361.0 F600.0
 G0 X174.9 Y174.9 F2400.0
G1 X190.8 Y182.4 E4366.3 F600.0
 G0 X174.9 Y174.9 F2400.0
G1 X189.2 Y185.0 E4371.5 F600.0
 G0 X174.9 Y174.9 F2400.0
G1 X187.3 Y187.3 E4376.7 F600.0
 G0 X174.9 Y174.9 F2400.0
G1 X184.9 Y189.3 E4382.0 F600.0
 G0 X174.9 Y174.9 F2400.0
G1 X182.3 Y190.8 E4387.2 F600.0
 G0 X174.9 Y174.9 F2400.0
G1 X179.4 Y191.8 E4392.5 F600.0
 G0 X174.9 Y174.9 F2400.0
G1 X176.4 Y192.4 E4397.7 F600.0
 G0 X174.9 Y174.9 F2400.0
G1 X173.3 Y192.4 E4403.0 F600.0
 G0 X174.9 Y174.9 F2400.0
G1 X170.3 Y191.8 E4408.2 F600.0
 G0 X174.9 Y174.9 F2400.0
G1 X167.5 Y190.8 E4413.5 F600.0
 G0 X174.9 Y174.9 F2400.0
G1 X164.8 Y189.2 E4418.7 F600.0
 G0 X174.9 Y174.9 F2400.0
G1 X162.5 Y187.3 E4424.0 F600.0
 G0 X174.9 Y174.9 F2400.0
G1 X160.6 Y184.9 E4429.2 F600.0
 G0 X174.9 Y174.9 F2400.0
G1 X159.1 Y182.3 E4434.5 F600.0
 G0 X174.9 Y174.9 F2400.0
G1 X158.0 Y179.4 E4439.7 F600.0
 G0 X174.9 Y174.9 F2400.0
G1 X157.5 Y176.4 E4445.0 F600.0
 G0 X174.9 Y174.9 F2400.0
G1 X157.5 Y173.3 E4450.2 F600.0
 G0 X174.9 Y174.9 F2400.0
G1 X158.0 Y170.3 E4455.5 F600.0
 G0 X174.9 Y174.9 F2400.0
G1 X159.1 Y167.5 E4460.7 F600.0
 G0 X174.9 Y174.9 F2400.0
G1 X160.6 Y164.8 E4466.0 F600.0
 G0 X174.9 Y174.9 F2400.0
G1 X162.6 Y162.5 E4471.2 F600.0
 G0 X174.9 Y174.9 F2400.0
G1 X164.9 Y160.6 E4476.5 F600.0
 G0 X174.9 Y174.9 F2400.0
G1 X167.6 Y159.1 E4481.7 F600.0
 G0 X174.9 Y174.9 F2400.0
G1 X170.5 Y158.0 E4487.0 F600.0
 G0 X174.9 Y174.9 F2400.0
G1 X173.5 Y157.5 E4492.2 F600.0
 G0 X174.9 Y174.9 F2400.0
G1 X176.5 Y157.5 E4497.5 F600.0
 G0 X174.9 Y174.9 F2400.0
G1 X179.5 Y158.0 E4502.7 F600.0
 G0 X174.9 Y174.9 F2400.0
G1 X182.4 Y159.1 E4507.9 F600.0
 G0 X174.9 Y174.9 F2400.0
G1 X185.0 Y160.6 E4513.2 F600.0
 G0 X174.9 Y174.9 F2400.0
G1 X187.3 Y162.6 E4518.4 F600.0
 G0 X174.9 Y174.9 F2400.0
G1 X189.3 Y164.9 E4523.7 F600.0
 G0 X174.9 Y174.9 F2400.0
G1 X190.8 Y167.6 E4528.9 F600.0
 G0 X174.9 Y174.9 F2400.0
G1 X191.8 Y170.5 E4534.2 F600.0
G0  F600.0 Z4.9999995
M117 24.999998 out of 250.0
 G0 X174.9 Y174.9 F2400.0
G1 X192.4 Y173.4 E4539.4 F600.0
 G0 X174.9 Y174.9 F2400.0
G1 X192.4 Y176.5 E4544.7 F600.0
 G0 X174.9 Y174.9 F2400.0
G1 X191.8 Y179.5 E4549.9 F600.0
 G0 X174.9 Y174.9 F2400.0
G1 X190.8 Y182.3 E4555.2 F600.0
 G0 X174.9 Y174.9 F2400.0
G1 X189.3 Y185.0 E4560.4 F600.0
 G0 X174.9 Y174.9 F2400.0
G1 X187.3 Y187.3 E4565.7 F600.0
 G0 X174.9 Y174.9 F2400.0
G1 X185.0 Y189.3 E4570.9 F600.0
 G0 X174.9 Y174.9 F2400.0
G1 X182.3 Y190.8 E4576.2 F600.0
 G0 X174.9 Y174.9 F2400.0
G1 X179.5 Y191.8 E4581.4 F600.0
 G0 X174.9 Y174.9 F2400.0
G1 X176.5 Y192.4 E4586.7 F600.0
 G0 X174.9 Y174.9 F2400.0
G1 X173.4 Y192.4 E4591.9 F600.0
 G0 X174.9 Y174.9 F2400.0
G1 X170.4 Y191.8 E4597.2 F600.0
 G0 X174.9 Y174.9 F2400.0
G1 X167.5 Y190.8 E4602.4 F600.0
 G0 X174.9 Y174.9 F2400.0
G1 X164.9 Y189.3 E4607.7 F600.0
 G0 X174.9 Y174.9 F2400.0
G1 X162.6 Y187.3 E4612.9 F600.0
 G0 X174.9 Y174.9 F2400.0
G1 X160.6 Y185.0 E4618.2 F600.0
 G0 X174.9 Y174.9 F2400.0
G1 X159.1 Y182.3 E4623.4 F600.0
 G0 X174.9 Y174.9 F2400.0
G1 X158.0 Y179.5 E4628.6 F600.0
 G0 X174.9 Y174.9 F2400.0
G1 X157.5 Y176.5 E4633.9 F600.0
 G0 X174.9 Y174.9 F2400.0
G1 X157.5 Y173.4 E4639.1 F600.0
 G0 X174.9 Y174.9 F2400.0
G1 X158.0 Y170.4 E4644.4 F600.0
 G0 X174.9 Y174.9 F2400.0
G1 X159.1 Y167.5 E4649.6 F600.0
 G0 X174.9 Y174.9 F2400.0
G1 X160.6 Y164.9 E4654.9 F600.0
 G0 X174.9 Y174.9 F2400.0
G1 X162.6 Y162.6 E4660.1 F600.0
 G0 X174.9 Y174.9 F2400.0
G1 X164.9 Y160.6 E4665.4 F600.0
 G0 X174.9 Y174.9 F2400.0
G1 X167.5 Y159.1 E4670.6 F600.0
 G0 X174.9 Y174.9 F2400.0
G1 X170.4 Y158.0 E4675.9 F600.0
 G0 X174.9 Y174.9 F2400.0
G1 X173.4 Y157.5 E4681.1 F600.0
 G0 X174.9 Y174.9 F2400.0
G1 X176.5 Y157.5 E4686.4 F600.0
 G0 X174.9 Y174.9 F2400.0
G1 X179.5 Y158.0 E4691.6 F600.0
 G0 X174.9 Y174.9 F2400.0
G1 X182.3 Y159.1 E4696.9 F600.0
 G0 X174.9 Y174.9 F2400.0
G1 X185.0 Y160.6 E4702.1 F600.0
 G0 X174.9 Y174.9 F2400.0
G1 X187.3 Y162.6 E4707.4 F600.0
 G0 X174.9 Y174.9 F2400.0
G1 X189.3 Y164.9 E4712.6 F600.0
 G0 X174.9 Y174.9 F2400.0
G1 X190.8 Y167.5 E4717.9 F600.0
 G0 X174.9 Y174.9 F2400.0
G1 X191.8 Y170.4 E4723.1 F600.0
G0  F600.0 Z5.1999993
M117 25.999996 out of 250.0
 G0 X174.9 Y174.9 F2400.0
G1 X192.4 Y173.3 E4728.4 F600.0
 G0 X174.9 Y174.9 F2400.0
G1 X192.4 Y176.4 E4733.6 F600.0
 G0 X174.9 Y174.9 F2400.0
G1 X191.8 Y179.4 E4738.9 F600.0
 G0 X174.9 Y174.9 F2400.0
G1 X190.8 Y182.3 E4744.1 F600.0
 G0 X174.9 Y174.9 F2400.0
G1 X189.3 Y184.9 E4749.3 F600.0
 G0 X174.9 Y174.9 F2400.0
G1 X187.3 Y187.3 E4754.6 F600.0
 G0 X174.9 Y174.9 F2400.0
G1 X185.0 Y189.2 E4759.8 F600.0
 G0 X174.9 Y174.9 F2400.0
G1 X182.4 Y190.8 E4765.1 F600.0
 G0 X174.9 Y174.9 F2400.0
G1 X179.5 Y191.8 E4770.3 F600.0
 G0 X174.9 Y174.9 F2400.0
G1 X176.5 Y192.4 E4775.6 F600.0
 G0 X174.9 Y174.9 F2400.0
G1 X173.5 Y192.4 E4780.8 F600.0
 G0 X174.9 Y174.9 F2400.0
G1 X170.5 Y191.8 E4786.1 F600.0
 G0 X174.9 Y174.9 F2400.0
G1 X167.6 Y190.8 E4791.3 F600.0
 G0 X174.9 Y174.9 F2400.0
G1 X164.9 Y189.3 E4796.6 F600.0
 G0 X174.9 Y174.9 F2400.0
G1 X162.6 Y187.3 E4801.8 F600.0
 G0 X174.9 Y174.9 F2400.0
G1 X160.6 Y185.0 E4807.1 F600.0
 G0 X174.9 Y174.9 F2400.0
G1 X159.1 Y182.4 E4812.3 F600.0
 G0 X174.9 Y174.9 F2400.0
G1 X158.0 Y179.5 E4817.6 F600.0
 G0 X174.9 Y174.9 F2400.0
G1 X157.5 Y176.5 E4822.8 F600.0
 G0 X174.9 Y174.9 F2400.0
G1 X157.5 Y173.5 E4828.1 F600.0
 G0 X174.9 Y174.9 F2400.0
G1 X158.0 Y170.5 E4833.3 F600.0
 G0 X174.9 Y174.9 F2400.0
G1 X159.1 Y167.6 E4838.6 F600.0
 G0 X174.9 Y174.9 F2400.0
G1 X160.6 Y164.9 E4843.8 F600.0
 G0 X174.9 Y174.9 F2400.0
G1 X162.5 Y162.6 E4849.1 F600.0
 G0 X174.9 Y174.9 F2400.0
G1 X164.8 Y160.6 E4854.3 F600.0
 G0 X174.9 Y174.9 F2400.0
G1 X167.5 Y159.1 E4859.6 F600.0
 G0 X174.9 Y174.9 F2400.0
G1 X170.3 Y158.0 E4864.8 F600.0
 G0 X174.9 Y174.9 F2400.0
G1 X173.3 Y157.5 E4870.1 F600.0
 G0 X174.9 Y174.9 F2400.0
G1 X176.4 Y157.5 E4875.3 F600.0
 G0 X174.9 Y174.9 F2400.0
G1 X179.4 Y158.0 E4880.5 F600.0
 G0 X174.9 Y174.9 F2400.0
G1 X182.3 Y159.1 E4885.8 F600.0
 G0 X174.9 Y174.9 F2400.0
G1 X184.9 Y160.6 E4891.0 F600.0
 G0 X174.9 Y174.9 F2400.0
G1 X187.3 Y162.5 E4896.3 F600.0
 G0 X174.9 Y174.9 F2400.0
G1 X189.2 Y164.8 E4901.5 F600.0
 G0 X174.9 Y174.9 F2400.0
G1 X190.8 Y167.5 E4906.8 F600.0
 G0 X174.9 Y174.9 F2400.0
G1 X191.8 Y170.3 E4912.0 F600.0
G0  F600.0 Z5.399999
M117 26.999996 out of 250.0
 G0 X174.9 Y174.9 F2400.0
G1 X192.3 Y173.3 E4917.3 F600.0
 G0 X174.9 Y174.9 F2400.0
G1 X192.4 Y176.3 E4922.5 F600.0
 G0 X174.9 Y174.9 F2400.0
G1 X191.9 Y179.3 E4927.8 F600.0
 G0 X174.9 Y174.9 F2400.0
G1 X190.8 Y182.2 E4933.0 F600.0
 G0 X174.9 Y174.9 F2400.0
G1 X189.3 Y184.9 E4938.3 F600.0
 G0 X174.9 Y174.9 F2400.0
G1 X187.4 Y187.2 E4943.5 F600.0
 G0 X174.9 Y174.9 F2400.0
G1 X185.1 Y189.2 E4948.8 F600.0
 G0 X174.9 Y174.9 F2400.0
G1 X182.4 Y190.7 E4954.0 F600.0
 G0 X174.9 Y174.9 F2400.0
G1 X179.6 Y191.8 E4959.3 F600.0
 G0 X174.9 Y174.9 F2400.0
G1 X176.6 Y192.3 E4964.5 F600.0
 G0 X174.9 Y174.9 F2400.0
G1 X173.5 Y192.4 E4969.8 F600.0
 G0 X174.9 Y174.9 F2400.0
G1 X170.5 Y191.9 E4975.0 F600.0
 G0 X174.9 Y174.9 F2400.0
G1 X167.6 Y190.8 E4980.3 F600.0
 G0 X174.9 Y174.9 F2400.0
G1 X165.0 Y189.3 E4985.5 F600.0
 G0 X174.9 Y174.9 F2400.0
G1 X162.6 Y187.4 E4990.8 F600.0
 G0 X174.9 Y174.9 F2400.0
G1 X160.7 Y185.1 E4996.0 F600.0
 G0 X174.9 Y174.9 F2400.0
G1 X159.1 Y182.4 E5001.2 F600.0
 G0 X174.9 Y174.9 F2400.0
G1 X158.1 Y179.6 E5006.5 F600.0
 G0 X174.9 Y174.9 F2400.0
G1 X157.5 Y176.6 E5011.7 F600.0
 G0 X174.9 Y174.9 F2400.0
G1 X157.5 Y173.5 E5017.0 F600.0
 G0 X174.9 Y174.9 F2400.0
G1 X158.0 Y170.5 E5022.2 F600.0
 G0 X174.9 Y174.9 F2400.0
G1 X159.0 Y167.6 E5027.5 F600.0
 G0 X174.9 Y174.9 F2400.0
G1 X160.5 Y165.0 E5032.7 F600.0
 G0 X174.9 Y174.9 F2400.0
G1 X162.5 Y162.6 E5038.0 F600.0
 G0 X174.9 Y174.9 F2400.0
G1 X164.8 Y160.7 E5043.2 F600.0
 G0 X174.9 Y174.9 F2400.0
G1 X167.4 Y159.1 E5048.5 F600.0
 G0 X174.9 Y174.9 F2400.0
G1 X170.3 Y158.1 E5053.7 F600.0
 G0 X174.9 Y174.9 F2400.0
G1 X173.3 Y157.5 E5059.0 F600.0
 G0 X174.9 Y174.9 F2400.0
G1 X176.3 Y157.5 E5064.2 F600.0
 G0 X174.9 Y174.9 F2400.0
G1 X179.3 Y158.0 E5069.5 F600.0
 G0 X174.9 Y174.9 F2400.0
G1 X182.2 Y159.0 E5074.7 F600.0
 G0 X174.9 Y174.9 F2400.0
G1 X184.9 Y160.5 E5080.0 F600.0
 G0 X174.9 Y174.9 F2400.0
G1 X187.2 Y162.5 E5085.2 F600.0
 G0 X174.9 Y174.9 F2400.0
G1 X189.2 Y164.8 E5090.5 F600.0
 G0 X174.9 Y174.9 F2400.0
G1 X190.7 Y167.4 E5095.7 F600.0
 G0 X174.9 Y174.9 F2400.0
G1 X191.8 Y170.3 E5101.0 F600.0
G0  F600.0 Z5.599999
M117 27.999994 out of 250.0
 G0 X174.9 Y174.9 F2400.0
G1 X192.3 Y173.2 E5106.2 F600.0
 G0 X174.9 Y174.9 F2400.0
G1 X192.4 Y176.3 E5111.5 F600.0
 G0 X174.9 Y174.9 F2400.0
G1 X191.9 Y179.3 E5116.7 F600.0
 G0 X174.9 Y174.9 F2400.0
G1 X190.9 Y182.2 E5122.0 F600.0
 G0 X174.9 Y174.9 F2400.0
G1 X189.4 Y184.8 E5127.2 F600.0
 G0 X174.9 Y174.9 F2400.0
G1 X187.4 Y187.2 E5132.4 F600.0
 G0 X174.9 Y174.9 F2400.0
G1 X185.1 Y189.2 E5137.7 F600.0
 G0 X174.9 Y174.9 F2400.0
G1 X182.5 Y190.7 E5142.9 F600.0
 G0 X174.9 Y174.9 F2400.0
G1 X179.6 Y191.8 E5148.2 F600.0
 G0 X174.9 Y174.9 F2400.0
G1 X176.6 Y192.3 E5153.4 F600.0
 G0 X174.9 Y174.9 F2400.0
G1 X173.6 Y192.4 E5158.7 F600.0
 G0 X174.9 Y174.9 F2400.0
G1 X170.6 Y191.9 E5163.9 F600.0
 G0 X174.9 Y174.9 F2400.0
G1 X167.7 Y190.9 E5169.2 F600.0
 G0 X174.9 Y174.9 F2400.0
G1 X165.0 Y189.4 E5174.4 F600.0
 G0 X174.9 Y174.9 F2400.0
G1 X162.7 Y187.4 E5179.7 F600.0
 G0 X174.9 Y174.9 F2400.0
G1 X160.7 Y185.1 E5184.9 F600.0
 G0 X174.9 Y174.9 F2400.0
G1 X159.2 Y182.5 E5190.2 F600.0
 G0 X174.9 Y174.9 F2400.0
G1 X158.1 Y179.6 E5195.4 F600.0
 G0 X174.9 Y174.9 F2400.0
G1 X157.5 Y176.6 E5200.7 F600.0
 G0 X174.9 Y174.9 F2400.0
G1 X157.5 Y173.6 E5205.9 F600.0
 G0 X174.9 Y174.9 F2400.0
G1 X158.0 Y170.6 E5211.2 F600.0
 G0 X174.9 Y174.9 F2400.0
G1 X159.0 Y167.7 E5216.4 F600.0
 G0 X174.9 Y174.9 F2400.0
G1 X160.5 Y165.0 E5221.7 F600.0
 G0 X174.9 Y174.9 F2400.0
G1 X162.4 Y162.7 E5226.9 F600.0
 G0 X174.9 Y174.9 F2400.0
G1 X164.7 Y160.7 E5232.2 F600.0
 G0 X174.9 Y174.9 F2400.0
G1 X167.4 Y159.2 E5237.4 F600.0
 G0 X174.9 Y174.9 F2400.0
G1 X170.2 Y158.1 E5242.7 F600.0
 G0 X174.9 Y174.9 F2400.0
G1 X173.2 Y157.5 E5247.9 F600.0
 G0 X174.9 Y174.9 F2400.0
G1 X176.3 Y157.5 E5253.1 F600.0
 G0 X174.9 Y174.9 F2400.0
G1 X179.3 Y158.0 E5258.4 F600.0
 G0 X174.9 Y174.9 F2400.0
G1 X182.2 Y159.0 E5263.6 F600.0
 G0 X174.9 Y174.9 F2400.0
G1 X184.8 Y160.5 E5268.9 F600.0
 G0 X174.9 Y174.9 F2400.0
G1 X187.2 Y162.4 E5274.1 F600.0
 G0 X174.9 Y174.9 F2400.0
G1 X189.2 Y164.7 E5279.4 F600.0
 G0 X174.9 Y174.9 F2400.0
G1 X190.7 Y167.4 E5284.6 F600.0
 G0 X174.9 Y174.9 F2400.0
G1 X191.8 Y170.2 E5289.9 F600.0
G0  F600.0 Z5.7999988
M117 28.999994 out of 250.0
 G0 X174.9 Y174.9 F2400.0
G1 X192.3 Y173.2 E5295.1 F600.0
 G0 X174.9 Y174.9 F2400.0
G1 X192.4 Y176.2 E5300.4 F600.0
 G0 X174.9 Y174.9 F2400.0
G1 X191.9 Y179.2 E5305.6 F600.0
 G0 X174.9 Y174.9 F2400.0
G1 X190.9 Y182.1 E5310.9 F600.0
 G0 X174.9 Y174.9 F2400.0
G1 X189.4 Y184.8 E5316.1 F600.0
 G0 X174.9 Y174.9 F2400.0
G1 X187.5 Y187.1 E5321.4 F600.0
 G0 X174.9 Y174.9 F2400.0
G1 X185.2 Y189.1 E5326.6 F600.0
 G0 X174.9 Y174.9 F2400.0
G1 X182.5 Y190.7 E5331.9 F600.0
 G0 X174.9 Y174.9 F2400.0
G1 X179.7 Y191.8 E5337.1 F600.0
 G0 X174.9 Y174.9 F2400.0
G1 X176.7 Y192.3 E5342.4 F600.0
 G0 X174.9 Y174.9 F2400.0
G1 X173.6 Y192.4 E5347.6 F600.0
 G0 X174.9 Y174.9 F2400.0
G1 X170.6 Y191.9 E5352.9 F600.0
 G0 X174.9 Y174.9 F2400.0
G1 X167.8 Y190.9 E5358.1 F600.0
 G0 X174.9 Y174.9 F2400.0
G1 X165.1 Y189.4 E5363.4 F600.0
 G0 X174.9 Y174.9 F2400.0
G1 X162.7 Y187.5 E5368.6 F600.0
 G0 X174.9 Y174.9 F2400.0
G1 X160.7 Y185.2 E5373.8 F600.0
 G0 X174.9 Y174.9 F2400.0
G1 X159.2 Y182.5 E5379.1 F600.0
 G0 X174.9 Y174.9 F2400.0
G1 X158.1 Y179.7 E5384.3 F600.0
 G0 X174.9 Y174.9 F2400.0
G1 X157.5 Y176.7 E5389.6 F600.0
 G0 X174.9 Y174.9 F2400.0
G1 X157.5 Y173.6 E5394.8 F600.0
 G0 X174.9 Y174.9 F2400.0
G1 X158.0 Y170.6 E5400.1 F600.0
 G0 X174.9 Y174.9 F2400.0
G1 X159.0 Y167.8 E5405.3 F600.0
 G0 X174.9 Y174.9 F2400.0
G1 X160.5 Y165.1 E5410.6 F600.0
 G0 X174.9 Y174.9 F2400.0
G1 X162.4 Y162.7 E5415.8 F600.0
 G0 X174.9 Y174.9 F2400.0
G1 X164.7 Y160.7 E5421.1 F600.0
 G0 X174.9 Y174.9 F2400.0
G1 X167.3 Y159.2 E5426.3 F600.0
 G0 X174.9 Y174.9 F2400.0
G1 X170.2 Y158.1 E5431.6 F600.0
 G0 X174.9 Y174.9 F2400.0
G1 X173.2 Y157.5 E5436.8 F600.0
 G0 X174.9 Y174.9 F2400.0
G1 X176.2 Y157.5 E5442.1 F600.0
 G0 X174.9 Y174.9 F2400.0
G1 X179.2 Y158.0 E5447.3 F600.0
 G0 X174.9 Y174.9 F2400.0
G1 X182.1 Y159.0 E5452.6 F600.0
 G0 X174.9 Y174.9 F2400.0
G1 X184.8 Y160.5 E5457.8 F600.0
 G0 X174.9 Y174.9 F2400.0
G1 X187.1 Y162.4 E5463.1 F600.0
 G0 X174.9 Y174.9 F2400.0
G1 X189.1 Y164.7 E5468.3 F600.0
 G0 X174.9 Y174.9 F2400.0
G1 X190.7 Y167.3 E5473.6 F600.0
 G0 X174.9 Y174.9 F2400.0
G1 X191.8 Y170.2 E5478.8 F600.0
G0  F600.0 Z5.9999986
M117 29.999992 out of 250.0
 G0 X174.9 Y174.9 F2400.0
G1 X192.3 Y173.1 E5484.1 F600.0
 G0 X174.9 Y174.9 F2400.0
G1 X192.4 Y176.2 E5489.3 F600.0
 G0 X174.9 Y174.9 F2400.0
G1 X191.9 Y179.2 E5494.6 F600.0
 G0 X174.9 Y174.9 F2400.0
G1 X190.9 Y182.0 E5499.8 F600.0
 G0 X174.9 Y174.9 F2400.0
G1 X189.4 Y184.7 E5505.0 F600.0
 G0 X174.9 Y174.9 F2400.0
G1 X187.5 Y187.1 E5510.3 F600.0
 G0 X174.9 Y174.9 F2400.0
G1 X185.2 Y189.1 E5515.5 F600.0
 G0 X174.9 Y174.9 F2400.0
G1 X182.6 Y190.7 E5520.8 F600.0
 G0 X174.9 Y174.9 F2400.0
G1 X179.8 Y191.7 E5526.0 F600.0
 G0 X174.9 Y174.9 F2400.0
G1 X176.8 Y192.3 E5531.3 F600.0
 G0 X174.9 Y174.9 F2400.0
G1 X173.7 Y192.4 E5536.5 F600.0
 G0 X174.9 Y174.9 F2400.0
G1 X170.7 Y191.9 E5541.8 F600.0
 G0 X174.9 Y174.9 F2400.0
G1 X167.8 Y190.9 E5547.0 F600.0
 G0 X174.9 Y174.9 F2400.0
G1 X165.1 Y189.4 E5552.3 F600.0
 G0 X174.9 Y174.9 F2400.0
G1 X162.8 Y187.5 E5557.5 F600.0
 G0 X174.9 Y174.9 F2400.0
G1 X160.8 Y185.2 E5562.8 F600.0
 G0 X174.9 Y174.9 F2400.0
G1 X159.2 Y182.6 E5568.0 F600.0
 G0 X174.9 Y174.9 F2400.0
G1 X158.1 Y179.8 E5573.3 F600.0
 G0 X174.9 Y174.9 F2400.0
G1 X157.5 Y176.8 E5578.5 F600.0
 G0 X174.9 Y174.9 F2400.0
G1 X157.5 Y173.7 E5583.8 F600.0
 G0 X174.9 Y174.9 F2400.0
G1 X158.0 Y170.7 E5589.0 F600.0
 G0 X174.9 Y174.9 F2400.0
G1 X158.9 Y167.8 E5594.3 F600.0
 G0 X174.9 Y174.9 F2400.0
G1 X160.4 Y165.1 E5599.5 F600.0
 G0 X174.9 Y174.9 F2400.0
G1 X162.3 Y162.8 E5604.8 F600.0
 G0 X174.9 Y174.9 F2400.0
G1 X164.6 Y160.8 E5610.0 F600.0
 G0 X174.9 Y174.9 F2400.0
G1 X167.3 Y159.2 E5615.3 F600.0
 G0 X174.9 Y174.9 F2400.0
G1 X170.1 Y158.1 E5620.5 F600.0
 G0 X174.9 Y174.9 F2400.0
G1 X173.1 Y157.5 E5625.7 F600.0
 G0 X174.9 Y174.9 F2400.0
G1 X176.2 Y157.5 E5631.0 F600.0
 G0 X174.9 Y174.9 F2400.0
G1 X179.2 Y158.0 E5636.2 F600.0
 G0 X174.9 Y174.9 F2400.0
G1 X182.0 Y158.9 E5641.5 F600.0
 G0 X174.9 Y174.9 F2400.0
G1 X184.7 Y160.4 E5646.7 F600.0
 G0 X174.9 Y174.9 F2400.0
G1 X187.1 Y162.3 E5652.0 F600.0
 G0 X174.9 Y174.9 F2400.0
G1 X189.1 Y164.6 E5657.2 F600.0
 G0 X174.9 Y174.9 F2400.0
G1 X190.7 Y167.3 E5662.5 F600.0
 G0 X174.9 Y174.9 F2400.0
G1 X191.7 Y170.1 E5667.7 F600.0
G0  F600.0 Z6.1999984
M117 30.999992 out of 250.0
 G0 X174.9 Y174.9 F2400.0
G1 X192.3 Y173.0 E5673.0 F600.0
 G0 X174.9 Y174.9 F2400.0
G1 X192.4 Y176.1 E5678.2 F600.0
 G0 X174.9 Y174.9 F2400.0
G1 X191.9 Y179.1 E5683.5 F600.0
 G0 X174.9 Y174.9 F2400.0
G1 X190.9 Y182.0 E5688.7 F600.0
 G0 X174.9 Y174.9 F2400.0
G1 X189.5 Y184.7 E5694.0 F600.0
 G0 X174.9 Y174.9 F2400.0
G1 X187.6 Y187.0 E5699.2 F600.0
 G0 X174.9 Y174.9 F2400.0
G1 X185.3 Y189.0 E5704.5 F600.0
 G0 X174.9 Y174.9 F2400.0
G1 X182.7 Y190.6 E5709.7 F600.0
 G0 X174.9 Y174.9 F2400.0
G1 X179.8 Y191.7 E5715.0 F600.0
 G0 X174.9 Y174.9 F2400.0
G1 X176.8 Y192.3 E5720.2 F600.0
 G0 X174.9 Y174.9 F2400.0
G1 X173.8 Y192.4 E5725.5 F600.0
 G0 X174.9 Y174.9 F2400.0
G1 X170.8 Y191.9 E5730.7 F600.0
 G0 X174.9 Y174.9 F2400.0
G1 X167.9 Y190.9 E5736.0 F600.0
 G0 X174.9 Y174.9 F2400.0
G1 X165.2 Y189.5 E5741.2 F600.0
 G0 X174.9 Y174.9 F2400.0
G1 X162.8 Y187.6 E5746.5 F600.0
 G0 X174.9 Y174.9 F2400.0
G1 X160.8 Y185.3 E5751.7 F600.0
 G0 X174.9 Y174.9 F2400.0
G1 X159.2 Y182.7 E5756.9 F600.0
 G0 X174.9 Y174.9 F2400.0
G1 X158.1 Y179.8 E5762.2 F600.0
 G0 X174.9 Y174.9 F2400.0
G1 X157.5 Y176.8 E5767.4 F600.0
 G0 X174.9 Y174.9 F2400.0
G1 X157.5 Y173.8 E5772.7 F600.0
 G0 X174.9 Y174.9 F2400.0
G1 X157.9 Y170.8 E5777.9 F600.0
 G0 X174.9 Y174.9 F2400.0
G1 X158.9 Y167.9 E5783.2 F600.0
 G0 X174.9 Y174.9 F2400.0
G1 X160.4 Y165.2 E5788.4 F600.0
 G0 X174.9 Y174.9 F2400.0
G1 X162.3 Y162.8 E5793.7 F600.0
 G0 X174.9 Y174.9 F2400.0
G1 X164.6 Y160.8 E5798.9 F600.0
 G0 X174.9 Y174.9 F2400.0
G1 X167.2 Y159.2 E5804.2 F600.0
 G0 X174.9 Y174.9 F2400.0
G1 X170.0 Y158.1 E5809.4 F600.0
 G0 X174.9 Y174.9 F2400.0
G1 X173.0 Y157.5 E5814.7 F600.0
 G0 X174.9 Y174.9 F2400.0
G1 X176.1 Y157.5 E5819.9 F600.0
 G0 X174.9 Y174.9 F2400.0
G1 X179.1 Y157.9 E5825.2 F600.0
 G0 X174.9 Y174.9 F2400.0
G1 X182.0 Y158.9 E5830.4 F600.0
 G0 X174.9 Y174.9 F2400.0
G1 X184.7 Y160.4 E5835.7 F600.0
 G0 X174.9 Y174.9 F2400.0
G1 X187.0 Y162.3 E5840.9 F600.0
 G0 X174.9 Y174.9 F2400.0
G1 X189.0 Y164.6 E5846.2 F600.0
 G0 X174.9 Y174.9 F2400.0
G1 X190.6 Y167.2 E5851.4 F600.0
 G0 X174.9 Y174.9 F2400.0
G1 X191.7 Y170.0 E5856.7 F600.0
G0  F600.0 Z6.399998
M117 31.99999 out of 250.0
 G0 X174.9 Y174.9 F2400.0
G1 X192.3 Y173.0 E5861.9 F600.0
 G0 X174.9 Y174.9 F2400.0
G1 X192.4 Y176.0 E5867.2 F600.0
 G0 X174.9 Y174.9 F2400.0
G1 X191.9 Y179.0 E5872.4 F600.0
 G0 X174.9 Y174.9 F2400.0
G1 X191.0 Y181.9 E5877.6 F600.0
 G0 X174.9 Y174.9 F2400.0
G1 X189.5 Y184.6 E5882.9 F600.0
 G0 X174.9 Y174.9 F2400.0
G1 X187.6 Y187.0 E5888.1 F600.0
 G0 X174.9 Y174.9 F2400.0
G1 X185.3 Y189.0 E5893.4 F600.0
 G0 X174.9 Y174.9 F2400.0
G1 X182.7 Y190.6 E5898.6 F600.0
 G0 X174.9 Y174.9 F2400.0
G1 X179.9 Y191.7 E5903.9 F600.0
 G0 X174.9 Y174.9 F2400.0
G1 X176.9 Y192.3 E5909.1 F600.0
 G0 X174.9 Y174.9 F2400.0
G1 X173.8 Y192.4 E5914.4 F600.0
 G0 X174.9 Y174.9 F2400.0
G1 X170.8 Y191.9 E5919.6 F600.0
 G0 X174.9 Y174.9 F2400.0
G1 X167.9 Y191.0 E5924.9 F600.0
 G0 X174.9 Y174.9 F2400.0
G1 X165.2 Y189.5 E5930.1 F600.0
 G0 X174.9 Y174.9 F2400.0
G1 X162.9 Y187.6 E5935.4 F600.0
 G0 X174.9 Y174.9 F2400.0
G1 X160.8 Y185.3 E5940.6 F600.0
 G0 X174.9 Y174.9 F2400.0
G1 X159.3 Y182.7 E5945.9 F600.0
 G0 X174.9 Y174.9 F2400.0
G1 X158.1 Y179.9 E5951.1 F600.0
 G0 X174.9 Y174.9 F2400.0
G1 X157.5 Y176.9 E5956.4 F600.0
 G0 X174.9 Y174.9 F2400.0
G1 X157.5 Y173.8 E5961.6 F600.0
 G0 X174.9 Y174.9 F2400.0
G1 X157.9 Y170.8 E5966.9 F600.0
 G0 X174.9 Y174.9 F2400.0
G1 X158.9 Y167.9 E5972.1 F600.0
 G0 X174.9 Y174.9 F2400.0
G1 X160.4 Y165.2 E5977.4 F600.0
 G0 X174.9 Y174.9 F2400.0
G1 X162.3 Y162.9 E5982.6 F600.0
 G0 X174.9 Y174.9 F2400.0
G1 X164.5 Y160.8 E5987.9 F600.0
 G0 X174.9 Y174.9 F2400.0
G1 X167.2 Y159.3 E5993.1 F600.0
 G0 X174.9 Y174.9 F2400.0
G1 X170.0 Y158.1 E5998.3 F600.0
 G0 X174.9 Y174.9 F2400.0
G1 X173.0 Y157.5 E6003.6 F600.0
 G0 X174.9 Y174.9 F2400.0
G1 X176.0 Y157.5 E6008.8 F600.0
 G0 X174.9 Y174.9 F2400.0
G1 X179.0 Y157.9 E6014.1 F600.0
 G0 X174.9 Y174.9 F2400.0
G1 X181.9 Y158.9 E6019.3 F600.0
 G0 X174.9 Y174.9 F2400.0
G1 X184.6 Y160.4 E6024.6 F600.0
 G0 X174.9 Y174.9 F2400.0
G1 X187.0 Y162.3 E6029.8 F600.0
 G0 X174.9 Y174.9 F2400.0
G1 X189.0 Y164.5 E6035.1 F600.0
 G0 X174.9 Y174.9 F2400.0
G1 X190.6 Y167.2 E6040.3 F600.0
 G0 X174.9 Y174.9 F2400.0
G1 X191.7 Y170.0 E6045.6 F600.0
G0  F600.0 Z6.599998
M117 32.99999 out of 250.0
 G0 X174.9 Y174.9 F2400.0
G1 X192.3 Y172.9 E6050.8 F600.0
 G0 X174.9 Y174.9 F2400.0
G1 X192.4 Y176.0 E6056.1 F600.0
 G0 X174.9 Y174.9 F2400.0
G1 X191.9 Y179.0 E6061.3 F600.0
 G0 X174.9 Y174.9 F2400.0
G1 X191.0 Y181.9 E6066.6 F600.0
 G0 X174.9 Y174.9 F2400.0
G1 X189.5 Y184.6 E6071.8 F600.0
 G0 X174.9 Y174.9 F2400.0
G1 X187.6 Y186.9 E6077.1 F600.0
 G0 X174.9 Y174.9 F2400.0
G1 X185.4 Y189.0 E6082.3 F600.0
 G0 X174.9 Y174.9 F2400.0
G1 X182.8 Y190.6 E6087.6 F600.0
 G0 X174.9 Y174.9 F2400.0
G1 X179.9 Y191.7 E6092.8 F600.0
 G0 X174.9 Y174.9 F2400.0
G1 X176.9 Y192.3 E6098.1 F600.0
 G0 X174.9 Y174.9 F2400.0
G1 X173.9 Y192.4 E6103.3 F600.0
 G0 X174.9 Y174.9 F2400.0
G1 X170.9 Y191.9 E6108.6 F600.0
 G0 X174.9 Y174.9 F2400.0
G1 X168.0 Y191.0 E6113.8 F600.0
 G0 X174.9 Y174.9 F2400.0
G1 X165.3 Y189.5 E6119.1 F600.0
 G0 X174.9 Y174.9 F2400.0
G1 X162.9 Y187.6 E6124.3 F600.0
 G0 X174.9 Y174.9 F2400.0
G1 X160.9 Y185.4 E6129.5 F600.0
 G0 X174.9 Y174.9 F2400.0
G1 X159.3 Y182.8 E6134.8 F600.0
 G0 X174.9 Y174.9 F2400.0
G1 X158.2 Y179.9 E6140.0 F600.0
 G0 X174.9 Y174.9 F2400.0
G1 X157.6 Y176.9 E6145.3 F600.0
 G0 X174.9 Y174.9 F2400.0
G1 X157.5 Y173.9 E6150.5 F600.0
 G0 X174.9 Y174.9 F2400.0
G1 X157.9 Y170.9 E6155.8 F600.0
 G0 X174.9 Y174.9 F2400.0
G1 X158.9 Y168.0 E6161.0 F600.0
 G0 X174.9 Y174.9 F2400.0
G1 X160.3 Y165.3 E6166.3 F600.0
 G0 X174.9 Y174.9 F2400.0
G1 X162.2 Y162.9 E6171.5 F600.0
 G0 X174.9 Y174.9 F2400.0
G1 X164.5 Y160.9 E6176.8 F600.0
 G0 X174.9 Y174.9 F2400.0
G1 X167.1 Y159.3 E6182.0 F600.0
 G0 X174.9 Y174.9 F2400.0
G1 X169.9 Y158.2 E6187.3 F600.0
 G0 X174.9 Y174.9 F2400.0
G1 X172.9 Y157.6 E6192.5 F600.0
 G0 X174.9 Y174.9 F2400.0
G1 X176.0 Y157.5 E6197.8 F600.0
 G0 X174.9 Y174.9 F2400.0
G1 X179.0 Y157.9 E6203.0 F600.0
 G0 X174.9 Y174.9 F2400.0
G1 X181.9 Y158.9 E6208.3 F600.0
 G0 X174.9 Y174.9 F2400.0
G1 X184.6 Y160.3 E6213.5 F600.0
 G0 X174.9 Y174.9 F2400.0
G1 X186.9 Y162.2 E6218.8 F600.0
 G0 X174.9 Y174.9 F2400.0
G1 X189.0 Y164.5 E6224.0 F600.0
 G0 X174.9 Y174.9 F2400.0
G1 X190.6 Y167.1 E6229.3 F600.0
 G0 X174.9 Y174.9 F2400.0
G1 X191.7 Y169.9 E6234.5 F600.0
G0  F600.0 Z6.799998
M117 33.99999 out of 250.0
 G0 X174.9 Y174.9 F2400.0
G1 X192.3 Y172.9 E6239.8 F600.0
 G0 X174.9 Y174.9 F2400.0
G1 X192.4 Y175.9 E6245.0 F600.0
 G0 X174.9 Y174.9 F2400.0
G1 X192.0 Y178.9 E6250.2 F600.0
 G0 X174.9 Y174.9 F2400.0
G1 X191.0 Y181.8 E6255.5 F600.0
 G0 X174.9 Y174.9 F2400.0
G1 X189.6 Y184.5 E6260.7 F600.0
 G0 X174.9 Y174.9 F2400.0
G1 X187.7 Y186.9 E6266.0 F600.0
 G0 X174.9 Y174.9 F2400.0
G1 X185.4 Y188.9 E6271.2 F600.0
 G0 X174.9 Y174.9 F2400.0
G1 X182.8 Y190.5 E6276.5 F600.0
 G0 X174.9 Y174.9 F2400.0
G1 X180.0 Y191.7 E6281.7 F600.0
 G0 X174.9 Y174.9 F2400.0
G1 X177.0 Y192.3 E6287.0 F600.0
 G0 X174.9 Y174.9 F2400.0
G1 X174.0 Y192.4 E6292.2 F600.0
 G0 X174.9 Y174.9 F2400.0
G1 X170.9 Y192.0 E6297.5 F600.0
 G0 X174.9 Y174.9 F2400.0
G1 X168.0 Y191.0 E6302.7 F600.0
 G0 X174.9 Y174.9 F2400.0
G1 X165.4 Y189.6 E6308.0 F600.0
 G0 X174.9 Y174.9 F2400.0
G1 X163.0 Y187.7 E6313.2 F600.0
 G0 X174.9 Y174.9 F2400.0
G1 X160.9 Y185.4 E6318.5 F600.0
 G0 X174.9 Y174.9 F2400.0
G1 X159.3 Y182.8 E6323.7 F600.0
 G0 X174.9 Y174.9 F2400.0
G1 X158.2 Y180.0 E6329.0 F600.0
 G0 X174.9 Y174.9 F2400.0
G1 X157.6 Y177.0 E6334.2 F600.0
 G0 X174.9 Y174.9 F2400.0
G1 X157.5 Y174.0 E6339.5 F600.0
 G0 X174.9 Y174.9 F2400.0
G1 X157.9 Y170.9 E6344.7 F600.0
 G0 X174.9 Y174.9 F2400.0
G1 X158.9 Y168.0 E6350.0 F600.0
 G0 X174.9 Y174.9 F2400.0
G1 X160.3 Y165.4 E6355.2 F600.0
 G0 X174.9 Y174.9 F2400.0
G1 X162.2 Y163.0 E6360.5 F600.0
 G0 X174.9 Y174.9 F2400.0
G1 X164.5 Y160.9 E6365.7 F600.0
 G0 X174.9 Y174.9 F2400.0
G1 X167.0 Y159.3 E6371.0 F600.0
 G0 X174.9 Y174.9 F2400.0
G1 X169.9 Y158.2 E6376.2 F600.0
 G0 X174.9 Y174.9 F2400.0
G1 X172.9 Y157.6 E6381.4 F600.0
 G0 X174.9 Y174.9 F2400.0
G1 X175.9 Y157.5 E6386.7 F600.0
 G0 X174.9 Y174.9 F2400.0
G1 X178.9 Y157.9 E6391.9 F600.0
 G0 X174.9 Y174.9 F2400.0
G1 X181.8 Y158.9 E6397.2 F600.0
 G0 X174.9 Y174.9 F2400.0
G1 X184.5 Y160.3 E6402.4 F600.0
 G0 X174.9 Y174.9 F2400.0
G1 X186.9 Y162.2 E6407.7 F600.0
 G0 X174.9 Y174.9 F2400.0
G1 X188.9 Y164.5 E6412.9 F600.0
 G0 X174.9 Y174.9 F2400.0
G1 X190.5 Y167.0 E6418.2 F600.0
 G0 X174.9 Y174.9 F2400.0
G1 X191.7 Y169.9 E6423.4 F600.0
G0  F600.0 Z6.9999976
M117 34.99999 out of 250.0
 G0 X174.9 Y174.9 F2400.0
G1 X192.3 Y172.8 E6428.7 F600.0
 G0 X174.9 Y174.9 F2400.0
G1 X192.4 Y175.8 E6433.9 F600.0
 G0 X174.9 Y174.9 F2400.0
G1 X192.0 Y178.9 E6439.2 F600.0
 G0 X174.9 Y174.9 F2400.0
G1 X191.0 Y181.8 E6444.4 F600.0
 G0 X174.9 Y174.9 F2400.0
G1 X189.6 Y184.5 E6449.7 F600.0
 G0 X174.9 Y174.9 F2400.0
G1 X187.7 Y186.9 E6454.9 F600.0
 G0 X174.9 Y174.9 F2400.0
G1 X185.5 Y188.9 E6460.2 F600.0
 G0 X174.9 Y174.9 F2400.0
G1 X182.9 Y190.5 E6465.4 F600.0
 G0 X174.9 Y174.9 F2400.0
G1 X180.0 Y191.7 E6470.7 F600.0
 G0 X174.9 Y174.9 F2400.0
G1 X177.1 Y192.3 E6475.9 F600.0
 G0 X174.9 Y174.9 F2400.0
G1 X174.0 Y192.4 E6481.2 F600.0
 G0 X174.9 Y174.9 F2400.0
G1 X171.0 Y192.0 E6486.4 F600.0
 G0 X174.9 Y174.9 F2400.0
G1 X168.1 Y191.0 E6491.7 F600.0
 G0 X174.9 Y174.9 F2400.0
G1 X165.4 Y189.6 E6496.9 F600.0
 G0 X174.9 Y174.9 F2400.0
G1 X163.0 Y187.7 E6502.1 F600.0
 G0 X174.9 Y174.9 F2400.0
G1 X161.0 Y185.5 E6507.4 F600.0
 G0 X174.9 Y174.9 F2400.0
G1 X159.3 Y182.9 E6512.6 F600.0
 G0 X174.9 Y174.9 F2400.0
G1 X158.2 Y180.0 E6517.9 F600.0
 G0 X174.9 Y174.9 F2400.0
G1 X157.6 Y177.1 E6523.1 F600.0
 G0 X174.9 Y174.9 F2400.0
G1 X157.5 Y174.0 E6528.4 F600.0
 G0 X174.9 Y174.9 F2400.0
G1 X157.9 Y171.0 E6533.6 F600.0
 G0 X174.9 Y174.9 F2400.0
G1 X158.8 Y168.1 E6538.9 F600.0
 G0 X174.9 Y174.9 F2400.0
G1 X160.3 Y165.4 E6544.1 F600.0
 G0 X174.9 Y174.9 F2400.0
G1 X162.1 Y163.0 E6549.4 F600.0
 G0 X174.9 Y174.9 F2400.0
G1 X164.4 Y161.0 E6554.6 F600.0
 G0 X174.9 Y174.9 F2400.0
G1 X167.0 Y159.3 E6559.9 F600.0
 G0 X174.9 Y174.9 F2400.0
G1 X169.8 Y158.2 E6565.1 F600.0
 G0 X174.9 Y174.9 F2400.0
G1 X172.8 Y157.6 E6570.4 F600.0
 G0 X174.9 Y174.9 F2400.0
G1 X175.8 Y157.5 E6575.6 F600.0
 G0 X174.9 Y174.9 F2400.0
G1 X178.9 Y157.9 E6580.9 F600.0
 G0 X174.9 Y174.9 F2400.0
G1 X181.8 Y158.8 E6586.1 F600.0
 G0 X174.9 Y174.9 F2400.0
G1 X184.5 Y160.3 E6591.4 F600.0
 G0 X174.9 Y174.9 F2400.0
G1 X186.9 Y162.1 E6596.6 F600.0
 G0 X174.9 Y174.9 F2400.0
G1 X188.9 Y164.4 E6601.9 F600.0
 G0 X174.9 Y174.9 F2400.0
G1 X190.5 Y167.0 E6607.1 F600.0
 G0 X174.9 Y174.9 F2400.0
G1 X191.7 Y169.8 E6612.4 F600.0
G0  F600.0 Z7.1999974
M117 35.999985 out of 250.0
 G0 X174.9 Y174.9 F2400.0
G1 X192.3 Y172.7 E6617.6 F600.0
 G0 X174.9 Y174.9 F2400.0
G1 X192.4 Y175.8 E6622.8 F600.0
 G0 X174.9 Y174.9 F2400.0
G1 X192.0 Y178.8 E6628.1 F600.0
 G0 X174.9 Y174.9 F2400.0
G1 X191.1 Y181.7 E6633.3 F600.0
 G0 X174.9 Y174.9 F2400.0
G1 X189.6 Y184.4 E6638.6 F600.0
 G0 X174.9 Y174.9 F2400.0
G1 X187.8 Y186.8 E6643.8 F600.0
 G0 X174.9 Y174.9 F2400.0
G1 X185.5 Y188.9 E6649.1 F600.0
 G0 X174.9 Y174.9 F2400.0
G1 X182.9 Y190.5 E6654.3 F600.0
 G0 X174.9 Y174.9 F2400.0
G1 X180.1 Y191.6 E6659.6 F600.0
 G0 X174.9 Y174.9 F2400.0
G1 X177.1 Y192.3 E6664.8 F600.0
 G0 X174.9 Y174.9 F2400.0
G1 X174.1 Y192.4 E6670.1 F600.0
 G0 X174.9 Y174.9 F2400.0
G1 X171.1 Y192.0 E6675.3 F600.0
 G0 X174.9 Y174.9 F2400.0
G1 X168.2 Y191.1 E6680.6 F600.0
 G0 X174.9 Y174.9 F2400.0
G1 X165.5 Y189.6 E6685.8 F600.0
 G0 X174.9 Y174.9 F2400.0
G1 X163.0 Y187.8 E6691.1 F600.0
 G0 X174.9 Y174.9 F2400.0
G1 X161.0 Y185.5 E6696.3 F600.0
 G0 X174.9 Y174.9 F2400.0
G1 X159.4 Y182.9 E6701.6 F600.0
 G0 X174.9 Y174.9 F2400.0
G1 X158.2 Y180.1 E6706.8 F600.0
 G0 X174.9 Y174.9 F2400.0
G1 X157.6 Y177.1 E6712.1 F600.0
 G0 X174.9 Y174.9 F2400.0
G1 X157.5 Y174.1 E6717.3 F600.0
 G0 X174.9 Y174.9 F2400.0
G1 X157.9 Y171.1 E6722.6 F600.0
 G0 X174.9 Y174.9 F2400.0
G1 X158.8 Y168.2 E6727.8 F600.0
 G0 X174.9 Y174.9 F2400.0
G1 X160.2 Y165.5 E6733.1 F600.0
 G0 X174.9 Y174.9 F2400.0
G1 X162.1 Y163.0 E6738.3 F600.0
 G0 X174.9 Y174.9 F2400.0
G1 X164.4 Y161.0 E6743.6 F600.0
 G0 X174.9 Y174.9 F2400.0
G1 X166.9 Y159.4 E6748.8 F600.0
 G0 X174.9 Y174.9 F2400.0
G1 X169.8 Y158.2 E6754.0 F600.0
 G0 X174.9 Y174.9 F2400.0
G1 X172.7 Y157.6 E6759.3 F600.0
 G0 X174.9 Y174.9 F2400.0
G1 X175.8 Y157.5 E6764.5 F600.0
 G0 X174.9 Y174.9 F2400.0
G1 X178.8 Y157.9 E6769.8 F600.0
 G0 X174.9 Y174.9 F2400.0
G1 X181.7 Y158.8 E6775.0 F600.0
 G0 X174.9 Y174.9 F2400.0
G1 X184.4 Y160.2 E6780.3 F600.0
 G0 X174.9 Y174.9 F2400.0
G1 X186.8 Y162.1 E6785.5 F600.0
 G0 X174.9 Y174.9 F2400.0
G1 X188.9 Y164.4 E6790.8 F600.0
 G0 X174.9 Y174.9 F2400.0
G1 X190.5 Y166.9 E6796.0 F600.0
 G0 X174.9 Y174.9 F2400.0
G1 X191.6 Y169.8 E6801.3 F600.0
G0  F600.0 Z7.399997
M117 36.999985 out of 250.0
 G0 X174.9 Y174.9 F2400.0
G1 X192.3 Y172.7 E6806.5 F600.0
 G0 X174.9 Y174.9 F2400.0
G1 X192.4 Y175.7 E6811.8 F600.0
 G0 X174.9 Y174.9 F2400.0
G1 X192.0 Y178.7 E6817.0 F600.0
 G0 X174.9 Y174.9 F2400.0
G1 X191.1 Y181.7 E6822.3 F600.0
 G0 X174.9 Y174.9 F2400.0
G1 X189.7 Y184.4 E6827.5 F600.0
 G0 X174.9 Y174.9 F2400.0
G1 X187.8 Y186.8 E6832.8 F600.0
 G0 X174.9 Y174.9 F2400.0
G1 X185.6 Y188.8 E6838.0 F600.0
 G0 X174.9 Y174.9 F2400.0
G1 X183.0 Y190.5 E6843.3 F600.0
 G0 X174.9 Y174.9 F2400.0
G1 X180.2 Y191.6 E6848.5 F600.0
 G0 X174.9 Y174.9 F2400.0
G1 X177.2 Y192.3 E6853.8 F600.0
 G0 X174.9 Y174.9 F2400.0
G1 X174.1 Y192.4 E6859.0 F600.0
 G0 X174.9 Y174.9 F2400.0
G1 X171.1 Y192.0 E6864.3 F600.0
 G0 X174.9 Y174.9 F2400.0
G1 X168.2 Y191.1 E6869.5 F600.0
 G0 X174.9 Y174.9 F2400.0
G1 X165.5 Y189.7 E6874.7 F600.0
 G0 X174.9 Y174.9 F2400.0
G1 X163.1 Y187.8 E6880.0 F600.0
 G0 X174.9 Y174.9 F2400.0
G1 X161.0 Y185.6 E6885.2 F600.0
 G0 X174.9 Y174.9 F2400.0
G1 X159.4 Y183.0 E6890.5 F600.0
 G0 X174.9 Y174.9 F2400.0
G1 X158.2 Y180.2 E6895.7 F600.0
 G0 X174.9 Y174.9 F2400.0
G1 X157.6 Y177.2 E6901.0 F600.0
 G0 X174.9 Y174.9 F2400.0
G1 X157.5 Y174.1 E6906.2 F600.0
 G0 X174.9 Y174.9 F2400.0
G1 X157.9 Y171.1 E6911.5 F600.0
 G0 X174.9 Y174.9 F2400.0
G1 X158.8 Y168.2 E6916.7 F600.0
 G0 X174.9 Y174.9 F2400.0
G1 X160.2 Y165.5 E6922.0 F600.0
 G0 X174.9 Y174.9 F2400.0
G1 X162.1 Y163.1 E6927.2 F600.0
 G0 X174.9 Y174.9 F2400.0
G1 X164.3 Y161.0 E6932.5 F600.0
 G0 X174.9 Y174.9 F2400.0
G1 X166.9 Y159.4 E6937.7 F600.0
 G0 X174.9 Y174.9 F2400.0
G1 X169.7 Y158.2 E6943.0 F600.0
 G0 X174.9 Y174.9 F2400.0
G1 X172.7 Y157.6 E6948.2 F600.0
 G0 X174.9 Y174.9 F2400.0
G1 X175.7 Y157.5 E6953.5 F600.0
 G0 X174.9 Y174.9 F2400.0
G1 X178.7 Y157.9 E6958.7 F600.0
 G0 X174.9 Y174.9 F2400.0
G1 X181.7 Y158.8 E6964.0 F600.0
 G0 X174.9 Y174.9 F2400.0
G1 X184.4 Y160.2 E6969.2 F600.0
 G0 X174.9 Y174.9 F2400.0
G1 X186.8 Y162.1 E6974.5 F600.0
 G0 X174.9 Y174.9 F2400.0
G1 X188.8 Y164.3 E6979.7 F600.0
 G0 X174.9 Y174.9 F2400.0
G1 X190.5 Y166.9 E6985.0 F600.0
 G0 X174.9 Y174.9 F2400.0
G1 X191.6 Y169.7 E6990.2 F600.0
G0  F600.0 Z7.599997
M117 37.999985 out of 250.0
 G0 X174.9 Y174.9 F2400.0
G1 X192.3 Y172.6 E6995.5 F600.0
 G0 X174.9 Y174.9 F2400.0
G1 X192.4 Y175.7 E7000.7 F600.0
 G0 X174.9 Y174.9 F2400.0
G1 X192.0 Y178.7 E7005.9 F600.0
 G0 X174.9 Y174.9 F2400.0
G1 X191.1 Y181.6 E7011.2 F600.0
 G0 X174.9 Y174.9 F2400.0
G1 X189.7 Y184.3 E7016.4 F600.0
 G0 X174.9 Y174.9 F2400.0
G1 X187.8 Y186.7 E7021.7 F600.0
 G0 X174.9 Y174.9 F2400.0
G1 X185.6 Y188.8 E7026.9 F600.0
 G0 X174.9 Y174.9 F2400.0
G1 X183.0 Y190.4 E7032.2 F600.0
 G0 X174.9 Y174.9 F2400.0
G1 X180.2 Y191.6 E7037.4 F600.0
 G0 X174.9 Y174.9 F2400.0
G1 X177.2 Y192.3 E7042.7 F600.0
 G0 X174.9 Y174.9 F2400.0
G1 X174.2 Y192.4 E7047.9 F600.0
 G0 X174.9 Y174.9 F2400.0
G1 X171.2 Y192.0 E7053.2 F600.0
 G0 X174.9 Y174.9 F2400.0
G1 X168.3 Y191.1 E7058.4 F600.0
 G0 X174.9 Y174.9 F2400.0
G1 X165.6 Y189.7 E7063.7 F600.0
 G0 X174.9 Y174.9 F2400.0
G1 X163.1 Y187.8 E7068.9 F600.0
 G0 X174.9 Y174.9 F2400.0
G1 X161.1 Y185.6 E7074.2 F600.0
 G0 X174.9 Y174.9 F2400.0
G1 X159.4 Y183.0 E7079.4 F600.0
 G0 X174.9 Y174.9 F2400.0
G1 X158.3 Y180.2 E7084.7 F600.0
 G0 X174.9 Y174.9 F2400.0
G1 X157.6 Y177.2 E7089.9 F600.0
 G0 X174.9 Y174.9 F2400.0
G1 X157.5 Y174.2 E7095.2 F600.0
 G0 X174.9 Y174.9 F2400.0
G1 X157.8 Y171.2 E7100.4 F600.0
 G0 X174.9 Y174.9 F2400.0
G1 X158.8 Y168.3 E7105.7 F600.0
 G0 X174.9 Y174.9 F2400.0
G1 X160.2 Y165.6 E7110.9 F600.0
 G0 X174.9 Y174.9 F2400.0
G1 X162.0 Y163.1 E7116.2 F600.0
 G0 X174.9 Y174.9 F2400.0
G1 X164.3 Y161.1 E7121.4 F600.0
 G0 X174.9 Y174.9 F2400.0
G1 X166.8 Y159.4 E7126.6 F600.0
 G0 X174.9 Y174.9 F2400.0
G1 X169.6 Y158.3 E7131.9 F600.0
 G0 X174.9 Y174.9 F2400.0
G1 X172.6 Y157.6 E7137.1 F600.0
 G0 X174.9 Y174.9 F2400.0
G1 X175.7 Y157.5 E7142.4 F600.0
 G0 X174.9 Y174.9 F2400.0
G1 X178.7 Y157.8 E7147.6 F600.0
 G0 X174.9 Y174.9 F2400.0
G1 X181.6 Y158.8 E7152.9 F600.0
 G0 X174.9 Y174.9 F2400.0
G1 X184.3 Y160.2 E7158.1 F600.0
 G0 X174.9 Y174.9 F2400.0
G1 X186.7 Y162.0 E7163.4 F600.0
 G0 X174.9 Y174.9 F2400.0
G1 X188.8 Y164.3 E7168.6 F600.0
 G0 X174.9 Y174.9 F2400.0
G1 X190.4 Y166.8 E7173.9 F600.0
 G0 X174.9 Y174.9 F2400.0
G1 X191.6 Y169.6 E7179.1 F600.0
G0  F600.0 Z7.799997
M117 38.999985 out of 250.0
 G0 X174.9 Y174.9 F2400.0
G1 X192.3 Y172.6 E7184.4 F600.0
 G0 X174.9 Y174.9 F2400.0
G1 X192.4 Y175.6 E7189.6 F600.0
 G0 X174.9 Y174.9 F2400.0
G1 X192.0 Y178.6 E7194.9 F600.0
 G0 X174.9 Y174.9 F2400.0
G1 X191.1 Y181.5 E7200.1 F600.0
 G0 X174.9 Y174.9 F2400.0
G1 X189.7 Y184.3 E7205.4 F600.0
 G0 X174.9 Y174.9 F2400.0
G1 X187.9 Y186.7 E7210.6 F600.0
 G0 X174.9 Y174.9 F2400.0
G1 X185.7 Y188.8 E7215.9 F600.0
 G0 X174.9 Y174.9 F2400.0
G1 X183.1 Y190.4 E7221.1 F600.0
 G0 X174.9 Y174.9 F2400.0
G1 X180.3 Y191.6 E7226.4 F600.0
 G0 X174.9 Y174.9 F2400.0
G1 X177.3 Y192.3 E7231.6 F600.0
 G0 X174.9 Y174.9 F2400.0
G1 X174.3 Y192.4 E7236.9 F600.0
 G0 X174.9 Y174.9 F2400.0
G1 X171.2 Y192.0 E7242.1 F600.0
 G0 X174.9 Y174.9 F2400.0
G1 X168.3 Y191.1 E7247.3 F600.0
 G0 X174.9 Y174.9 F2400.0
G1 X165.6 Y189.7 E7252.6 F600.0
 G0 X174.9 Y174.9 F2400.0
G1 X163.2 Y187.9 E7257.8 F600.0
 G0 X174.9 Y174.9 F2400.0
G1 X161.1 Y185.7 E7263.1 F600.0
 G0 X174.9 Y174.9 F2400.0
G1 X159.5 Y183.1 E7268.3 F600.0
 G0 X174.9 Y174.9 F2400.0
G1 X158.3 Y180.3 E7273.6 F600.0
 G0 X174.9 Y174.9 F2400.0
G1 X157.6 Y177.3 E7278.8 F600.0
 G0 X174.9 Y174.9 F2400.0
G1 X157.4 Y174.3 E7284.1 F600.0
 G0 X174.9 Y174.9 F2400.0
G1 X157.8 Y171.2 E7289.3 F600.0
 G0 X174.9 Y174.9 F2400.0
G1 X158.7 Y168.3 E7294.6 F600.0
 G0 X174.9 Y174.9 F2400.0
G1 X160.1 Y165.6 E7299.8 F600.0
 G0 X174.9 Y174.9 F2400.0
G1 X162.0 Y163.2 E7305.1 F600.0
 G0 X174.9 Y174.9 F2400.0
G1 X164.2 Y161.1 E7310.3 F600.0
 G0 X174.9 Y174.9 F2400.0
G1 X166.8 Y159.5 E7315.6 F600.0
 G0 X174.9 Y174.9 F2400.0
G1 X169.6 Y158.3 E7320.8 F600.0
 G0 X174.9 Y174.9 F2400.0
G1 X172.6 Y157.6 E7326.1 F600.0
 G0 X174.9 Y174.9 F2400.0
G1 X175.6 Y157.4 E7331.3 F600.0
 G0 X174.9 Y174.9 F2400.0
G1 X178.6 Y157.8 E7336.6 F600.0
 G0 X174.9 Y174.9 F2400.0
G1 X181.5 Y158.7 E7341.8 F600.0
 G0 X174.9 Y174.9 F2400.0
G1 X184.3 Y160.1 E7347.1 F600.0
 G0 X174.9 Y174.9 F2400.0
G1 X186.7 Y162.0 E7352.3 F600.0
 G0 X174.9 Y174.9 F2400.0
G1 X188.8 Y164.2 E7357.6 F600.0
 G0 X174.9 Y174.9 F2400.0
G1 X190.4 Y166.8 E7362.8 F600.0
 G0 X174.9 Y174.9 F2400.0
G1 X191.6 Y169.6 E7368.1 F600.0
G0  F600.0 Z7.9999967
M117 39.99998 out of 250.0
 G0 X174.9 Y174.9 F2400.0
G1 X192.3 Y172.5 E7373.3 F600.0
 G0 X174.9 Y174.9 F2400.0
G1 X192.4 Y175.5 E7378.5 F600.0
 G0 X174.9 Y174.9 F2400.0
G1 X192.0 Y178.6 E7383.8 F600.0
 G0 X174.9 Y174.9 F2400.0
G1 X191.1 Y181.5 E7389.0 F600.0
 G0 X174.9 Y174.9 F2400.0
G1 X189.8 Y184.2 E7394.3 F600.0
 G0 X174.9 Y174.9 F2400.0
G1 X187.9 Y186.6 E7399.5 F600.0
 G0 X174.9 Y174.9 F2400.0
G1 X185.7 Y188.7 E7404.8 F600.0
 G0 X174.9 Y174.9 F2400.0
G1 X183.1 Y190.4 E7410.0 F600.0
 G0 X174.9 Y174.9 F2400.0
G1 X180.3 Y191.6 E7415.3 F600.0
 G0 X174.9 Y174.9 F2400.0
G1 X177.4 Y192.3 E7420.5 F600.0
 G0 X174.9 Y174.9 F2400.0
G1 X174.3 Y192.4 E7425.8 F600.0
 G0 X174.9 Y174.9 F2400.0
G1 X171.3 Y192.0 E7431.0 F600.0
 G0 X174.9 Y174.9 F2400.0
G1 X168.4 Y191.1 E7436.3 F600.0
 G0 X174.9 Y174.9 F2400.0
G1 X165.7 Y189.8 E7441.5 F600.0
 G0 X174.9 Y174.9 F2400.0
G1 X163.2 Y187.9 E7446.8 F600.0
 G0 X174.9 Y174.9 F2400.0
G1 X161.1 Y185.7 E7452.0 F600.0
 G0 X174.9 Y174.9 F2400.0
G1 X159.5 Y183.1 E7457.3 F600.0
 G0 X174.9 Y174.9 F2400.0
G1 X158.3 Y180.3 E7462.5 F600.0
 G0 X174.9 Y174.9 F2400.0
G1 X157.6 Y177.4 E7467.8 F600.0
 G0 X174.9 Y174.9 F2400.0
G1 X157.4 Y174.3 E7473.0 F600.0
 G0 X174.9 Y174.9 F2400.0
G1 X157.8 Y171.3 E7478.3 F600.0
 G0 X174.9 Y174.9 F2400.0
G1 X158.7 Y168.4 E7483.5 F600.0
 G0 X174.9 Y174.9 F2400.0
G1 X160.1 Y165.7 E7488.8 F600.0
 G0 X174.9 Y174.9 F2400.0
G1 X161.9 Y163.2 E7494.0 F600.0
 G0 X174.9 Y174.9 F2400.0
G1 X164.2 Y161.1 E7499.2 F600.0
 G0 X174.9 Y174.9 F2400.0
G1 X166.7 Y159.5 E7504.5 F600.0
 G0 X174.9 Y174.9 F2400.0
G1 X169.5 Y158.3 E7509.7 F600.0
 G0 X174.9 Y174.9 F2400.0
G1 X172.5 Y157.6 E7515.0 F600.0
 G0 X174.9 Y174.9 F2400.0
G1 X175.5 Y157.4 E7520.2 F600.0
 G0 X174.9 Y174.9 F2400.0
G1 X178.6 Y157.8 E7525.5 F600.0
 G0 X174.9 Y174.9 F2400.0
G1 X181.5 Y158.7 E7530.7 F600.0
 G0 X174.9 Y174.9 F2400.0
G1 X184.2 Y160.1 E7536.0 F600.0
 G0 X174.9 Y174.9 F2400.0
G1 X186.6 Y161.9 E7541.2 F600.0
 G0 X174.9 Y174.9 F2400.0
G1 X188.7 Y164.2 E7546.5 F600.0
 G0 X174.9 Y174.9 F2400.0
G1 X190.4 Y166.7 E7551.7 F600.0
 G0 X174.9 Y174.9 F2400.0
G1 X191.6 Y169.5 E7557.0 F600.0
G0  F600.0 Z8.199997
M117 40.999985 out of 250.0
 G0 X174.9 Y174.9 F2400.0
G1 X192.2 Y172.4 E7562.2 F600.0
 G0 X174.9 Y174.9 F2400.0
G1 X192.4 Y175.5 E7567.5 F600.0
 G0 X174.9 Y174.9 F2400.0
G1 X192.1 Y178.5 E7572.7 F600.0
 G0 X174.9 Y174.9 F2400.0
G1 X191.2 Y181.4 E7578.0 F600.0
 G0 X174.9 Y174.9 F2400.0
G1 X189.8 Y184.1 E7583.2 F600.0
 G0 X174.9 Y174.9 F2400.0
G1 X188.0 Y186.6 E7588.5 F600.0
 G0 X174.9 Y174.9 F2400.0
G1 X185.7 Y188.7 E7593.7 F600.0
 G0 X174.9 Y174.9 F2400.0
G1 X183.2 Y190.3 E7599.0 F600.0
 G0 X174.9 Y174.9 F2400.0
G1 X180.4 Y191.5 E7604.2 F600.0
 G0 X174.9 Y174.9 F2400.0
G1 X177.4 Y192.2 E7609.5 F600.0
 G0 X174.9 Y174.9 F2400.0
G1 X174.4 Y192.4 E7614.7 F600.0
 G0 X174.9 Y174.9 F2400.0
G1 X171.4 Y192.1 E7620.0 F600.0
 G0 X174.9 Y174.9 F2400.0
G1 X168.4 Y191.2 E7625.2 F600.0
 G0 X174.9 Y174.9 F2400.0
G1 X165.7 Y189.8 E7630.4 F600.0
 G0 X174.9 Y174.9 F2400.0
G1 X163.3 Y188.0 E7635.7 F600.0
 G0 X174.9 Y174.9 F2400.0
G1 X161.2 Y185.7 E7640.9 F600.0
 G0 X174.9 Y174.9 F2400.0
G1 X159.5 Y183.2 E7646.2 F600.0
 G0 X174.9 Y174.9 F2400.0
G1 X158.3 Y180.4 E7651.4 F600.0
 G0 X174.9 Y174.9 F2400.0
G1 X157.6 Y177.4 E7656.7 F600.0
 G0 X174.9 Y174.9 F2400.0
G1 X157.4 Y174.4 E7661.9 F600.0
 G0 X174.9 Y174.9 F2400.0
G1 X157.8 Y171.4 E7667.2 F600.0
 G0 X174.9 Y174.9 F2400.0
G1 X158.7 Y168.4 E7672.4 F600.0
 G0 X174.9 Y174.9 F2400.0
G1 X160.1 Y165.7 E7677.7 F600.0
 G0 X174.9 Y174.9 F2400.0
G1 X161.9 Y163.3 E7682.9 F600.0
 G0 X174.9 Y174.9 F2400.0
G1 X164.1 Y161.2 E7688.2 F600.0
 G0 X174.9 Y174.9 F2400.0
G1 X166.7 Y159.5 E7693.4 F600.0
 G0 X174.9 Y174.9 F2400.0
G1 X169.5 Y158.3 E7698.7 F600.0
 G0 X174.9 Y174.9 F2400.0
G1 X172.4 Y157.6 E7703.9 F600.0
 G0 X174.9 Y174.9 F2400.0
G1 X175.5 Y157.4 E7709.2 F600.0
 G0 X174.9 Y174.9 F2400.0
G1 X178.5 Y157.8 E7714.4 F600.0
 G0 X174.9 Y174.9 F2400.0
G1 X181.4 Y158.7 E7719.7 F600.0
 G0 X174.9 Y174.9 F2400.0
G1 X184.1 Y160.1 E7724.9 F600.0
 G0 X174.9 Y174.9 F2400.0
G1 X186.6 Y161.9 E7730.2 F600.0
 G0 X174.9 Y174.9 F2400.0
G1 X188.7 Y164.1 E7735.4 F600.0
 G0 X174.9 Y174.9 F2400.0
G1 X190.3 Y166.7 E7740.7 F600.0
 G0 X174.9 Y174.9 F2400.0
G1 X191.5 Y169.5 E7745.9 F600.0
G0  F600.0 Z8.399997
M117 41.999985 out of 250.0
 G0 X174.9 Y174.9 F2400.0
G1 X192.2 Y172.4 E7751.1 F600.0
 G0 X174.9 Y174.9 F2400.0
G1 X192.4 Y175.4 E7756.4 F600.0
 G0 X174.9 Y174.9 F2400.0
G1 X192.1 Y178.4 E7761.6 F600.0
 G0 X174.9 Y174.9 F2400.0
G1 X191.2 Y181.4 E7766.9 F600.0
 G0 X174.9 Y174.9 F2400.0
G1 X189.8 Y184.1 E7772.1 F600.0
 G0 X174.9 Y174.9 F2400.0
G1 X188.0 Y186.5 E7777.4 F600.0
 G0 X174.9 Y174.9 F2400.0
G1 X185.8 Y188.6 E7782.6 F600.0
 G0 X174.9 Y174.9 F2400.0
G1 X183.3 Y190.3 E7787.9 F600.0
 G0 X174.9 Y174.9 F2400.0
G1 X180.5 Y191.5 E7793.1 F600.0
 G0 X174.9 Y174.9 F2400.0
G1 X177.5 Y192.2 E7798.4 F600.0
 G0 X174.9 Y174.9 F2400.0
G1 X174.4 Y192.4 E7803.6 F600.0
 G0 X174.9 Y174.9 F2400.0
G1 X171.4 Y192.1 E7808.9 F600.0
 G0 X174.9 Y174.9 F2400.0
G1 X168.5 Y191.2 E7814.1 F600.0
 G0 X174.9 Y174.9 F2400.0
G1 X165.8 Y189.8 E7819.4 F600.0
 G0 X174.9 Y174.9 F2400.0
G1 X163.3 Y188.0 E7824.6 F600.0
 G0 X174.9 Y174.9 F2400.0
G1 X161.2 Y185.8 E7829.9 F600.0
 G0 X174.9 Y174.9 F2400.0
G1 X159.5 Y183.3 E7835.1 F600.0
 G0 X174.9 Y174.9 F2400.0
G1 X158.3 Y180.5 E7840.4 F600.0
 G0 X174.9 Y174.9 F2400.0
G1 X157.6 Y177.5 E7845.6 F600.0
 G0 X174.9 Y174.9 F2400.0
G1 X157.4 Y174.4 E7850.9 F600.0
 G0 X174.9 Y174.9 F2400.0
G1 X157.8 Y171.4 E7856.1 F600.0
 G0 X174.9 Y174.9 F2400.0
G1 X158.7 Y168.5 E7861.4 F600.0
 G0 X174.9 Y174.9 F2400.0
G1 X160.0 Y165.8 E7866.6 F600.0
 G0 X174.9 Y174.9 F2400.0
G1 X161.8 Y163.3 E7871.8 F600.0
 G0 X174.9 Y174.9 F2400.0
G1 X164.1 Y161.2 E7877.1 F600.0
 G0 X174.9 Y174.9 F2400.0
G1 X166.6 Y159.5 E7882.3 F600.0
 G0 X174.9 Y174.9 F2400.0
G1 X169.4 Y158.3 E7887.6 F600.0
 G0 X174.9 Y174.9 F2400.0
G1 X172.4 Y157.6 E7892.8 F600.0
 G0 X174.9 Y174.9 F2400.0
G1 X175.4 Y157.4 E7898.1 F600.0
 G0 X174.9 Y174.9 F2400.0
G1 X178.4 Y157.8 E7903.3 F600.0
 G0 X174.9 Y174.9 F2400.0
G1 X181.4 Y158.7 E7908.6 F600.0
 G0 X174.9 Y174.9 F2400.0
G1 X184.1 Y160.0 E7913.8 F600.0
 G0 X174.9 Y174.9 F2400.0
G1 X186.5 Y161.8 E7919.1 F600.0
 G0 X174.9 Y174.9 F2400.0
G1 X188.6 Y164.1 E7924.3 F600.0
 G0 X174.9 Y174.9 F2400.0
G1 X190.3 Y166.6 E7929.6 F600.0
 G0 X174.9 Y174.9 F2400.0
G1 X191.5 Y169.4 E7934.8 F600.0
G0  F600.0 Z8.599997
M117 42.99998 out of 250.0
 G0 X174.9 Y174.9 F2400.0
G1 X192.2 Y172.3 E7940.1 F600.0
 G0 X174.9 Y174.9 F2400.0
G1 X192.4 Y175.4 E7945.3 F600.0
 G0 X174.9 Y174.9 F2400.0
G1 X192.1 Y178.4 E7950.6 F600.0
 G0 X174.9 Y174.9 F2400.0
G1 X191.2 Y181.3 E7955.8 F600.0
 G0 X174.9 Y174.9 F2400.0
G1 X189.9 Y184.0 E7961.1 F600.0
 G0 X174.9 Y174.9 F2400.0
G1 X188.1 Y186.5 E7966.3 F600.0
 G0 X174.9 Y174.9 F2400.0
G1 X185.8 Y188.6 E7971.6 F600.0
 G0 X174.9 Y174.9 F2400.0
G1 X183.3 Y190.3 E7976.8 F600.0
 G0 X174.9 Y174.9 F2400.0
G1 X180.5 Y191.5 E7982.1 F600.0
 G0 X174.9 Y174.9 F2400.0
G1 X177.5 Y192.2 E7987.3 F600.0
 G0 X174.9 Y174.9 F2400.0
G1 X174.5 Y192.4 E7992.6 F600.0
 G0 X174.9 Y174.9 F2400.0
G1 X171.5 Y192.1 E7997.8 F600.0
 G0 X174.9 Y174.9 F2400.0
G1 X168.5 Y191.2 E8003.0 F600.0
 G0 X174.9 Y174.9 F2400.0
G1 X165.8 Y189.9 E8008.3 F600.0
 G0 X174.9 Y174.9 F2400.0
G1 X163.4 Y188.1 E8013.5 F600.0
 G0 X174.9 Y174.9 F2400.0
G1 X161.3 Y185.8 E8018.8 F600.0
 G0 X174.9 Y174.9 F2400.0
G1 X159.6 Y183.3 E8024.0 F600.0
 G0 X174.9 Y174.9 F2400.0
G1 X158.4 Y180.5 E8029.3 F600.0
 G0 X174.9 Y174.9 F2400.0
G1 X157.6 Y177.5 E8034.5 F600.0
 G0 X174.9 Y174.9 F2400.0
G1 X157.4 Y174.5 E8039.8 F600.0
 G0 X174.9 Y174.9 F2400.0
G1 X157.8 Y171.5 E8045.0 F600.0
 G0 X174.9 Y174.9 F2400.0
G1 X158.6 Y168.5 E8050.3 F600.0
 G0 X174.9 Y174.9 F2400.0
G1 X160.0 Y165.8 E8055.5 F600.0
 G0 X174.9 Y174.9 F2400.0
G1 X161.8 Y163.4 E8060.8 F600.0
 G0 X174.9 Y174.9 F2400.0
G1 X164.0 Y161.3 E8066.0 F600.0
 G0 X174.9 Y174.9 F2400.0
G1 X166.6 Y159.6 E8071.3 F600.0
 G0 X174.9 Y174.9 F2400.0
G1 X169.4 Y158.4 E8076.5 F600.0
 G0 X174.9 Y174.9 F2400.0
G1 X172.3 Y157.6 E8081.8 F600.0
 G0 X174.9 Y174.9 F2400.0
G1 X175.4 Y157.4 E8087.0 F600.0
 G0 X174.9 Y174.9 F2400.0
G1 X178.4 Y157.8 E8092.3 F600.0
 G0 X174.9 Y174.9 F2400.0
G1 X181.3 Y158.6 E8097.5 F600.0
 G0 X174.9 Y174.9 F2400.0
G1 X184.0 Y160.0 E8102.8 F600.0
 G0 X174.9 Y174.9 F2400.0
G1 X186.5 Y161.8 E8108.0 F600.0
 G0 X174.9 Y174.9 F2400.0
G1 X188.6 Y164.0 E8113.3 F600.0
 G0 X174.9 Y174.9 F2400.0
G1 X190.3 Y166.6 E8118.5 F600.0
 G0 X174.9 Y174.9 F2400.0
G1 X191.5 Y169.4 E8123.7 F600.0
G0  F600.0 Z8.799996
M117 43.99998 out of 250.0
 G0 X174.9 Y174.9 F2400.0
G1 X192.2 Y172.3 E8129.0 F600.0
 G0 X174.9 Y174.9 F2400.0
G1 X192.4 Y175.3 E8134.2 F600.0
 G0 X174.9 Y174.9 F2400.0
G1 X192.1 Y178.3 E8139.5 F600.0
 G0 X174.9 Y174.9 F2400.0
G1 X191.2 Y181.3 E8144.7 F600.0
 G0 X174.9 Y174.9 F2400.0
G1 X189.9 Y184.0 E8150.0 F600.0
 G0 X174.9 Y174.9 F2400.0
G1 X188.1 Y186.5 E8155.2 F600.0
 G0 X174.9 Y174.9 F2400.0
G1 X185.9 Y188.6 E8160.5 F600.0
 G0 X174.9 Y174.9 F2400.0
G1 X183.4 Y190.3 E8165.7 F600.0
 G0 X174.9 Y174.9 F2400.0
G1 X180.6 Y191.5 E8171.0 F600.0
 G0 X174.9 Y174.9 F2400.0
G1 X177.6 Y192.2 E8176.2 F600.0
 G0 X174.9 Y174.9 F2400.0
G1 X174.6 Y192.4 E8181.5 F600.0
 G0 X174.9 Y174.9 F2400.0
G1 X171.5 Y192.1 E8186.7 F600.0
 G0 X174.9 Y174.9 F2400.0
G1 X168.6 Y191.2 E8192.0 F600.0
 G0 X174.9 Y174.9 F2400.0
G1 X165.9 Y189.9 E8197.2 F600.0
 G0 X174.9 Y174.9 F2400.0
G1 X163.4 Y188.1 E8202.5 F600.0
 G0 X174.9 Y174.9 F2400.0
G1 X161.3 Y185.9 E8207.7 F600.0
 G0 X174.9 Y174.9 F2400.0
G1 X159.6 Y183.4 E8213.0 F600.0
 G0 X174.9 Y174.9 F2400.0
G1 X158.4 Y180.6 E8218.2 F600.0
 G0 X174.9 Y174.9 F2400.0
G1 X157.6 Y177.6 E8223.5 F600.0
 G0 X174.9 Y174.9 F2400.0
G1 X157.4 Y174.6 E8228.7 F600.0
 G0 X174.9 Y174.9 F2400.0
G1 X157.8 Y171.5 E8234.0 F600.0
 G0 X174.9 Y174.9 F2400.0
G1 X158.6 Y168.6 E8239.2 F600.0
 G0 X174.9 Y174.9 F2400.0
G1 X160.0 Y165.9 E8244.5 F600.0
 G0 X174.9 Y174.9 F2400.0
G1 X161.8 Y163.4 E8249.7 F600.0
 G0 X174.9 Y174.9 F2400.0
G1 X164.0 Y161.3 E8254.9 F600.0
 G0 X174.9 Y174.9 F2400.0
G1 X166.5 Y159.6 E8260.2 F600.0
 G0 X174.9 Y174.9 F2400.0
G1 X169.3 Y158.4 E8265.4 F600.0
 G0 X174.9 Y174.9 F2400.0
G1 X172.3 Y157.6 E8270.7 F600.0
 G0 X174.9 Y174.9 F2400.0
G1 X175.3 Y157.4 E8275.9 F600.0
 G0 X174.9 Y174.9 F2400.0
G1 X178.3 Y157.8 E8281.2 F600.0
 G0 X174.9 Y174.9 F2400.0
G1 X181.3 Y158.6 E8286.4 F600.0
 G0 X174.9 Y174.9 F2400.0
G1 X184.0 Y160.0 E8291.7 F600.0
 G0 X174.9 Y174.9 F2400.0
G1 X186.5 Y161.8 E8296.9 F600.0
 G0 X174.9 Y174.9 F2400.0
G1 X188.6 Y164.0 E8302.2 F600.0
 G0 X174.9 Y174.9 F2400.0
G1 X190.3 Y166.5 E8307.4 F600.0
 G0 X174.9 Y174.9 F2400.0
G1 X191.5 Y169.3 E8312.7 F600.0
G0  F600.0 Z8.999996
M117 44.99998 out of 250.0
 G0 X174.9 Y174.9 F2400.0
G1 X192.2 Y172.2 E8317.9 F600.0
 G0 X174.9 Y174.9 F2400.0
G1 X192.4 Y175.2 E8323.2 F600.0
 G0 X174.9 Y174.9 F2400.0
G1 X192.1 Y178.3 E8328.4 F600.0
 G0 X174.9 Y174.9 F2400.0
G1 X191.3 Y181.2 E8333.7 F600.0
 G0 X174.9 Y174.9 F2400.0
G1 X189.9 Y183.9 E8338.9 F600.0
 G0 X174.9 Y174.9 F2400.0
G1 X188.1 Y186.4 E8344.2 F600.0
 G0 X174.9 Y174.9 F2400.0
G1 X185.9 Y188.5 E8349.4 F600.0
 G0 X174.9 Y174.9 F2400.0
G1 X183.4 Y190.2 E8354.7 F600.0
 G0 X174.9 Y174.9 F2400.0
G1 X180.6 Y191.5 E8359.9 F600.0
 G0 X174.9 Y174.9 F2400.0
G1 X177.7 Y192.2 E8365.2 F600.0
 G0 X174.9 Y174.9 F2400.0
G1 X174.6 Y192.4 E8370.4 F600.0
 G0 X174.9 Y174.9 F2400.0
G1 X171.6 Y192.1 E8375.6 F600.0
 G0 X174.9 Y174.9 F2400.0
G1 X168.7 Y191.3 E8380.9 F600.0
 G0 X174.9 Y174.9 F2400.0
G1 X165.9 Y189.9 E8386.1 F600.0
 G0 X174.9 Y174.9 F2400.0
G1 X163.5 Y188.1 E8391.4 F600.0
 G0 X174.9 Y174.9 F2400.0
G1 X161.3 Y185.9 E8396.6 F600.0
 G0 X174.9 Y174.9 F2400.0
G1 X159.6 Y183.4 E8401.9 F600.0
 G0 X174.9 Y174.9 F2400.0
G1 X158.4 Y180.6 E8407.1 F600.0
 G0 X174.9 Y174.9 F2400.0
G1 X157.7 Y177.7 E8412.4 F600.0
 G0 X174.9 Y174.9 F2400.0
G1 X157.4 Y174.6 E8417.6 F600.0
 G0 X174.9 Y174.9 F2400.0
G1 X157.8 Y171.6 E8422.9 F600.0
 G0 X174.9 Y174.9 F2400.0
G1 X158.6 Y168.7 E8428.1 F600.0
 G0 X174.9 Y174.9 F2400.0
G1 X159.9 Y165.9 E8433.4 F600.0
 G0 X174.9 Y174.9 F2400.0
G1 X161.7 Y163.5 E8438.6 F600.0
 G0 X174.9 Y174.9 F2400.0
G1 X163.9 Y161.3 E8443.9 F600.0
 G0 X174.9 Y174.9 F2400.0
G1 X166.4 Y159.6 E8449.1 F600.0
 G0 X174.9 Y174.9 F2400.0
G1 X169.2 Y158.4 E8454.4 F600.0
 G0 X174.9 Y174.9 F2400.0
G1 X172.2 Y157.7 E8459.6 F600.0
 G0 X174.9 Y174.9 F2400.0
G1 X175.2 Y157.4 E8464.9 F600.0
 G0 X174.9 Y174.9 F2400.0
G1 X178.3 Y157.8 E8470.1 F600.0
 G0 X174.9 Y174.9 F2400.0
G1 X181.2 Y158.6 E8475.4 F600.0
 G0 X174.9 Y174.9 F2400.0
G1 X183.9 Y159.9 E8480.6 F600.0
 G0 X174.9 Y174.9 F2400.0
G1 X186.4 Y161.7 E8485.9 F600.0
 G0 X174.9 Y174.9 F2400.0
G1 X188.5 Y163.9 E8491.1 F600.0
 G0 X174.9 Y174.9 F2400.0
G1 X190.2 Y166.4 E8496.3 F600.0
 G0 X174.9 Y174.9 F2400.0
G1 X191.5 Y169.2 E8501.6 F600.0
G0  F600.0 Z9.199996
M117 45.99998 out of 250.0
 G0 X174.9 Y174.9 F2400.0
G1 X192.2 Y172.1 E8506.8 F600.0
 G0 X174.9 Y174.9 F2400.0
G1 X192.4 Y175.2 E8512.1 F600.0
 G0 X174.9 Y174.9 F2400.0
G1 X192.1 Y178.2 E8517.3 F600.0
 G0 X174.9 Y174.9 F2400.0
G1 X191.3 Y181.1 E8522.6 F600.0
 G0 X174.9 Y174.9 F2400.0
G1 X190.0 Y183.9 E8527.8 F600.0
 G0 X174.9 Y174.9 F2400.0
G1 X188.2 Y186.4 E8533.1 F600.0
 G0 X174.9 Y174.9 F2400.0
G1 X186.0 Y188.5 E8538.3 F600.0
 G0 X174.9 Y174.9 F2400.0
G1 X183.5 Y190.2 E8543.6 F600.0
 G0 X174.9 Y174.9 F2400.0
G1 X180.7 Y191.4 E8548.8 F600.0
 G0 X174.9 Y174.9 F2400.0
G1 X177.7 Y192.2 E8554.1 F600.0
 G0 X174.9 Y174.9 F2400.0
G1 X174.7 Y192.4 E8559.3 F600.0
 G0 X174.9 Y174.9 F2400.0
G1 X171.7 Y192.1 E8564.6 F600.0
 G0 X174.9 Y174.9 F2400.0
G1 X168.7 Y191.3 E8569.8 F600.0
 G0 X174.9 Y174.9 F2400.0
G1 X166.0 Y190.0 E8575.1 F600.0
 G0 X174.9 Y174.9 F2400.0
G1 X163.5 Y188.2 E8580.3 F600.0
 G0 X174.9 Y174.9 F2400.0
G1 X161.4 Y186.0 E8585.6 F600.0
 G0 X174.9 Y174.9 F2400.0
G1 X159.7 Y183.5 E8590.8 F600.0
 G0 X174.9 Y174.9 F2400.0
G1 X158.4 Y180.7 E8596.1 F600.0
 G0 X174.9 Y174.9 F2400.0
G1 X157.7 Y177.7 E8601.3 F600.0
 G0 X174.9 Y174.9 F2400.0
G1 X157.4 Y174.7 E8606.6 F600.0
 G0 X174.9 Y174.9 F2400.0
G1 X157.7 Y171.7 E8611.8 F600.0
 G0 X174.9 Y174.9 F2400.0
G1 X158.6 Y168.7 E8617.1 F600.0
 G0 X174.9 Y174.9 F2400.0
G1 X159.9 Y166.0 E8622.3 F600.0
 G0 X174.9 Y174.9 F2400.0
G1 X161.7 Y163.5 E8627.5 F600.0
 G0 X174.9 Y174.9 F2400.0
G1 X163.9 Y161.4 E8632.8 F600.0
 G0 X174.9 Y174.9 F2400.0
G1 X166.4 Y159.7 E8638.0 F600.0
 G0 X174.9 Y174.9 F2400.0
G1 X169.2 Y158.4 E8643.3 F600.0
 G0 X174.9 Y174.9 F2400.0
G1 X172.1 Y157.7 E8648.5 F600.0
 G0 X174.9 Y174.9 F2400.0
G1 X175.2 Y157.4 E8653.8 F600.0
 G0 X174.9 Y174.9 F2400.0
G1 X178.2 Y157.7 E8659.0 F600.0
 G0 X174.9 Y174.9 F2400.0
G1 X181.1 Y158.6 E8664.3 F600.0
 G0 X174.9 Y174.9 F2400.0
G1 X183.9 Y159.9 E8669.5 F600.0
 G0 X174.9 Y174.9 F2400.0
G1 X186.4 Y161.7 E8674.8 F600.0
 G0 X174.9 Y174.9 F2400.0
G1 X188.5 Y163.9 E8680.0 F600.0
 G0 X174.9 Y174.9 F2400.0
G1 X190.2 Y166.4 E8685.3 F600.0
 G0 X174.9 Y174.9 F2400.0
G1 X191.4 Y169.2 E8690.5 F600.0
G0  F600.0 Z9.399996
M117 46.999977 out of 250.0
 G0 X174.9 Y174.9 F2400.0
G1 X192.2 Y172.1 E8695.8 F600.0
 G0 X174.9 Y174.9 F2400.0
G1 X192.4 Y175.1 E8701.0 F600.0
 G0 X174.9 Y174.9 F2400.0
G1 X192.1 Y178.1 E8706.3 F600.0
 G0 X174.9 Y174.9 F2400.0
G1 X191.3 Y181.1 E8711.5 F600.0
 G0 X174.9 Y174.9 F2400.0
G1 X190.0 Y183.8 E8716.8 F600.0
 G0 X174.9 Y174.9 F2400.0
G1 X188.2 Y186.3 E8722.0 F600.0
 G0 X174.9 Y174.9 F2400.0
G1 X186.0 Y188.4 E8727.3 F600.0
 G0 X174.9 Y174.9 F2400.0
G1 X183.5 Y190.2 E8732.5 F600.0
 G0 X174.9 Y174.9 F2400.0
G1 X180.7 Y191.4 E8737.8 F600.0
 G0 X174.9 Y174.9 F2400.0
G1 X177.8 Y192.2 E8743.0 F600.0
 G0 X174.9 Y174.9 F2400.0
G1 X174.7 Y192.4 E8748.2 F600.0
 G0 X174.9 Y174.9 F2400.0
G1 X171.7 Y192.1 E8753.5 F600.0
 G0 X174.9 Y174.9 F2400.0
G1 X168.8 Y191.3 E8758.7 F600.0
 G0 X174.9 Y174.9 F2400.0
G1 X166.0 Y190.0 E8764.0 F600.0
 G0 X174.9 Y174.9 F2400.0
G1 X163.5 Y188.2 E8769.2 F600.0
 G0 X174.9 Y174.9 F2400.0
G1 X161.4 Y186.0 E8774.5 F600.0
 G0 X174.9 Y174.9 F2400.0
G1 X159.7 Y183.5 E8779.7 F600.0
 G0 X174.9 Y174.9 F2400.0
G1 X158.4 Y180.7 E8785.0 F600.0
 G0 X174.9 Y174.9 F2400.0
G1 X157.7 Y177.8 E8790.2 F600.0
 G0 X174.9 Y174.9 F2400.0
G1 X157.4 Y174.7 E8795.5 F600.0
 G0 X174.9 Y174.9 F2400.0
G1 X157.7 Y171.7 E8800.7 F600.0
 G0 X174.9 Y174.9 F2400.0
G1 X158.6 Y168.8 E8806.0 F600.0
 G0 X174.9 Y174.9 F2400.0
G1 X159.9 Y166.0 E8811.2 F600.0
 G0 X174.9 Y174.9 F2400.0
G1 X161.6 Y163.5 E8816.5 F600.0
 G0 X174.9 Y174.9 F2400.0
G1 X163.8 Y161.4 E8821.7 F600.0
 G0 X174.9 Y174.9 F2400.0
G1 X166.3 Y159.7 E8827.0 F600.0
 G0 X174.9 Y174.9 F2400.0
G1 X169.1 Y158.4 E8832.2 F600.0
 G0 X174.9 Y174.9 F2400.0
G1 X172.1 Y157.7 E8837.5 F600.0
 G0 X174.9 Y174.9 F2400.0
G1 X175.1 Y157.4 E8842.7 F600.0
